/* XPM */
static char * Wario_xpm[] = {
"77 100 1753 2",
"  	c None",
". 	c #646464",
"+ 	c #414141",
"@ 	c #323232",
"# 	c #313133",
"$ 	c #494A4A",
"% 	c #868686",
"& 	c #3B3B3C",
"* 	c #1F1F21",
"= 	c #1D1E20",
"- 	c #1C1E20",
"; 	c #2C2D2F",
"> 	c #6C6C6E",
", 	c #2C2C2D",
"' 	c #1E1F21",
") 	c #2F3031",
"! 	c #787878",
"~ 	c #5A5B5B",
"{ 	c #262728",
"] 	c #1F2022",
"^ 	c #7D7D7D",
"/ 	c #5C5B5C",
"( 	c #3B3D3C",
"_ 	c #373737",
": 	c #353636",
"< 	c #515151",
"[ 	c #7D8080",
"} 	c #A9ADAF",
"| 	c #B0B4B6",
"1 	c #AFB5B5",
"2 	c #AFB4B5",
"3 	c #A2A8A8",
"4 	c #6C6C6C",
"5 	c #383838",
"6 	c #3E3E3F",
"7 	c #5A5A5B",
"8 	c #454647",
"9 	c #1A1D1E",
"0 	c #1B1E1F",
"a 	c #8E9293",
"b 	c #EFF7F9",
"c 	c #F2F9FC",
"d 	c #F2FAFC",
"e 	c #E2EAEC",
"f 	c #3E4042",
"g 	c #3E4040",
"h 	c #3F3F3F",
"i 	c #1C1D1F",
"j 	c #909495",
"k 	c #EEF6F8",
"l 	c #F1F9FB",
"m 	c #F2F8FB",
"n 	c #E0E6E7",
"o 	c #2E3031",
"p 	c #4F4F50",
"q 	c #4B4C4B",
"r 	c #212224",
"s 	c #222425",
"t 	c #232425",
"u 	c #929698",
"v 	c #F1F8FA",
"w 	c #F2F8FA",
"x 	c #DCE2E3",
"y 	c #212324",
"z 	c #1B1C1E",
"A 	c #5E5F5F",
"B 	c #606062",
"C 	c #414243",
"D 	c #393A3B",
"E 	c #3A3B3B",
"F 	c #4E4F4E",
"G 	c #99A09F",
"H 	c #B4BABB",
"I 	c #B6BBBC",
"J 	c #B7BCBD",
"K 	c #CDD3D4",
"L 	c #F0F8FA",
"M 	c #F2F9FB",
"N 	c #F1F6F8",
"O 	c #F2CEC6",
"P 	c #F2C0B4",
"Q 	c #F2BEB3",
"R 	c #F2BEB1",
"S 	c #F2BDB1",
"T 	c #D6A79A",
"U 	c #1C1C1F",
"V 	c #1B1D1F",
"W 	c #565758",
"X 	c #4A4B4D",
"Y 	c #000000",
"Z 	c #CBD2D2",
"` 	c #F1FAFC",
" .	c #F1F9FA",
"..	c #F2F3F4",
"+.	c #F1A08B",
"@.	c #F17B57",
"#.	c #F27B57",
"$.	c #F17B58",
"%.	c #F17C58",
"&.	c #D26E54",
"*.	c #161C1D",
"=.	c #5B5C5E",
"-.	c #4D4D4F",
";.	c #000001",
">.	c #CDD2D3",
",.	c #F1F3F2",
"'.	c #F19C86",
").	c #F27C58",
"!.	c #F27C57",
"~.	c #CC6C51",
"{.	c #0D1B1C",
"].	c #6A6B6C",
"^.	c #707171",
"/.	c #494A4B",
"(.	c #262729",
"_.	c #272829",
":.	c #252628",
"<.	c #1E1E20",
"[.	c #242021",
"}.	c #252121",
"|.	c #252021",
"1.	c #211F21",
"2.	c #000003",
"3.	c #CBCFD1",
"4.	c #F3F1F0",
"5.	c #F09A82",
"6.	c #F27E5B",
"7.	c #F37E5B",
"8.	c #C86E56",
"9.	c #1B2528",
"0.	c #27282A",
"a.	c #242627",
"b.	c #636465",
"c.	c #6A6B6D",
"d.	c #494A4C",
"e.	c #3D3E40",
"f.	c #535454",
"g.	c #999D9E",
"h.	c #BDC2C3",
"i.	c #B3BABB",
"j.	c #363637",
"k.	c #412C26",
"l.	c #B3614A",
"m.	c #B9634A",
"n.	c #B8634A",
"o.	c #834A3D",
"p.	c #171D20",
"q.	c #000004",
"r.	c #C8CECF",
"s.	c #F1F9FC",
"t.	c #F0FAF8",
"u.	c #F2DBD6",
"v.	c #F1BAAC",
"w.	c #F1B8AA",
"x.	c #F2B7AA",
"y.	c #F2B7A9",
"z.	c #F1B7A9",
"A.	c #F1CBC1",
"B.	c #EFD1CA",
"C.	c #F0D0CA",
"D.	c #F0D0C9",
"E.	c #F0D0C7",
"F.	c #DEC9C6",
"G.	c #BDC3C5",
"H.	c #BEC3C4",
"I.	c #BABFC1",
"J.	c #7C7D80",
"K.	c #454748",
"L.	c #3E3F41",
"M.	c #4B4C4D",
"N.	c #848586",
"O.	c #5A5B5C",
"P.	c #242528",
"Q.	c #C0C7C9",
"R.	c #F0F6F8",
"S.	c #4F5252",
"T.	c #1C1E21",
"U.	c #4F3128",
"V.	c #ED7D5D",
"W.	c #F27D57",
"X.	c #B3634C",
"Y.	c #111B1F",
"Z.	c #020206",
"`.	c #C3C9CA",
" +	c #F2F8F8",
".+	c #F1C2B6",
"++	c #F17C59",
"@+	c #F08B6E",
"#+	c #F1EAE8",
"$+	c #F3F9FA",
"%+	c #F3F8FA",
"&+	c #F3F8FB",
"*+	c #F2FAFA",
"=+	c #F2FAFB",
"-+	c #8A8E90",
";+	c #141718",
">+	c #999A9B",
",+	c #666767",
"'+	c #232526",
")+	c #BBC0C2",
"!+	c #F0F7F8",
"~+	c #606364",
"{+	c #4A2D24",
"]+	c #ED7C5A",
"^+	c #F37D58",
"/+	c #B9664B",
"(+	c #0D1C1F",
"_+	c #050509",
":+	c #BEC4C5",
"<+	c #F1F9F9",
"[+	c #F1C1B5",
"}+	c #F27D59",
"|+	c #F18B72",
"1+	c #F1ECEA",
"2+	c #7E8283",
"3+	c #17181A",
"4+	c #242527",
"5+	c #999A9C",
"6+	c #646566",
"7+	c #222325",
"8+	c #B3B9BB",
"9+	c #F0F7F9",
"0+	c #696C6D",
"a+	c #432822",
"b+	c #EC7C5B",
"c+	c #F37D57",
"d+	c #BF694E",
"e+	c #29201F",
"f+	c #302422",
"g+	c #261310",
"h+	c #B8BDBE",
"i+	c #EFF8F9",
"j+	c #F1F7F8",
"k+	c #F2F7F8",
"l+	c #EEF6F6",
"m+	c #EEBBB1",
"n+	c #EF7B58",
"o+	c #EE7B58",
"p+	c #EE7B57",
"q+	c #EE8A71",
"r+	c #EEE8E7",
"s+	c #6F7274",
"t+	c #191A1B",
"u+	c #939495",
"v+	c #808080",
"w+	c #888889",
"x+	c #676769",
"y+	c #28292A",
"z+	c #ADB2B4",
"A+	c #737777",
"B+	c #1C1D1E",
"C+	c #3C2623",
"D+	c #E97B58",
"E+	c #E57857",
"F+	c #CD6C51",
"G+	c #CD6C4F",
"H+	c #CE6C4E",
"I+	c #9B7369",
"J+	c #7C8182",
"K+	c #7F8385",
"L+	c #818485",
"M+	c #E29F90",
"N+	c #F1A494",
"O+	c #F1A593",
"P+	c #F0A592",
"Q+	c #D0998C",
"R+	c #848485",
"S+	c #7D7F7E",
"T+	c #7A625C",
"U+	c #7B4738",
"V+	c #794638",
"W+	c #794639",
"X+	c #7A4639",
"Y+	c #7C4E42",
"Z+	c #797676",
"`+	c #808484",
" @	c #7F8484",
".@	c #7F8383",
"+@	c #7B7E7E",
"@@	c #353839",
"#@	c #1C1E1F",
"$@	c #27292B",
"%@	c #5F5F60",
"&@	c #5D5E60",
"*@	c #2A2B2C",
"=@	c #1F2122",
"-@	c #A4A9AA",
";@	c #EFF7F8",
">@	c #818585",
",@	c #392422",
"'@	c #F37B58",
")@	c #F37B59",
"!@	c #F17D57",
"~@	c #F27D58",
"{@	c #9C5644",
"]@	c #131C1E",
"^@	c #1C1C1B",
"/@	c #DB7658",
"(@	c #F37C57",
"_@	c #F17D56",
":@	c #F17D58",
"<@	c #F07D58",
"[@	c #C0674C",
"}@	c #2D2421",
"|@	c #1B1E20",
"1@	c #1F1D1E",
"2@	c #1D1D21",
"3@	c #1D1E21",
"4@	c #1D1D22",
"5@	c #1C1F1F",
"6@	c #1B1F20",
"7@	c #414142",
"8@	c #5B5B5C",
"9@	c #303132",
"0@	c #1E2022",
"a@	c #9EA3A5",
"b@	c #888D8D",
"c@	c #372520",
"d@	c #E27758",
"e@	c #F37D59",
"f@	c #9C5744",
"g@	c #131C20",
"h@	c #121A1B",
"i@	c #DA7559",
"j@	c #F37C58",
"k@	c #F37C59",
"l@	c #C1664C",
"m@	c #2C2421",
"n@	c #5F5F5F",
"o@	c #525254",
"p@	c #2F2F31",
"q@	c #242526",
"r@	c #969A9C",
"s@	c #EBF3F5",
"t@	c #ECF4F6",
"u@	c #EAF2F3",
"v@	c #8C9090",
"w@	c #342421",
"x@	c #DF7657",
"y@	c #A25A46",
"z@	c #101A1C",
"A@	c #CE7056",
"B@	c #EB7A58",
"C@	c #EA7A57",
"D@	c #EA7A58",
"E@	c #E97A5B",
"F@	c #B4634A",
"G@	c #282220",
"H@	c #252627",
"I@	c #5C5C5D",
"J@	c #939393",
"K@	c #878787",
"L@	c #808181",
"M@	c #828282",
"N@	c #7F7F81",
"O@	c #535556",
"P@	c #585B5B",
"Q@	c #303233",
"R@	c #332322",
"S@	c #DB7456",
"T@	c #AA5C4B",
"U@	c #101C1E",
"V@	c #412B27",
"W@	c #4F332B",
"X@	c #51342C",
"Y@	c #4F312C",
"Z@	c #3B2A27",
"`@	c #1E1F20",
" #	c #363638",
".#	c #858587",
"+#	c #7E7E7E",
"@#	c #838383",
"##	c #6E6F70",
"$#	c #262628",
"%#	c #312421",
"&#	c #D77254",
"*#	c #AE5E4D",
"=#	c #111B1E",
"-#	c #1E1D22",
";#	c #1F1D21",
">#	c #1E1D20",
",#	c #1E1E1F",
"'#	c #3E3F40",
")#	c #A5A6A8",
"!#	c #5A5A5C",
"~#	c #2B2B2D",
"{#	c #302321",
"]#	c #D37151",
"^#	c #B06149",
"/#	c #0B1B1F",
"(#	c #1A1F20",
"_#	c #1D1D20",
":#	c #5B5C5D",
"<#	c #2E2322",
"[#	c #D06F50",
"}#	c #C0674B",
"|#	c #5C3529",
"1#	c #5A3429",
"2#	c #583329",
"3#	c #2C231F",
"4#	c #252120",
"5#	c #543228",
"6#	c #5A3329",
"7#	c #5A3328",
"8#	c #442C25",
"9#	c #464849",
"0#	c #595C5D",
"a#	c #5A5D5E",
"b#	c #595C5E",
"c#	c #5B5553",
"d#	c #60382D",
"e#	c #5B3429",
"f#	c #3C2924",
"g#	c #2C2D2D",
"h#	c #4F5150",
"i#	c #4F5151",
"j#	c #555757",
"k#	c #717273",
"l#	c #666666",
"m#	c #333334",
"n#	c #2D2320",
"o#	c #F27C59",
"p#	c #F17D5A",
"q#	c #EC7D5C",
"r#	c #683B2F",
"s#	c #1C1F20",
"t#	c #49302B",
"u#	c #E27A59",
"v#	c #F07D5B",
"w#	c #EF7D5A",
"x#	c #272122",
"y#	c #1D1E1F",
"z#	c #272A2B",
"A#	c #BCC1C3",
"B#	c #F2E3DD",
"C#	c #EE7D5C",
"D#	c #EF7C5A",
"E#	c #995842",
"F#	c #131B1F",
"G#	c #1A1B1D",
"H#	c #454547",
"I#	c #5C5C5C",
"J#	c #2D2D2E",
"K#	c #2B2222",
"L#	c #C86B4D",
"M#	c #F27D5A",
"N#	c #6E3E30",
"O#	c #1B1D20",
"P#	c #50342E",
"Q#	c #E87957",
"R#	c #F27B58",
"S#	c #BC6549",
"T#	c #292222",
"U#	c #2B2D2E",
"V#	c #C2C7CA",
"W#	c #F4E4DD",
"X#	c #F07A57",
"Y#	c #955341",
"Z#	c #141C1F",
"`#	c #5E5F60",
" $	c #828385",
".$	c #77787B",
"+$	c #6D6E70",
"@$	c #6B6C6C",
"#$	c #2A2222",
"$$	c #C5694C",
"%$	c #F47B57",
"&$	c #F47C57",
"*$	c #F37C56",
"=$	c #F17E5B",
"-$	c #744031",
";$	c #191E20",
">$	c #51342D",
",$	c #E87A56",
"'$	c #F27B59",
")$	c #F17C57",
"!$	c #2A2321",
"~$	c #2B2E2F",
"{$	c #F4E1D9",
"]$	c #F27A54",
"^$	c #F57D59",
"/$	c #8A4E3E",
"($	c #151D1F",
"_$	c #1A1E20",
":$	c #121B1F",
"<$	c #0E1C1F",
"[$	c #111B20",
"}$	c #6D6E71",
"|$	c #7A7B7C",
"1$	c #747778",
"2$	c #7F8082",
"3$	c #2C2E2F",
"4$	c #2B2C2E",
"5$	c #292A2C",
"6$	c #282223",
"7$	c #C2674B",
"8$	c #ED7C58",
"9$	c #AC6049",
"0$	c #A45C45",
"a$	c #A45C47",
"b$	c #C46950",
"c$	c #F27E5A",
"d$	c #784334",
"e$	c #BB6549",
"f$	c #F2F9FA",
"g$	c #E2D7D7",
"h$	c #A35943",
"i$	c #A45B49",
"j$	c #9E5947",
"k$	c #563730",
"l$	c #5E3A31",
"m$	c #A15945",
"n$	c #AA5C47",
"o$	c #9F5C46",
"p$	c #64433B",
"q$	c #2E2F30",
"r$	c #3E4041",
"s$	c #808182",
"t$	c #CCCCCC",
"u$	c #3E3F3F",
"v$	c #282122",
"w$	c #BC644A",
"x$	c #E97B59",
"y$	c #372823",
"z$	c #101B1E",
"A$	c #03191D",
"B$	c #844939",
"C$	c #794234",
"D$	c #191D21",
"E$	c #E77A56",
"F$	c #B9644A",
"G$	c #292220",
"H$	c #2C2E30",
"I$	c #C3C9CB",
"J$	c #CDD1D3",
"K$	c #121B1E",
"L$	c #1A1E1F",
"M$	c #975440",
"N$	c #F07C58",
"O$	c #894A39",
"P$	c #6A6A69",
"Q$	c #4D4D4D",
"R$	c #272022",
"S$	c #B8634B",
"T$	c #3F2C26",
"U$	c #161D1F",
"V$	c #804737",
"W$	c #191E21",
"X$	c #4E322B",
"Y$	c #E77A57",
"Z$	c #292221",
"`$	c #2E3032",
" %	c #C5CBCD",
".%	c #CACED1",
"+%	c #000102",
"@%	c #1B1E1D",
"#%	c #9E5743",
"$%	c #ED7A57",
"%%	c #2D2E2F",
"&%	c #747575",
"*%	c #5D5D5D",
"=%	c #242022",
"-%	c #B46148",
";%	c #E97C59",
">%	c #4A2E29",
",%	c #181D1F",
"'%	c #794536",
")%	c #7C4637",
"!%	c #181E21",
"~%	c #432F29",
"{%	c #E0775C",
"]%	c #ED7D5A",
"^%	c #EC7D5B",
"/%	c #B46249",
"(%	c #211E1C",
"_%	c #111919",
":%	c #C4C9CB",
"<%	c #F1F8F9",
"[%	c #F1F7FA",
"}%	c #CACFD0",
"|%	c #000203",
"1%	c #030609",
"2%	c #141A1D",
"3%	c #11191A",
"4%	c #AA5C44",
"5%	c #EC7956",
"6%	c #794436",
"7%	c #15191A",
"8%	c #11181D",
"9%	c #2E3030",
"0%	c #5E6061",
"a%	c #575757",
"b%	c #5B5B5D",
"c%	c #959697",
"d%	c #565656",
"e%	c #222121",
"f%	c #AF5E46",
"g%	c #EC7B58",
"h%	c #53342D",
"i%	c #181D20",
"j%	c #764435",
"k%	c #F17D5B",
"l%	c #7E4637",
"m%	c #191D20",
"n%	c #212020",
"o%	c #492B24",
"p%	c #512F27",
"q%	c #533128",
"r%	c #945240",
"s%	c #DB765A",
"t%	c #E0785C",
"u%	c #DD785A",
"v%	c #916258",
"w%	c #515454",
"x%	c #525555",
"y%	c #6F7374",
"z%	c #E9F0F1",
"A%	c #ECF5F6",
"B%	c #E6ECEE",
"C%	c #E5EBEE",
"D%	c #E1E7E9",
"E%	c #595D5E",
"F%	c #543630",
"G%	c #D77556",
"H%	c #DF775B",
"I%	c #DF7959",
"J%	c #E97A59",
"K%	c #F17B59",
"L%	c #E37A5A",
"M%	c #E0785A",
"N%	c #DE785A",
"O%	c #BE6C52",
"P%	c #2A2625",
"Q%	c #232325",
"R%	c #212326",
"S%	c #545658",
"T%	c #22201F",
"U%	c #AB5B44",
"V%	c #59382E",
"W%	c #734234",
"X%	c #F27E59",
"Y%	c #834739",
"Z%	c #1B1F1F",
"`%	c #99543F",
" &	c #F07B58",
".&	c #EF7B56",
"+&	c #8F4D3D",
"@&	c #535657",
"#&	c #E9F0F2",
"$&	c #606465",
"%&	c #6D4136",
"&&	c #D27051",
"*&	c #211E1F",
"=&	c #636363",
"-&	c #A65943",
";&	c #EE7A57",
">&	c #623C31",
",&	c #704233",
"'&	c #F17E59",
")&	c #874A3A",
"!&	c #141D1F",
"~&	c #9A543F",
"{&	c #8B4D3D",
"]&	c #545758",
"^&	c #EAF1F2",
"/&	c #535658",
"(&	c #1A1C1E",
"_&	c #774639",
":&	c #EF7C56",
"<&	c #CC6E52",
"[&	c #161B1D",
"}&	c #656667",
"|&	c #6A6D6E",
"1&	c #676A6B",
"2&	c #696A6B",
"3&	c #373739",
"4&	c #58595A",
"5&	c #313234",
"6&	c #1F1F20",
"7&	c #A25741",
"8&	c #F07A58",
"9&	c #A05A44",
"0&	c #884D3E",
"a&	c #A55B45",
"b&	c #B3624B",
"c&	c #884E3E",
"d&	c #8A4D3C",
"e&	c #BA654B",
"f&	c #F07B56",
"g&	c #B06049",
"h&	c #894D3D",
"i&	c #884D3D",
"j&	c #896057",
"k&	c #C0C3C3",
"l&	c #C8CCCE",
"m&	c #C7CCCE",
"n&	c #C3C7C9",
"o&	c #895E55",
"p&	c #8A4C3E",
"q&	c #8A4D3E",
"r&	c #AD6049",
"s&	c #D57052",
"t&	c #894E3D",
"u&	c #834B3C",
"v&	c #4F4240",
"w&	c #474A4A",
"x&	c #525454",
"y&	c #ADAEAF",
"z&	c #404042",
"A&	c #1D1F1F",
"B&	c #9D5540",
"C&	c #F07B59",
"D&	c #F07C55",
"E&	c #F07C56",
"F&	c #DE7456",
"G&	c #342E2E",
"H&	c #2C2D2E",
"I&	c #322D2D",
"J&	c #E07958",
"K&	c #F07B57",
"L&	c #F17B56",
"M&	c #F17A58",
"N&	c #EE7C59",
"O&	c #643D33",
"P&	c #1C1E1D",
"Q&	c #555656",
"R&	c #4B4B4B",
"S&	c #99523F",
"T&	c #F07C59",
"U&	c #DC7657",
"V&	c #1F201F",
"W&	c #2C2120",
"X&	c #E67A5A",
"Y&	c #EF7D5B",
"Z&	c #50342A",
"`&	c #505251",
" *	c #626263",
".*	c #656666",
"+*	c #636364",
"@*	c #4A4A4A",
"#*	c #1D1F21",
"$*	c #904F3C",
"%*	c #D47157",
"&*	c #181D1D",
"**	c #362623",
"=*	c #E4785B",
"-*	c #EE7A56",
";*	c #3E2720",
">*	c #1C1E1E",
",*	c #5A5B5A",
"'*	c #818181",
")*	c #222324",
"!*	c #202123",
"~*	c #1E1E21",
"{*	c #4E322A",
"]*	c #844938",
"^*	c #884A3A",
"/*	c #894939",
"(*	c #8A4A3A",
"_*	c #9A533F",
":*	c #B6634A",
"<*	c #894B39",
"[*	c #764338",
"}*	c #272222",
"|*	c #7F483A",
"1*	c #914F3C",
"2*	c #DC7454",
"3*	c #E57A5A",
"4*	c #30221E",
"5*	c #8A8A8A",
"6*	c #202022",
"7*	c #1C1E22",
"8*	c #1C1F21",
"9*	c #1D1F20",
"0*	c #543026",
"a*	c #945542",
"b*	c #141D1E",
"c*	c #1D1F1E",
"d*	c #422D29",
"e*	c #D67052",
"f*	c #DD7757",
"g*	c #281F1D",
"h*	c #1C1F1E",
"i*	c #626262",
"j*	c #919193",
"k*	c #838486",
"l*	c #222423",
"m*	c #4E2D26",
"n*	c #F37B57",
"o*	c #F47C58",
"p*	c #94533F",
"q*	c #141D20",
"r*	c #492E2B",
"s*	c #DA7153",
"t*	c #D67253",
"u*	c #231F1F",
"v*	c #1D1F1D",
"w*	c #646665",
"x*	c #666867",
"y*	c #38393A",
"z*	c #2D2E30",
"A*	c #272929",
"B*	c #666A6A",
"C*	c #6E7273",
"D*	c #6D7273",
"E*	c #776E6C",
"F*	c #D57456",
"G*	c #D87355",
"H*	c #D67354",
"I*	c #945341",
"J*	c #6C3C2F",
"K*	c #6E3C2F",
"L*	c #6D3D2F",
"M*	c #6B3C2F",
"N*	c #4E3028",
"O*	c #232426",
"P*	c #5B5E5F",
"Q*	c #6E7173",
"R*	c #6D7172",
"S*	c #5B5F60",
"T*	c #422B29",
"U*	c #BF684D",
"V*	c #D77355",
"W*	c #D87455",
"X*	c #D97355",
"Y*	c #BF6E56",
"Z*	c #3E3E3D",
"`*	c #2E2F2E",
" =	c #323333",
".=	c #4C4E4D",
"+=	c #4E504F",
"@=	c #2A2C2D",
"#=	c #DEE5E6",
"$=	c #EDF5F7",
"%=	c #EDF4F6",
"&=	c #E3E8E9",
"*=	c #2A2424",
"==	c #27201F",
"-=	c #1F1D1F",
";=	c #AC5E46",
">=	c #EC7B59",
",=	c #EC7A59",
"'=	c #EA7B5A",
")=	c #AC5E48",
"!=	c #383A3C",
"~=	c #CBD0D2",
"{=	c #CCD2D3",
"]=	c #25201F",
"^=	c #26211E",
"/=	c #27211D",
"(=	c #28211D",
"_=	c #26211D",
":=	c #514D4C",
"<=	c #AFB1B0",
"[=	c #969898",
"}=	c #949494",
"|=	c #646565",
"1=	c #282A2B",
"2=	c #DEE4E5",
"3=	c #EAF2F4",
"4=	c #262928",
"5=	c #0A1B1D",
"6=	c #AF634B",
"7=	c #F17D55",
"8=	c #F27C56",
"9=	c #F27D55",
"0=	c #F37C55",
"a=	c #B56148",
"b=	c #D3D9DB",
"c=	c #D4DADC",
"d=	c #1C1F1D",
"e=	c #1D1E1E",
"f=	c #1C201F",
"g=	c #1A1F1E",
"h=	c #4D4F4F",
"i=	c #59595D",
"j=	c #4B4B4E",
"k=	c #424245",
"l=	c #3C3C3E",
"m=	c #262929",
"n=	c #D7DEDE",
"o=	c #F3FAFB",
"p=	c #F3FAFA",
"q=	c #F3F9FB",
"r=	c #EBF3F4",
"s=	c #333636",
"t=	c #151819",
"u=	c #001418",
"v=	c #B0624A",
"w=	c #F57C58",
"x=	c #B66049",
"y=	c #3C3E3F",
"z=	c #D2D8DB",
"A=	c #F3FAFC",
"B=	c #CFD6D7",
"C=	c #16191A",
"D=	c #161819",
"E=	c #181818",
"F=	c #1C1D1C",
"G=	c #1D1E1D",
"H=	c #181918",
"I=	c #161917",
"J=	c #151919",
"K=	c #1A1D1D",
"L=	c #1C1D1D",
"M=	c #545454",
"N=	c #777878",
"O=	c #343535",
"P=	c #232524",
"Q=	c #232424",
"R=	c #202221",
"S=	c #20201F",
"T=	c #686B6B",
"U=	c #838686",
"V=	c #838786",
"W=	c #A3A8A8",
"X=	c #ECF3F5",
"Y=	c #CED5D6",
"Z=	c #CBD1D4",
"`=	c #9D908D",
" -	c #7B4636",
".-	c #7B4839",
"+-	c #8B4F3F",
"@-	c #B66048",
"#-	c #6A6C6E",
"$-	c #808485",
"%-	c #8A8F8F",
"&-	c #CAD1D2",
"*-	c #CCD2D4",
"=-	c #C8CED0",
"--	c #585C5D",
";-	c #6A6D6F",
">-	c #CDD3D5",
",-	c #C6CBCD",
"'-	c #767979",
")-	c #515555",
"!-	c #C0C6C7",
"~-	c #CDD2D5",
"{-	c #C9CED1",
"]-	c #838687",
"^-	c #171918",
"/-	c #373838",
"(-	c #7F7F7F",
"_-	c #6A6A6A",
":-	c #616161",
"<-	c #868787",
"[-	c #333534",
"}-	c #1A1C1B",
"|-	c #181A19",
"1-	c #181A18",
"2-	c #181A17",
"3-	c #707374",
"4-	c #F3FBFD",
"5-	c #ACB1B3",
"6-	c #060D10",
"7-	c #191D1F",
"8-	c #422C29",
"9-	c #E77A55",
"0-	c #B66147",
"a-	c #18191B",
"b-	c #131416",
"c-	c #6B6F70",
"d-	c #181C1B",
"e-	c #898D8E",
"f-	c #F1FAFB",
"g-	c #EFF6F8",
"h-	c #8D9090",
"i-	c #1E1E1E",
"j-	c #696C6C",
"k-	c #EDF5F5",
"l-	c #999D9D",
"m-	c #141615",
"n-	c #3E3F3E",
"o-	c #A9AAAA",
"p-	c #3C3D3D",
"q-	c #191E1D",
"r-	c #181E1D",
"s-	c #686D6E",
"t-	c #E8F0F2",
"u-	c #AFB4B6",
"v-	c #0D0E10",
"w-	c #422C28",
"x-	c #E67954",
"y-	c #B66148",
"z-	c #221F20",
"A-	c #12181A",
"B-	c #848889",
"C-	c #5B5F5F",
"D-	c #1A1D1C",
"E-	c #909596",
"F-	c #878B8B",
"G-	c #6D7171",
"H-	c #909595",
"I-	c #0E1615",
"J-	c #383B3A",
"K-	c #6E6E6E",
"L-	c #484A4B",
"M-	c #515354",
"N-	c #B9BBBA",
"O-	c #3F4140",
"P-	c #1E1E1D",
"Q-	c #3A2924",
"R-	c #7E4837",
"S-	c #8A4F3C",
"T-	c #8B4F3C",
"U-	c #8B4E3C",
"V-	c #8A4E3C",
"W-	c #8C4E3C",
"X-	c #93695E",
"Y-	c #BDC0C0",
"Z-	c #C6CDCD",
"`-	c #C7CECF",
" ;	c #DCE4E6",
".;	c #0D100E",
"+;	c #412D27",
"@;	c #E77957",
"#;	c #CC6C4F",
"$;	c #8F4F3C",
"%;	c #8A4F3D",
"&;	c #8C4F3B",
"*;	c #927973",
"=;	c #C4CBCA",
"-;	c #C7CCCD",
";;	c #C0C5C6",
">;	c #404244",
",;	c #757878",
"';	c #C2C7C8",
");	c #BBC4C4",
"!;	c #646867",
"~;	c #595D5D",
"{;	c #C1C7C9",
"];	c #C6CCCD",
"^;	c #C2CACA",
"/;	c #967973",
"(;	c #8C4E3B",
"_;	c #6C4335",
":;	c #2D2E2D",
"<;	c #2C2F30",
"[;	c #3B3D3D",
"};	c #6A6A6B",
"|;	c #4A4B4A",
"1;	c #653C31",
"2;	c #E57758",
"3;	c #DF7556",
"4;	c #513127",
"5;	c #212322",
"6;	c #ACB1B2",
"7;	c #B1B6B6",
"8;	c #0D0F0D",
"9;	c #402B25",
"0;	c #BD664E",
"a;	c #081A1B",
"b;	c #121B1B",
"c;	c #CE7054",
"d;	c #C1684E",
"e;	c #222020",
"f;	c #2B2C2C",
"g;	c #636464",
"h;	c #AEAFB1",
"i;	c #575858",
"j;	c #5E372D",
"k;	c #E37756",
"l;	c #E07655",
"m;	c #533228",
"n;	c #1F2120",
"o;	c #A7ACAF",
"p;	c #B5BABA",
"q;	c #0B0E0C",
"r;	c #402C27",
"s;	c #E77856",
"t;	c #B9654A",
"u;	c #091B1B",
"v;	c #131C1A",
"w;	c #D77256",
"x;	c #BA634A",
"y;	c #211F1F",
"z;	c #303130",
"A;	c #3E2F2C",
"B;	c #55352D",
"C;	c #57362E",
"D;	c #774336",
"E;	c #E47655",
"F;	c #E47857",
"G;	c #764234",
"H;	c #58362D",
"I;	c #59372F",
"J;	c #A19E9F",
"K;	c #E1E8EA",
"L;	c #E3EBEC",
"M;	c #BFC5C5",
"N;	c #5B5E5E",
"O;	c #5C605F",
"P;	c #645B5A",
"Q;	c #E17555",
"R;	c #E17554",
"S;	c #E27655",
"T;	c #C0684D",
"U;	c #56352C",
"V;	c #57352E",
"W;	c #56362D",
"X;	c #57362D",
"Y;	c #5A362B",
"Z;	c #E17759",
"`;	c #B35F47",
" >	c #525252",
".>	c #191F21",
"+>	c #915543",
"@>	c #E27552",
"#>	c #E17654",
"$>	c #E47756",
"%>	c #E27754",
"&>	c #E27653",
"*>	c #E37653",
"=>	c #B46E5B",
"->	c #5D5E5F",
";>	c #5D6061",
">>	c #686B6C",
",>	c #EAF4F4",
"'>	c #E3EBED",
")>	c #E2EBED",
"!>	c #D7DFE1",
"~>	c #695550",
"{>	c #58352C",
"]>	c #59362B",
"^>	c #59352B",
"/>	c #59352C",
"(>	c #693D30",
"_>	c #DC7455",
":>	c #E97B57",
"<>	c #E37554",
"[>	c #E27554",
"}>	c #E27556",
"|>	c #E17556",
"1>	c #E37555",
"2>	c #F17C56",
"3>	c #A85A42",
"4>	c #1F201E",
"5>	c #333434",
"6>	c #676767",
"7>	c #525353",
"8>	c #161E1D",
"9>	c #905241",
"0>	c #BB654B",
"a>	c #23201F",
"b>	c #393C3C",
"c>	c #DCE3E4",
"d>	c #F2F8FC",
"e>	c #E9F1F2",
"f>	c #4E5152",
"g>	c #DB7354",
"h>	c #9E5640",
"i>	c #1E1F1D",
"j>	c #383938",
"k>	c #545555",
"l>	c #181E1E",
"m>	c #824A3B",
"n>	c #F17C5A",
"o>	c #BB654A",
"p>	c #25211F",
"q>	c #D7DEDF",
"r>	c #F0F8FB",
"s>	c #422A25",
"t>	c #D97153",
"u>	c #F07C5B",
"v>	c #93513E",
"w>	c #1E201F",
"x>	c #2E302F",
"y>	c #585958",
"z>	c #191E1E",
"A>	c #714235",
"B>	c #DC7354",
"C>	c #9B5541",
"D>	c #965340",
"E>	c #965440",
"F>	c #9A5441",
"G>	c #E67856",
"H>	c #BF674A",
"I>	c #27221F",
"J>	c #282928",
"K>	c #848787",
"L>	c #9CA0A0",
"M>	c #9BA0A0",
"N>	c #C4CBCC",
"O>	c #4F5253",
"P>	c #2A2323",
"Q>	c #7C493B",
"R>	c #945440",
"S>	c #955440",
"T>	c #965341",
"U>	c #A35945",
"V>	c #EA7956",
"W>	c #E57856",
"X>	c #995543",
"Y>	c #955541",
"Z>	c #955542",
"`>	c #876B65",
" ,	c #5F605F",
".,	c #3D3F3F",
"+,	c #656565",
"@,	c #626363",
"#,	c #1B1D1C",
"$,	c #5D392E",
"%,	c #D16E4F",
"&,	c #352723",
"*,	c #D97454",
"=,	c #C3684C",
"-,	c #2B2321",
";,	c #191B1A",
">,	c #090C09",
",,	c #9CA0A2",
"',	c #505354",
"),	c #1B1E1E",
"!,	c #593429",
"~,	c #E57755",
"{,	c #D57152",
"],	c #27201E",
"^,	c #252827",
"/,	c #616162",
"(,	c #606261",
"_,	c #492D24",
":,	c #ED7D59",
"<,	c #D6704F",
"[,	c #3B2620",
"},	c #121413",
"|,	c #0C1211",
"1,	c #D57254",
"2,	c #C4694C",
"3,	c #000100",
"4,	c #979B9C",
"5,	c #4E5253",
"6,	c #121312",
"7,	c #121514",
"8,	c #181B1A",
"9,	c #131414",
"0,	c #111413",
"a,	c #141514",
"b,	c #1B1C1B",
"c,	c #5D352A",
"d,	c #E97957",
"e,	c #CE6D50",
"f,	c #26201E",
"g,	c #2B2C2B",
"h,	c #4C4D4D",
"i,	c #37251E",
"j,	c #E97C5B",
"k,	c #D26F53",
"l,	c #B8634C",
"m,	c #AE6D5D",
"n,	c #989898",
"o,	c #A0A5A6",
"p,	c #A1A5A6",
"q,	c #A1A4A5",
"r,	c #989D9D",
"s,	c #AC7264",
"t,	c #B9624C",
"u,	c #B5624C",
"v,	c #8F513D",
"w,	c #25221F",
"x,	c #262626",
"y,	c #A0A4A5",
"z,	c #C2C8C8",
"A,	c #ADB3B4",
"B,	c #A1A6A6",
"C,	c #6A6D6C",
"D,	c #6B6F6F",
"E,	c #9DA1A2",
"F,	c #989E9E",
"G,	c #595C5B",
"H,	c #442E27",
"I,	c #AA6047",
"J,	c #B66349",
"K,	c #B7644A",
"L,	c #B7634A",
"M,	c #B76349",
"N,	c #B86449",
"O,	c #A96E5E",
"P,	c #585857",
"Q,	c #272828",
"R,	c #5D5F5E",
"S,	c #2B211C",
"T,	c #E17859",
"U,	c #A25742",
"V,	c #131D1D",
"W,	c #646969",
"X,	c #E6EFF0",
"Y,	c #F1FBFC",
"Z,	c #797E7F",
"`,	c #121D1D",
" '	c #181E20",
".'	c #323434",
"+'	c #AFB4B4",
"@'	c #0E0F0F",
"#'	c #B2B8B8",
"$'	c #929897",
"%'	c #151D1D",
"&'	c #141D1C",
"*'	c #121D1C",
"='	c #131D1C",
"-'	c #121C1C",
";'	c #515352",
">'	c #686A69",
",'	c #252727",
"''	c #24201E",
")'	c #DA7457",
"!'	c #AD5D46",
"~'	c #1B1D1E",
"{'	c #5E6262",
"]'	c #E4ECED",
"^'	c #808486",
"/'	c #CED5D5",
"('	c #B1B7B7",
"_'	c #0A0D0C",
":'	c #B9BDBE",
"<'	c #EEF5F7",
"['	c #8E9292",
"}'	c #505151",
"|'	c #777778",
"1'	c #5D6062",
"2'	c #7D7E80",
"3'	c #676968",
"4'	c #21201F",
"5'	c #B8654D",
"6'	c #D67151",
"7'	c #D87152",
"8'	c #AD6E5E",
"9'	c #727677",
"0'	c #747777",
"a'	c #878B8C",
"b'	c #E5EDEF",
"c'	c #A8ACAE",
"d'	c #737676",
"e'	c #5F6061",
"f'	c #242625",
"g'	c #CDD4D4",
"h'	c #B1B6B7",
"i'	c #111312",
"j'	c #A2A7A7",
"k'	c #D9E0E2",
"l'	c #E0E7EA",
"m'	c #EEF6F7",
"n'	c #A5AAAA",
"o'	c #747877",
"p'	c #737877",
"q'	c #717474",
"r'	c #4E4F50",
"s'	c #252728",
"t'	c #282A2C",
"u'	c #3D4041",
"v'	c #323334",
"w'	c #1E1F23",
"x'	c #382A25",
"y'	c #432D25",
"z'	c #432A20",
"A'	c #8D8E8F",
"B'	c #E9F2F3",
"C'	c #E9F1F3",
"D'	c #CAD0D1",
"E'	c #313333",
"F'	c #CAD1D1",
"G'	c #363838",
"H'	c #47494A",
"I'	c #484B4C",
"J'	c #8C9192",
"K'	c #212323",
"L'	c #767777",
"M'	c #696A6A",
"N'	c #1D2021",
"O'	c #1E1F1F",
"P'	c #7D8281",
"Q'	c #D6DBDD",
"R'	c #424444",
"S'	c #2F3131",
"T'	c #B0B6B6",
"U'	c #202322",
"V'	c #7F8485",
"W'	c #A3A6A8",
"X'	c #7C7C7C",
"Y'	c #383839",
"Z'	c #2A2D2E",
"`'	c #36393A",
" )	c #363839",
".)	c #707474",
"+)	c #EEF7F8",
"@)	c #EFF5F8",
"#)	c #EFF5F7",
"$)	c #D4D9DC",
"%)	c #363939",
"&)	c #404243",
"*)	c #EFF6F7",
"=)	c #B0B6B5",
"-)	c #202021",
";)	c #333536",
">)	c #363A39",
",)	c #818587",
"')	c #ECF2F4",
"))	c #9A9EA0",
"!)	c #1E2020",
"~)	c #8D8D8D",
"{)	c #737474",
"])	c #373839",
"^)	c #9BA0A1",
"/)	c #DEE4E6",
"()	c #DFE6E8",
"_)	c #D0D6D7",
":)	c #646868",
"<)	c #66696A",
"[)	c #DDE4E5",
"})	c #B8BEBE",
"|)	c #676869",
"1)	c #666969",
"2)	c #828787",
"3)	c #D9DFE0",
"4)	c #DEE6E7",
"5)	c #DCE4E5",
"6)	c #989C9D",
"7)	c #9DA2A2",
"8)	c #444848",
"9)	c #CFD5D6",
"0)	c #DEE6E6",
"a)	c #DFE6E6",
"b)	c #DFE5E6",
"c)	c #BDC3C3",
"d)	c #777A7B",
"e)	c #DDE3E4",
"f)	c #929798",
"g)	c #323234",
"h)	c #9B9B9B",
"i)	c #888888",
"j)	c #3C3C3D",
"k)	c #A1A6A8",
"l)	c #E8EDEF",
"m)	c #101215",
"n)	c #D2D8D8",
"o)	c #F2FBFC",
"p)	c #ABB1B1",
"q)	c #121313",
"r)	c #171917",
"s)	c #7E8284",
"t)	c #F3FBFC",
"u)	c #AEB3B3",
"v)	c #1F2221",
"w)	c #4E5251",
"x)	c #E8F0F0",
"y)	c #474A49",
"z)	c #D9E0E0",
"A)	c #8C9191",
"B)	c #39393A",
"C)	c #BDBDBD",
"D)	c #8B8C8E",
"E)	c #3B3C3D",
"F)	c #95999B",
"G)	c #EAF0F2",
"H)	c #0A0D0F",
"I)	c #CED3D4",
"J)	c #B5BABB",
"K)	c #080B0B",
"L)	c #646869",
"M)	c #E6EEEF",
"N)	c #959899",
"O)	c #F0F8F9",
"P)	c #AAB0B1",
"Q)	c #111514",
"R)	c #090C0B",
"S)	c #4F5251",
"T)	c #252828",
"U)	c #080A08",
"V)	c #DBE1E2",
"W)	c #838787",
"X)	c #909193",
"Y)	c #8B8C8D",
"Z)	c #8D8C8E",
"`)	c #8C8D8F",
" !	c #5F6364",
".!	c #D3D9D9",
"+!	c #E0E5E7",
"@!	c #E0E5E8",
"#!	c #EDF2F5",
"$!	c #DFE6E7",
"%!	c #E0E6E6",
"&!	c #CDD2D2",
"*!	c #6C7170",
"=!	c #5F6464",
"-!	c #5D6162",
";!	c #3C3E3D",
">!	c #313232",
",!	c #5F6263",
"'!	c #606363",
")!	c #606463",
"!!	c #A7ABAC",
"~!	c #DEE4E4",
"{!	c #E0E8E9",
"]!	c #EFF8FB",
"^!	c #D6DBDC",
"/!	c #777A7C",
"(!	c #606365",
"_!	c #5C5F61",
":!	c #363739",
"<!	c #5E5E5F",
"[!	c #616263",
"}!	c #2A2B2D",
"|!	c #DDE4E6",
"1!	c #F0FAFB",
"2!	c #F1FAFA",
"3!	c #E0E7E9",
"4!	c #1D211F",
"5!	c #AEB4B4",
"6!	c #F0F9FA",
"7!	c #E7EEF0",
"8!	c #5B5D5E",
"9!	c #4A4A4C",
"0!	c #626264",
"a!	c #2E2F31",
"b!	c #D6DCDE",
"c!	c #F2F8F9",
"d!	c #E1E7E7",
"e!	c #565859",
"f!	c #2C2F2F",
"g!	c #AAAFB1",
"h!	c #EEF5F8",
"i!	c #E2EBEC",
"j!	c #5C5C5E",
"k!	c #333335",
"l!	c #CFD5D7",
"m!	c #F2E7E3",
"n!	c #F0B7A8",
"o!	c #F1B6A8",
"p!	c #EAB3A5",
"q!	c #C6C1C1",
"r!	c #BDC2C5",
"s!	c #7F8283",
"t!	c #A8ADAF",
"u!	c #D1D7D9",
"v!	c #9DA0A3",
"w!	c #999C9F",
"x!	c #8D9192",
"y!	c #4C4D4F",
"z!	c #666667",
"A!	c #353537",
"B!	c #F3DDD8",
"C!	c #F07A55",
"D!	c #EF896B",
"E!	c #F4EEEE",
"F!	c #585A5B",
"G!	c #B5BABC",
"H!	c #6B6B6D",
"I!	c #717171",
"J!	c #373738",
"K!	c #BEC3C5",
"L!	c #F4E3DC",
"M!	c #EF7853",
"N!	c #F27954",
"O!	c #EF8667",
"P!	c #F6EEED",
"Q!	c #A9AEAE",
"R!	c #57595B",
"S!	c #F3FAFD",
"T!	c #AEB3B5",
"U!	c #1B1C1D",
"V!	c #656566",
"W!	c #727272",
"X!	c #343435",
"Y!	c #F1D7CF",
"Z!	c #EFB0A0",
"`!	c #EFAFA0",
" ~	c #EDB4A6",
".~	c #F2D4C9",
"+~	c #F0D7CC",
"@~	c #EBCEC5",
"#~	c #9D9897",
"$~	c #909393",
"%~	c #888C8D",
"&~	c #5C5E5F",
"*~	c #333436",
"=~	c #828687",
"-~	c #8F9294",
";~	c #8F9394",
">~	c #8A8E8F",
",~	c #5E6062",
"'~	c #343536",
")~	c #737374",
"!~	c #7B7B7C",
"~~	c #8B8C8C",
"{~	c #1E1F22",
"]~	c #212223",
"^~	c #ABAFB1",
"/~	c #F2C4B9",
"(~	c #F37955",
"_~	c #F37A54",
":~	c #EC977F",
"<~	c #F4FAFA",
"[~	c #EAF2F5",
"}~	c #16181A",
"|~	c #17181B",
"1~	c #19191C",
"2~	c #171719",
"3~	c #878988",
"4~	c #363837",
"5~	c #A1A5A7",
"6~	c #F3C8BE",
"7~	c #F07E5B",
"8~	c #ED937C",
"9~	c #F5F6F7",
"0~	c #5A5E5F",
"a~	c #515350",
"b~	c #464747",
"c~	c #595A5B",
"d~	c #A1A7A8",
"e~	c #A3A9AB",
"f~	c #ACB2B4",
"g~	c #F1F8FB",
"h~	c #EECCC5",
"i~	c #F0BEB2",
"j~	c #F0BDAF",
"k~	c #F0C0B3",
"l~	c #F2CDC3",
"m~	c #F2CDC4",
"n~	c #E8C7BF",
"o~	c #A6A8A8",
"p~	c #A3A9AA",
"q~	c #9CA2A3",
"r~	c #3E4242",
"s~	c #353536",
"t~	c #BDBCBC",
"u~	c #262727",
"v~	c #EEF4F6",
"w~	c #F3F8F8",
"x~	c #EDA08E",
"y~	c #F37B5A",
"z~	c #F0B9AC",
"A~	c #E7EEEE",
"B~	c #3B3C3C",
"C~	c #606160",
"D~	c #282A29",
"E~	c #EDF3F4",
"F~	c #F5FAFB",
"G~	c #EEA594",
"H~	c #F0B5A7",
"I~	c #F4F9FA",
"J~	c #ECF1F4",
"K~	c #26272A",
"L~	c #1A1C1D",
"M~	c #4D4F4E",
"N~	c #919496",
"O~	c #9A9E9F",
"P~	c #979999",
"Q~	c #93695F",
"R~	c #945442",
"S~	c #955343",
"T~	c #966E66",
"U~	c #97989A",
"V~	c #9A9D9F",
"W~	c #8D9092",
"X~	c #282929",
"Y~	c #5F6160",
"Z~	c #656867",
"`~	c #727473",
" {	c #434544",
".{	c #141616",
"+{	c #151C1D",
"@{	c #151E1E",
"#{	c #141E1E",
"${	c #141C1D",
"%{	c #141515",
"&{	c #161817",
"*{	c #2F302F",
"={	c #606060",
"-{	c #515252",
";{	c #272827",
">{	c #252726",
",{	c #252625",
"'{	c #272928",
"){	c #353635",
"!{	c #6A6B6B",
"~{	c #565857",
"{{	c #585959",
"]{	c #545554",
"^{	c #575857",
"/{	c #545655",
"({	c #555756",
"_{	c #5C5D5D",
":{	c #797979",
"<{	c #1B1E1C",
"[{	c #616262",
"}{	c #676868",
"|{	c #4B4C4C",
"1{	c #6B6D6C",
"2{	c #535554",
"3{	c #5B5C5B",
"4{	c #2C2E2D",
"5{	c #626362",
"6{	c #767776",
"7{	c #2B2D2C",
"8{	c #232423",
"9{	c #313332",
"0{	c #373938",
"a{	c #404241",
"b{	c #444444",
"c{	c #393A39",
"d{	c #0E1110",
"e{	c #ACAEAD",
"f{	c #C6C6C6",
"g{	c #C3C3C3",
"h{	c #7C7D7C",
"i{	c #535354",
"j{	c #353637",
"k{	c #585858",
"l{	c #3D3D3D",
"m{	c #040806",
"n{	c #C5C7C6",
"o{	c #DDDDDD",
"p{	c #DBDBDB",
"q{	c #909191",
"r{	c #262827",
"s{	c #59595A",
"t{	c #454646",
"u{	c #A4A4A4",
"v{	c #3D3D3E",
"w{	c #4B4C4E",
"x{	c #5F6163",
"y{	c #A7A7AA",
"z{	c #030705",
"A{	c #C6C7C6",
"B{	c #909190",
"C{	c #424242",
"D{	c #252729",
"E{	c #737574",
"F{	c #0A0E0C",
"G{	c #B7B8B7",
"H{	c #D3D3D3",
"I{	c #D0D0D0",
"J{	c #848584",
"K{	c #1E2021",
"L{	c #616363",
"M{	c #404041",
"N{	c #3C3C3C",
"O{	c #939594",
"P{	c #5C5D5C",
"Q{	c #3F4141",
"R{	c #3E3E3E",
"S{	c #292A29",
"T{	c #4B4C4A",
"U{	c #A6A8A7",
"V{	c #303231",
"W{	c #BBBCBC",
"X{	c #373837",
"Y{	c #1E201E",
"Z{	c #1F2121",
"`{	c #5E5E60",
" ]	c #686868",
".]	c #383939",
"+]	c #353535",
"@]	c #333433",
"#]	c #343434",
"                                                                                                                                                          ",
"                                                                              . + @ @ @ @ @ @ @ @ @ @ @ @ @ @ @ @ # $ %                                   ",
"                                                                              & * = = = = = = = = = = = = = = = = - ; >                                   ",
"                                                                              , ' = = = = = = = = = = = = = = = = = ) !                                   ",
"                                                                              ~ { ] ] ] ] ] ] ] ] ] ] ] ] ] ] ] ] ] # ^                                   ",
"                                                        / ( _ _ _ _ _ _ _ : < [ } | | | | | | | | | | | 1 1 1 1 1 2 3 4 5 6 7                             ",
"                                                        8 9 = = = = = = = - 0 a b c c c c c c c c c c c d d d d d d e f = 0 g                             ",
"                                                        h i = = = = = = = = = j k l l l l l l l l l l l l l l l l m n o = i p                             ",
"                                                        q r s s s s s s s s t u k l l l l l l l l l l l v v v v v w x y = z A                             ",
"                          B C D D D D D D D D D D D E F G H I I I I I I I I J K L l l l l l l l l M N O P Q R R R S T U = V W                             ",
"                          X i = = = = = = = = = = = = Y Z ` c c c c c c c c c l l l l l l l l l l  ...+.@.#.$.$.$.%.&.*.= z =.                            ",
"                          -.i = = = = = = = = = = = = ;.>.d l l l l l l l l l l l l l l l l l l l l ,.'.).).).).).!.~.{.= z ].                            ",
"                        ^./.(._.:.<.= = <.[.}.|.1.= = 2.3.d l l l l l l l l l l l l l  .v v v v v L 4.5.6.6.6.6.6.7.8.9.0.a.b.                            ",
"                  c.d.e.f.g.h.h.i.j.= - k.l.m.n.o.p.= q.r.` l l l l l l l l l l l s.t.u.v.w.x.x.y.z.w.A.B.C.C.D.D.E.F.G.H.I.J.K.L.M.N.                    ",
"                  O.- = P.Q.d c R.S.i T.U.V.!.W.X.Y.= Z.`.` l l l l l l l l l l l l  +.+++!.%.%.%.%.@+#+$+$+%+&+&+&+*+=+c d -+;+= ] >+                    ",
"                  ,+' = '+)+l l !+~+i - {+]+).^+/+(+= _+:+` l l l l l l l l l l l  .<+[+}+).).).).!.|+1+l l l l l l l l l d 2+3+= 4+5+                    ",
"                  6+7+= 7+8+l l 9+0+i - a+b+).c+d+e+f+g+h+i+k k j+k+k+k+k+k+k+!+k k l+m+n+o+o+o+o+p+q+r+k k k k k k k k k 9+s+t+= ; u+v+% w+              ",
"                  x+y+= r z+l l b A+B+= C+D+).!.E+F+G+H+I+J+K+L+M+N+O+O+O+P+P+Q+R+K+S+T+U+V+W+W+W+X+Y+Z+`+ @ @ @ @ @ @ @.@+@@@#@= = :.$@; %@              ",
"                  &@*@= =@-@l l ;@>@z - ,@E+).).'@)@!@~@{@]@#@^@/@(@_@!@_@:@<@[@}@|@1@2@3@- 2@4@4@2@5@6@#@i i i i i i i i #@= = = = = = = 7@              ",
"                  8@9@= 0@a@l l 9+b@z = c@d@).).).).).e@f@g@= h@i@W.).j@j@j@k@l@m@= = = = = = = = = = = = = = = = = = = = = = = = = = = i n@              ",
"                  o@p@t q@r@s@t@u@v@z = w@x@).).).).).j@y@]@= z@A@B@C@C@C@D@E@F@G@= = = = = = = = = = = = = = = = = = = = ' H@t t t t t t I@              ",
"                  J@K@L@M@N@O@P@S.Q@= = R@S@).).).).).^+T@U@= - V@W@X@X@X@X@Y@Z@`@= = = = = = = = = = = = = = = = = = = =  #.#+#v+v+v+v+@#J@              ",
"                          ##$#= = = = = %#&#).).).).).^+*#=#= = 5@3@-#;#>#,#= <.= = = = = = = = = = = = = = = = = = = = = '#)#                            ",
"                          !#~#= = = = = {#]#).).).).).e@^#/#T.T.T.- = = |@(#|@= = = = _#i i i i i B+0 |@T.T.3@= = = = = = '#                              ",
"                          :#p@= = = = = <#[#).).).).).j@}#|#1#2#3#T.= 4#5#6#7#8#<.= ' 9#0#a#a#a#a#b#c#d#e#6#f#|@= = = = = g#h#i#j#k#                      ",
"                          l#m#= = = = = n#G+).).).).).).o#p#p#q#r#T.s#t#u#v#w#F@x#y#z#A#v d d d d l B#C#p#D#E#F#= = = = = = z z G#H#                      ",
"                          I#J#= = = = = K#L#).).).).).).).'@!@M#N#O#6@P#Q#).R#S#T#y#U#V#l l l l l l W#X#).k@Y#Z#= = = = = = = = = `#                      ",
"                     $.$+$@$) = = = = = #$$$).++%$j@(@&$*$).).=$-$;$6@>$,$'$)$S#!$= ~$`.l l l l l ` {$]$j@^$/$($= = = = = _$:$<$[$}$|$1$2$                ",
"                    /.3$4$5$] = = = = = 6$7$).).8$9$0$a$b$j@).c$d$_$6@>$,$'$)$e$!$= ~$`.l l l l l f$g$h$i$j$k$0 = = = = - l$m$n$o$p$q$3$r$s$              ",
"                  t$u$i = = = = = = = y#v$w$).).x$y$z$A$B$}+).c$C$D$6@>$E$)@(@F$G$= H$I$l l l l l ` J$Y z$K$O#= = = = T.L$M$)$k@N$O$= = p@P$              ",
"                    Q$i = = = = = = = y#R$S$).).x$T$= U$V$M#).c$C$W$s#X$Y$).!.F$Z$= `$ %l l l l l l .%+%= = = = = = = s#@%#%!.%.$%V$= = %%&%              ",
"                    *%V = = = = = = = = =%-%).).;%>%= ,%'%M#).p#)%!%= ~%{%]%^%/%(%_%`$:%!+<%[%l l M }%Y |%1%V = = = 2%3%3+4%++++5%6%7%8%9%0%a%b%c%        ",
"                    d%i = = = = = = = = e%f%).).g%h%= i%j%k%).M#l%m%= n%o%p%q%r%s%t%u%v%w%x%y%z%l l A%B%C%D%E%z - F%G%H%I%J%)@_@K%L%M%N%O%P%Q%R%S%        ",
"                    a%i = = = = = = = = T%U%).!.g%V%= m%W%X%).M#Y%,%= = - y#Z%`% &!..&+&i B+@&#&l l l l l d $&G#(#%&p+).).).).).).).).!.&&*&= i 6+        ",
"                    =&V = = = = = = = = 1.-&++!.;&>&- ,%,&'&).e@)&!&- - - #@#@~& &).;&{&- #@]&^&l l l l l v /&(&_$_&:&R#).).).).).).).(@<&[&- V }&|&1&    ",
"                    2&L.3&4&5&= = = = = 6&7&++).8&9&0&0&a&e@).e@b&c&0&0&0&0&d&e&N$!.f&g&h&i&j&k&l&l&l&l&m&n&o&p&q&r&$.o#).).).).).).).).s&t&0&u&v&w&K.x&  ",
"                          y&z&i = = = = A&B&++).(@$. &@.K%)$).).$.@. &$. &C&D&K%).).'$#.@.E&F&G&H&H&H&H&H&I&J&@.K&L&:@!.).).).).).).).:@R#@.M&N&O&0 P&Q&  ",
"                            R&i = = = = A&S&T&).).).).).).).).).).).).).).).).).).).).).).).U&V&= = = = = W&X&(@).).).).).).).).).).).).).).).Y&Z&#@P&`&  ",
"                       *.*+*@*i = = = = #*$*B@o+o+o+o+o+n+!.).).n+p+o+o+o+o+o+o+o+o+o+o+o+p+%*&*= = = = = **=*-*o+o+o+o+o+%.).).).).).).).).).q#;*>*P&,*  ",
"                    '*0.)*!*i = = = = = ~*{*]*^*/*/*/*(*_*p#).j@:*<*O$O$/*/*/*/*/*/*/*/*/*O$[*#@= = = = = }*|*O$O$O$/*O$1*2*).).).).).).).).).3*4*A&P&a%  ",
"                    5*6*= = = = = = = = 7*A&8*= 9*s#s#|@0*Y&).^+a*b*s#s#s#s#s#s#s#s#s#s#s#3@= = = = = = = = s#y#s#s#s#c*d*e*).).).).).).).).).f*g*h*P&i*  ",
"                j*k*J@l*y#y#= = = = = = = = = = = = = - m*D#n*o*p*q*3@3@3@T.8*T.= = = = = = = = = = = = = = = = = = = ,#r*s*'@(@!.!.!.!.!.!.!.t*u*v*P&w*  ",
"              x*y*z*A*B*C*C*C*C*C*C*C*C*C*C*C*C*C*C*C*D*E*F*G*H*I*J*K*K*L*L*M*N*<.= O*P*Q*R*S*G#= = = = = = = = = = = A&T*U*V*W*G*G*G*G*G*G*X*Y*Z*`* =.=  ",
"              +=c*A&@=#=$=$=$=$=$=$=$=$=$=$=$=$=$=$=$=%=&=*===-=;=>=>=>=,=,='=)=[.y#!=~=%=$={=Y = = = = = = = = = = y#,#A&]=^=/=(=(=(=/=/=_=_=:=<=[=}=    ",
"              |=c*c*1=2=l l l l l l l l l l l l l l l l 3=4=5@5=6=~@7=8=9=_@0=a=|.y#e.b=l s.c=Y = = = = = = = = = A&c*A&d=y#5@y#y#e=y#5@5@f=g=h=          ",
"        i=j=k=l=c*c*m=n=o=p=p=p=p=p=p=p=M q=l l l l l l r=s=t=u=v=w=j@o#(@o#)$x=|.#@y=z=c A=B=Y t=7%#@= = V C=D=E=F=c*c*G=H=I=J=K=c*c*c*L=G=F=M=          ",
"      N=O=P=Q=R=c*c*S=T=>@U=U=U=U=U=U=U=V=W=X=l l l l l b Y=K Z=`= -.-+-B@).!.@-|.= (.#->@$-%-&-*-=---z #@;- %>-,-'-c*c*)-!-~-{-]-^-c*/-(-_-:-(-          ",
"      <-[-c*c*c*c*c*c*}-|-|-|-|-|-|-|-1-2-3-#&l l l l l l s.d 4-5-6-7-8-9-R#!.0-|.= = G#a-b-$-A=d 4-c-d-P&e-b f-g-h-c*i-j-k-d o=l-m-c*n-                  ",
"      o-p-c*c*h*q-r-r-r-r-r-r-r-r-r-r-r-r-s-t-f-=+s.l l l l l d u-v-= w-x-%.)$y-z-,%,%,%,%A-B-4-=+=+C-D-P&E-L =+$=F-c*e=G-;@d o=H-I-&*J-K-L-M-            ",
"      N-O-c*P-Q-R-S-T-S-U-S-V-S-V-S-V-V-W-X-Y-Z-`- ;l l l l l d 1 .;A&+;@;#.!@#;$;%;S-S-W-&;*;=;-;;;>;e=P&,;';m&);!;c*c*~;{;];^;/;(;V-_;:;<;[;};          ",
"        |;d=P-1;2;++).).).).).).).).).).'$3;4;P-5;6;l l l l l d 7;8;v*9;@;R#%.).)$++).).%.(@0;a;#@#@e=v*c*c*#@#@e=v*c*c*v*>*#@b;c;).o#d;e;c*f;g;          ",
"     $h;i;v*h*j;k;!.).).).).).).).).).).n*l;m;c*n;o;l l l l l d p;q;c*r;s;o#).).).).).).).j@t;u;c*c*c*c*c*c*c*c*c*c*c*c*c*c*c*v;w;).).x;y;v*z;a%          ",
"  M=l=Q@A;B;C;D;E;j@).).).).).).).).).).n*F;G;H;I;J;K;e L;b l d M;N;O;P;W*Q;R;R;R;R;S;n+).j@T;U;V;V;V;V;V;V;V;V;V;V;V;V;V;W;X;Y;Z;).).`;V&c*g# >          ",
"  |;`@.>+>@>#>$>K&).).).).).).).).).).).).$.%>&>*>=>->;>>>D%l l ,>'>)>!>~>{>]>^>]>/>(>_>).).:><>[>[>[>[>[>[>[>[>[>[>[>[>[>}>|>1>2>)$j@3>4>v*5>6>          ",
"  7>P&8>9>j@'$++).).).!.).!.!.!.!.!.!.!.!.j@).).'@0>a>c*b>c>l l d>f-l e>f>h*= y#y#y#8#g>).!.'@).!.!.!.!.!.!.!.!.n*n*n*n*n*!.8=!.++)$o#h>i>c*j>!           ",
"  k>P&l>m>!@).).).!.n>'@R#%.).).).).).).%.#.8='$*$o>p>c*y*q>r>r>l l l 3=f>5@c*c*c*c*s>t>++'$).).).).).).).).).R#N$)$).).).).).!.!.E&u>v>w>A&x>_-          ",
"  y>P&z>A><@).).).).o#B>C>D>E>E>E>E>E>E>E>F>G>).'@H>I>c*J>K>L>M>N>d l 3=O>5@c*c*c*c*P>Q>R>D>S>E>S>E>E>E>E>E>E>T>U>V>).).).).).W>X>Y>Z>`> ,., ,+,          ",
"  @,#,@%$,++).).).).o#%,&,q-q-q-q-q-q-q-q-G=*,).o#=,-,c*c*}-;,>,,,d l s@',h*c*c*c*c*c*),q-q-q-q-q-q-q-q-q-q-q-z>!,~,).).).).).{,],q-^,/,                  ",
"  (,P&h*_,:,).).).o*++<,[,},},},},},},},},|,1,o*:@2,}@c*v*^-},3,4,A=l t@5,6,7,;,c*c*c*c*c*c*8,9,},},},0,a,b,c*d=c,d,j@j@j@j@e@e,f,>*g,h,                  ",
"  g;P&c*i,j,).).k,x;l,m,n,o,p,p,p,p,p,p,q,r,s,t,u,v,w,c*x,2+y,p,z,=+l b A,B,M>C,w>c*c*c*c*;,D,E,p,p,p,p,F,G,c*v*H,I,J,K,L,M,N,O,P,Q,O-R,                  ",
"  ,+w>c*S,T,j@e@U,<$V,W,X,Y,d d d d d d d A=Z,z@`, 'c*c*.'K d A==+l l l d f-f-+'R=c*c*c*c*@'#'4-d d d A=i+$'c*c*6@%'&'&'*'='-';'                          ",
"  >','y#'')').j@!'~'v*{']'l l l l l l l l d ^'}-c*c*c*c*[-/'l l l l l l l s.l ('5;c*c*c*c*_':'d l l l  .<'['c*c*c*c*c*c*c*c*P&}'|'1'2'                    ",
"  3'9@' 4'5'6'7'8'9'0'a'b'l l l l l l l l A=c'1$d'e'f'c*.'g'l l l l l l l s.l h'5;c*c*c*c*i'j'k'k'l'L l m'n'o'p'p'p'p'p'p'o'q'r's't'u'<-                  ",
"  :#v'' w'x'y'z'A'B'e>3=L l l l l l l l l l t@C'C'D'[;c*E'F'l l l l l l l s.l h'5;c*c*c*c*P&G'H'I'J'k l l X=e>C'C'C'C'C'C'B'C'-@K'w> =L'                  ",
"  M'D ' N'O'* t+P'` s.s.l l l l l l l l l l l l l Q'R'c*S'`-l l l l l l l l  .T'U'c*c*c*c*c*y#y#e=V'k l l l s.s.s.s.s.s.s.s.c W'n;c*z;X'                  ",
"  K-Y'' ' Z'`' ).)+)@)#)L l l l l l l l l l b g-#)$)O>%)&)`.*)*)+)l l l l  . .=)R=c*-);)%)>)>)%)%),)')@)@)L l l l l l l l l v ))!)`@v'~)                  ",
"  {)])' 6*^)/)()_):)<)0+[)l l l l l l l l d })|)1)2)3)4)5)6)1)1)7)o=l l l  .v +'R=c*8)9)0)a)a)a)b)c)C,<)d)e)l l l l l l l l L f)' ' g)h)                  ",
"  i)j)' ] k)d l l)i `@m)n)s.l l l l l l l o)p)q)e=G-C'l ;@l-P&r)s)t)l l l  .L u)v)c*w)x)l l l l l `-9%e=y)z)l l l l l l l c +)A)' ' B)C)                  ",
"  D)E)4+a.F)v M G)z#H)Y I)l l l l l l l l d J)Y K)L)M)f-$=N)h*;,9'f$f$f$f$f$O)P)Q)R)S)z%l l l l l N>T)U)w&V)c M M M M M M c r=W)' ' '#                    ",
"    X)Y)Z)`)$&$& !.!+!@!#!l l l l l l l l l C'$!%!&!*!=!-!;!c*e=>!,!'!'!'!'!)!!!~!a){!]!l l l l l u@%!b)^!/!(!(!(!(!(!(!(!$&_!:!' = <!                    ",
"          [!}!`@_.|!` ` l 1!l l l l l l l  .2!M f-3!S.#*9*A&A&c*G=h*e=e=e=G=4!5!6!f-f-l l l l l l l f-` 7!8!`@`@`@`@`@`@`@`@9*' ' = 9!                    ",
"          0!a!' s'b!l l l l l l l l l l l l c!<%j+d!e!f!4$O*' `@!)!)!)!)!)w>v)g!h!b b l l l l l l L b b i!w%' ' ' ' ' ' ' ' ' ' ' = j!                    ",
"          <!k!' a.l!l l l l l l l l l l l l m!n!o!p!q!Q.r!s!' ' ' ' ' ' ' ' 0@>>r@))t!;@l l l l l u!v!w!x!v'' ' ' ' ' ' ' ' ' ' ' = y!                    ",
"          z!A!' '+,-M l l l l l l l l l l ` B!C!).D!E!l v c'#*' ' ' ' ' ' ' ' ' ' ' F!<'l l l l l G!(.' ' ' ' ' ' ' ' ' ' ' ' ' ' = H!                    ",
"          I!J!' t K!l l l l l l l l 2!l d d L!M!N!O!P!t)f-Q!9*' ' ' ' ' ' ' ' ' ' `@R!#)S!S!S!4-o)T!O*' ' ' ' ' ' ' ' ' ' ' = U!= i V!                    ",
"          W!X!' )*J)M l l l l l l l 6!Y!Z!`! ~.~+~@~#~$~%~&~' ' ' ' ' ' ' ' ' ' ' ' *~=~-~;~;~;~>~,~!*' ' ' ' ' ' ' ' ' ' ' '~)~L.o@!~                    ",
"          ~~E){~]~^~M l l l l l l  . ./~(~_~:~<~d [~--}~|~i ' ' ' ' ' ' ' ' ' ' ' ' ' 1~2~2~2~2~3+~'' ' ' ' ' ' ' ' ' ' ' ' %%%                           ",
"          3~4~t 4+5~L L L l l l <%v k+6~7~p#8~9~L C'0~' ' ' ' ' ' ' ' ' ' ' ' ' ' ' ' ' ' ' ' ' ' ' ' ' ' ' ' ' ' ' ' ' ' ' q$}=                          ",
"            a~b~c~x!d~e~f~g~l c!h~i~j~k~l~m~n~o~p~q~r~' ' ' ' ' ' ' ' ' ' ' ' ' ' ' ' ' ' ' ' ' ' ' ' ' ' ' ' ' ' ' ' ' ' ' s~t~                          ",
"                  R,u~!)&)v~l w~x~!@y~z~c!f$A~] ] ] ' ' ' ' ' ' ' ' ' ' ' ' ' ' ' ' ' ' ' ' ' ' ' ' ' ' ' ' ' ' ' ' ' ' ' ' B~                            ",
"                  C~D~P&E'E~A=F~G~&$}+H~I~A=J~K~' ' ' ' ' ' ' ' ' ' ' ' ' ' ' ' ' ' ' ' ' ' ' ' ' ' ' ' ' ' ' ' ' ' ' i >*L~M~                            ",
"                  ^ @$w*L@N~O~P~Q~R~S~T~U~V~W~(.' ' ' ' ' ' ' ' ' ' ' ' ' ' ' ' ' ' ' ' ' ' ' ' ' ' ' ' ' `@`@`@`@`@X~~ Y~Z~`~                            ",
"                           {9,.{+{@{#{${.{%{&{O'!)!)' ' ' ' ' ' ' ' ' ' ' ' ' ' ' ' ' ' ' ' ' ' ' ' !)!)!)!)w>w>w>w>*{={                                  ",
"                          -{;{>{5;w>w>w>w>w>w>w>w>w>`@`@`@`@`@`@`@`@`@`@`@`@`@`@`@`@`@`@`@`@`@`@`@w>w>w>R=,{;{Q,Q,'{){+,                                  ",
"                          !{~{{{]{h*w>w>w>w>w>w>w>w>w>w>w>w>w>w>w>w>w>w>w>w>w>w>w>w>w>w>w>w>w>w>w>w>w>c*.=^{/{({({({_{:{                                  ",
"                                l#P&w>w>w>w>w>w>w>w>w>w>w>w>w>w>w>w>w>w>w>w>w>w>w>w>w>w>w>w>w>w>w>w>w><{[{                                                ",
"                                }{<{c*P&w>w>w>w>w>w>w>w>w>w>w>w>w>w>w>w>w>w>w>w>w>w>w>w>w>w>w>w>w>P&P&h*|{                                                ",
"                                1{2{3{!{4{w>w>w>w>w>w>w>w>w>w>w>w>w>w>w>w>w>w>w>w>w>w>w>w>w>w>w>;{5{R,M~6{                                                ",
"                                      @,7{w>w>w>w>w>w>w>w>w>w>w>w>w>w>w>w>w>w>w>w>w>w>w>w>w>w>w>D~,*                                                      ",
"                                      {)O=8{9{;{w>w>w>w>w>w>w>w>w>w>w>c*0{a{n-7{w>w>w>w>w>w>w>w>Q=b{                                                      ",
"                                        F c{w*@*w>w>w>w>w>w>w>w>w>w>w>d{e{f{g{h{w>w>w>w>w>w>w>w>g#_-                                                      ",
"                                        i{j{k{l{w>w>w>w>w>w>w>w>w>w>w>m{n{o{p{q{w>w>w>w>w>w>w>w>r{s{t{p u{  K-M=v{w{x{                                    ",
"                                      y{:!:.5;h*w>w>w>w>w>w>w>w>w>w>w>z{A{o{p{B{w>w>w>w>w>w>w>w>!)q@0.y+v+  K-C{0.D{O@                                    ",
"                                      E{A*!)w>w>w>w>w>w>w>w>w>w>w>w>w>F{G{H{I{J{w>w>w>w>w>w>w>w>w>!)K{A&L{5{W!M{K{A&N{                                    ",
"                                      O{x>w>w>w>w>w>w>w>w>w>w>w>w>w>w>P&2{i*P{B~w>w>w>w>w>w>w>w>w>w>w>c*Q{/-R{S{w>c*T{                                    ",
"                                      U{V{w>w>w>w>w>w>w>w>w>w>w>w>w>w>w>f'r{P=c*w>w>w>w>w>w>w>w>w>w>w>w>f'r{P=c*w>P&]{                                    ",
"                                      W{X{w>w>w>Y{Y{w>w>w>w>w>w>w>w>w>w>w>w>n;w>w>w>w>w>w>w>w>w>w>w>w>w>w>w>n;w>w>>*Q&                                    ",
"                                        v{`@!)!)w>w>w>w>w>w>w>w>w>w>w>w>w>w>w>w>w>w>w>w>w>w>w>w>w>w>`@`@!)!)!)K{Z{= `{                                    ",
"                                         ].]O=+]O=O=O=O=O=5>@]@]@]@]@]@]@]@]@]@]@]@]@]@]@]5>#]O=O=O=O=+]+]+]+]+]O=R{ *                                    ",
"                                                                                                                                                          "};
