/* XPM */
static char *_3c163d450734172db5696a782975987THyF9QmzvMKHY1yG[] = {
/* columns rows colors chars-per-pixel */
"40 40 22 1 ",
"  c #0F0D1F",
". c #151C19",
"X c #1D1A1E",
"o c #192022",
"O c #1D252A",
"+ c #28264D",
"@ c #161266",
"# c #BD1A11",
"$ c #803D26",
"% c #C05600",
"& c #599130",
"* c #7F883B",
"= c #6BA642",
"- c #7FC051",
"; c #E4C46B",
": c #3B3183",
"> c #2C5D99",
", c #57549C",
"< c #5499EE",
"1 c #B7B5CE",
"2 c #D2E6FF",
"3 c white",
/* pixels */
"========================================",
"=-&======-=====-=====-====-==-===-=3-===",
"&=-&==-=&==-===&-===*-=&&=-=-=--=-3#3=-=",
"=&-&=&=-=&==-=&=-==-=====&==-==-==3%#3==",
"=&-=&*=-=&==-&-===-===-33&==&==-==3##3==",
"=&==&33-=&==-&=-==-**-32>33-=&333-3%#3==",
"=&=-3@>3&==-&=33======3>2>>333;%;33##3==",
"===3#@:>3=-=*3@@333-=3>><2<>>;%@%;3%##3=",
"==3##@:>3=-*=3@@@@@333<><<2<>%;%@%;3%#3=",
"==3#%#@:>3*&=3@>@@@@@@>>2<<2>;%;@;%3%#3=",
"=3#%#%@::>3-&=3:>@@@@@<><2<>>%;%@%;3%#3=",
"=3##%#@::@>3=-3::>@@@@>><<2@@;%;%;%;%#3=",
"3##%#%#@::@>33:@::>@@@<>>@@::%;%;%;%%#3=",
"3###%#%@:@:@:3::@:>$%@>>@::::@%;%;%;,13=",
"3##%#%#:@:@:@::@:@:>$%@@:::::@;%;%;%1,3=",
"3###%#%@:@:@::@:@:@@:@:@:::::@@;%;%;,,3=",
"3##%#%#@:@@::::@@@::@:@@:::::@@%;@;%3#%3",
"3###%#%@@::::::::@@@:@:@@::::@@;%@%;3#%3",
"3##%#%#::::::::@@;;@@:@:@::::@@%;@;%3#%3",
"=3##%#%@::@:@:@%;%;@:@:@:@:::@@;%@%;3#%3",
"==3##%#@:::@:@:@%;%;@:@:@@::@@@%;@;%3##3",
"=-o3##%#::@:@:@:;%;;@@:@:@@@>1@;%@%;3#%3",
"=-.3###%:::@:@:@@;%;;@@:@@::>,1%@%;%3##3",
"=-.o3###@:@:@:@@@%;%;@:@@:::>,1;%;%;3#%3",
"===.O333@@:@:@@@@;%;%@@:::::@ +%;%;3.3#3",
"=-=XoOo.3@@:@@@@@@;%@@::::@@>  ;%33XO.3=",
"==-=.O.oO3@@@@@@33%@%;:::@:>%@@33OX.oO==",
"==-&=O.Xo3@@@333oO3%;%:@@:##%@3.oo.O.O&=",
"==-&=*.XO.3@3XooOX3;%;@::#%%@@3o-*-.o.==",
"==-==*-XO.3 3oXoOoX3;@###%#%  @3=&-=.O&=",
"====-==*o3 ;@3ooOoO3@###%#% ;;@3&*=-o.-=",
"==-=--&=X3 % 3.oXo.3###%#%% %; 3=&==O=-=",
"=-=&=-=&=O3 3.oo..o3##%#%%3 ;% 3=-==-===",
"=-&&=-=&=oooO.&*Oo.X3%#%#%33  3==*-==--=",
"====&=*-*=ooo==-o.X.3#%#%3.X.OoX-=-**-==",
"==-&=&-&=-&-===-oOoo3%%%3-=&X.-=-*-==-==",
"===-&=-=&-*&-*=-=oO.X333&=&*-*&=-====-==",
"=-=-==-&=-&=-**=**-=*==-=&=-=&===-=-==-=",
"=-====-=&==&-==-=-=*---=&=&-==--===-==-=",
"========================================"
};
