/* XPM */
static char *d921be1e2b704acde9183826a1b0f52dj0J6nU7chyVi1Azz[] = {
/* columns rows colors chars-per-pixel */
"40 40 23 1 ",
"  c #0A0607",
". c #0F081A",
"X c #0F0D1F",
"o c #1A1113",
"O c #271522",
"+ c #1D2928",
"@ c #3A2528",
"# c #7D0B04",
"$ c #7F2600",
"% c #37582C",
"& c #4F5236",
"* c #794E36",
"= c #43643D",
"- c #28264D",
"; c #264669",
": c #4F744B",
"> c #96541B",
", c #599130",
"< c #7F883B",
"1 c #6BA642",
"2 c #7FC051",
"3 c #4874A4",
"4 c #B4AFB0",
/* pixels */
"1111111111111111111111111111111111111111",
"12,1111112111112111112111121121112112111",
",12,1121,112111,2111<21,,121212212121121",
"1,2,1,121,1121,1211211111,11211211121211",
"1,21,<121,112,21112111211,11,11211212211",
"1,11,<121,112,12112<<2112,121,<,12<11211",
"1,12,<11,112,112111111121,<22,<2,21<1,11",
"111<2<2,<121<,11<,<211121,121,11,2,2,111",
"11,12<12,12<1,11,1112<121<211121,<21,111",
"111,2<1211<,1111,<112111121121<2,121,121",
"111,11,21,<2,121,1<<211212<<2112<1211211",
"1,12XXX1XX2,12,,12,111X1211,12<<2,1,,211",
"12,X#$#X++X,121,12,11X;XX,<1,1,,,11<,211",
"11X###$.OO+X,2,1XX<,2X;3;X21,<,,1121,211",
"1X###$#X.O+X1,1XO+X<X;;43;X1,2,<111XXX11",
"1X##$#$.O.O+X2XO.O+XX3;343X2,XX,11X###X1",
"X####$#X....+XO.O.+XX3;434;XX>>XX2X$##X,",
"X###$#$XO..O.O.O.O.X;3;3OO.$>$.>>X,X$#X1",
"X##$#$#..O..OOOOOOOOOOOOO.O>$>.>>>XX#$X1",
"X###$#$#..OOOOOOOOOOOOOO.O.$>>>.>>@*$#X1",
"1X###$#$O.O.OOOOOOO.O.O.O.O>$>>.>>*@#X,1",
"12X#$#$#.O.O.O.....O.O.O.O.$>>>.>>@@X121",
"12,X#$#$O.O.O..>$>....O.@@*>$>>>$>X#X121",
"1:%=XX$#.O.O...$OOOOOO. o@*$>$>.>$X##X21",
"===XXXX$..XX$>$...OOO++XX*$>.XXXXXX#$#X1",
"=:Xo o XXX..OOOOOO..+XXXXXXXXOOOOX,X#$#X",
"=XX o oX###O....+++XX====:&:=XXo oXX$#$X",
"==:%=:X#######XXXXX:=XXXXXXXX:X >$-XX$#X",
"11:%=&%&:%&%&&==:<=%XXXXXXXX&:%o XX-=%==",
"11211<2&:%%=&=XXX1<1,2XXXX,2<2&:=%:=%:%=",
"1111211<12112211212<,<2121,21112,&=21,21",
"112122,1<2112<,1<1,2<111122,111,1,112121",
"121,121,12212,11,,12<,112<,1,22112112111",
"12,,121,11112,,<21,<,<2,12<,<2111<211221",
"1111,1<2<11111121,<,12,<,2,<,21<212<<211",
"112,1,2,12,211121211,21,121,<,212<211211",
"1112,121,2<,2<12112,<2,1,1,<2<,121111211",
"1212112,12,12<<1<<21<1121,121,1112121121",
"12111121,11,2112121<2221,1,2112211121121",
"1111111111111111111111111111111111111111"
};
