/* XPM */
static char *b2a53a88f614414d869cfaa870086ac2EwZFUOm81gA7lkql[] = {
/* columns rows colors chars-per-pixel */
"40 40 4 1 ",
"  c #599130",
". c #7F883B",
"X c #6BA642",
"o c #7FC051",
/* pixels */
"XXXXXXXXXXXXXXXXXXXXXXXXXXXXXXXXXXXXXXXX",
"Xo XXXXXXoXXXXXoXXXXXoXXXXoXXoXXXoXXoXXX",
" Xo XXoX XXoXXX oXXX.oX  XoXoXooXoXoXXoX",
"X o X XoX XXoX XoXXoXXXXX XXoXXoXXXoXoXX",
"X oX .XoX XXo oXXXoXXXoXX XX XXoXXoXooXX",
"X XX .XoX XXo XoXXo..oXXo XoX . Xo.XXoXX",
"X Xo .XX XXo XXoXXXXXXXoX .oo .o oX.X XX",
"XXX.o.o .XoX. XX. .oXXXoX XoX XX o o XXX",
"XX Xo.Xo Xo.X XX XXXo.XoX.oXXXoX .oX XXX",
"XXX o.XoXX. XXXX .XXoXXXXoXXoX.o XoX XoX",
"XXX XX oX .o XoX X..oXXoXo..oXXo.XoXXoXX",
"X Xo  XX .o Xo  Xo XXXXXoXX Xo..o X  oXX",
"Xo Xo Xo Xo XoX Xo XXo  o .X X   XX. oXX",
"XX XoXo. XX  o X .. o  X XoX .  XXoX oXX",
"XX XX oXo XXX X .oX.o o XoXX o .XXXo XXX",
"XXoX .oXXoXXXoXX . Xo XoXoXo .o XXXoXXoX",
"XXoX .o Xo Xo. Xo .XX XoX  Xo oX.oXXXXX ",
"XXXo.XXX .  o.X Xo ..XXo Xo o oXoX X.o X",
"XXXo..oX .XXo.. Xo XXoXX o XoX XoX XoX X",
"XXXXXoXXX. .X.. XoX.oXXX oX X oXoXX oX X",
"XXoX.o  XXo XoXXXXXXoX oXX.o .oXXXoXXX X",
"XoX    XoXo .Xo.XoXXX  Xo .XoXoXX XoXXoX",
"Xo o. XoXXo .Xo.o. oX X.o. .oX o XXooXoX",
"Xo XoXXo.XoX  oXoo. o XX.X .X oX XXXXXoX",
"XXX oXX..o.X  X. X .oXo.XXoX. oX Xo   XX",
"XoX.XoX o.XoXX.o. o X oXXXXo XXX o .o oX",
"XXoX o XoXX oXoX...oXXXXXo.oX oX.o. XoXX",
"XXo Xo .X . oXo.XoXoX.o.oX.X oX XX o o X",
"XXo X. .o . ..XXo.X Xo..oXoX.o Xo.o X XX",
"XXoXX.o.o  X.X.XoX.X o.XX  o.o.oX oX o X",
"XXXXoXX.XoXXooXXoXo. .oXoX oXXXo .XoX oX",
"XXoXoo X.oXXo. X.X o.XXXXoo XXX X XXoXoX",
"XoX XoX XooXo XX  Xo. XXo. X ooXXoXXoXXX",
"Xo  XoX XXXXo  .oX . .o Xo. .oXXX.oXXooX",
"XXXX X.o.XXXXXXoX . Xo . o . oX.oXo..oXX",
"XXo X o Xo oXXXoXoXX oX XoX . oXo.oXXoXX",
"XXXo XoX o. o.XoXXo .o X X .o. XoXXXXoXX",
"XoXoXXo Xo Xo..X..oX.XXoX XoX XXXoXoXXoX",
"XoXXXXoX XX oXXoXoX.oooX X oXXooXXXoXXoX",
"XXXXXXXXXXXXXXXXXXXXXXXXXXXXXXXXXXXXXXXX"
};
