/* XPM */
static char *dd4921c9eeec49a8c8b28d410ece8ab27eRDicaKpaxz8btk[] = {
/* columns rows colors chars-per-pixel */
"64 64 73 1 ",
"  c #5B9332",
". c #5F9836",
"X c #628F32",
"o c #6A8E35",
"O c #6F8F38",
"+ c #718C37",
"@ c #748D39",
"# c #7D8A3B",
"$ c #639235",
"% c #689337",
"& c #619937",
"* c #649738",
"= c #6D9339",
"- c #639D3A",
"; c #6C9C3D",
": c #76953D",
"> c #7A933E",
", c #739B3F",
"< c #7A993F",
"1 c #67A13E",
"2 c #68A33F",
"3 c #7F9540",
"4 c #739D40",
"5 c #7D9D42",
"6 c #6BA642",
"7 c #6DA944",
"8 c #6EAA45",
"9 c #6FAC45",
"0 c #70A041",
"q c #70A241",
"w c #74A142",
"e c #76A343",
"r c #77A344",
"t c #7AA043",
"y c #78A243",
"u c #7FA245",
"i c #7AA645",
"p c #7CA546",
"a c #70AA45",
"s c #73AA44",
"d c #73AA45",
"f c #71AE45",
"g c #72AE46",
"h c #78AA46",
"j c #7BAA47",
"k c #7DA947",
"l c #73AF48",
"z c #75AF48",
"x c #7BAB48",
"c c #7EAB48",
"v c #7AAF49",
"b c #7FAC49",
"n c #7EAE49",
"m c #73B047",
"M c #74B147",
"N c #73B148",
"B c #74B248",
"V c #76B54A",
"C c #77B64C",
"Z c #7BB24A",
"A c #7BB24B",
"S c #78B74B",
"D c #78B74C",
"F c #7CB44C",
"G c #7FB64D",
"H c #78B84B",
"J c #79B84C",
"K c #7BBB4E",
"L c #7CBA4E",
"P c #7DBD4F",
"I c #7EBD50",
"U c #7FBE50",
"Y c #7FC051",
/* pixels */
"6666666666666666666666666666666666666666666666666666666666666666",
"68N11666666666fN66666666Nf66666668N8666668N866fN66668N8668N86666",
"6NY& 666666666VI66666666IS6666666NY966666NY966VI66668YB66NY96666",
" -8VM -66fJ82 286fJ86666-8J86666>pY92   6NY98JBfJJJ88YB6JV868Jf6",
" &2JJ -62fJf6 -26fJf8662 8Y9668a>tJ82   2fJ88YB6JPY98Jf6YV68fJf6",
"6- SJ -6 &6JJ6& 666JJ6& 6NY966VI66666666 &668YB66NY96666YV6JJ666",
"6- SJ-&&+;6JJ6& 666JJ&6f68N88VBN666BB666 &6662666NY966NVBBVIJ666",
"6- SJ6& #:6JJ6& 666JJ fI86668YB6666JJ666 &662 -66lI866SI6NIYJ666",
"6- 266& #:6JJ6& 666JJ -8IV668Yu##uIf66VI &6JJ6& #@ 28Iu#666JJ666",
"6- 28B- #:6BB--&68Bf8&16IS668Cr::rC88BVV $,LPB- #:2-6Yk:,46ff666",
"6- 28Y2 #:662 -66NY- 666IS66666666668YN6 o#GYY2 #uY-&YB6#:6  666",
"662663jS#5J-$#,6JV9:@ 169w#$$#xJ66668YN6 *6LP9- 669 &Y8 Ga 12666",
"6662;#nI#5L2*#,6IS6>@ -66,#$$#xJf6668YN6$*8JD6- 886 &G6-J9 26666",
"666  6VI#:6JH -6In#62 -66- 26666In#68YN6#uY96666IS6 X#nI6- 26666",
"6661-&BI#:6LJ-26u,o66-166- :,668IZ,68B86nvB88Vf6ukV& ,ZI6- 28Vf6",
"66662 fI#:6LJ666#+ 166666- ##666IS666666IS66aYB6#uY* 6VI6- 2fIN6",
"66662 -86- HJ6& #5I& 6VI6- 20###IS668IN6In##3YB66BY3#6VI866JJ666",
"62-6621---&NB-%o5if--Nff--&fa+::SN668SBNVj:@:VBN4tnut-fV1--JJ666",
"6- 28Y2  &662 +#If 28Y2  &6JJ -6666666VI666  6VI###GH -6   JJ666",
"6fJ-&8BV &6DV *0If 28Yf1 &6JJ -66fJ-  mI %#;1 28$XX&-266#o JJ666",
"6fJ& 6VI -8GZ -6J9 -8Yf1 &2ZvX*28NJ&  8S =362 *6    &68a>= JJ666",
"666  6VI6BY3# -66-  &Y2 6- ###o If   6& 6NY92 +#   266VI6- JJ666",
"666  6fN&8Yw4f2&62---21-&$+pk,:@If 88&--VVN82 0c X+666fBV8 8f666",
"666  666 6Y98Y6 66662 -6 o#GJ6:#If SS -6IV662 fI o#66666If 26666",
"666JJ6& #uY966VI66668IN66- ## -6If 29IN6IV6JS +#If 26666IV668IN6",
"666JJ6& #uY616VI-16fBn0-662:+o;6V8 28YN6f8-BB2=@IB&,4N86VN668S8-",
"666JJ6& #uY- 6VI &6JG#o 6NY-X#,66- 28YN6   29Y2 IS6#3YB6666666& ",
"6668fJt@4696- :>   JG#,1 -8VmX@##:268Y8 18H-1Y2 IS6ZG8- 64#ZV -2",
"66668Yu#06862 +#   JG#:6 &6JJ =##4868J2 8NJ--Y8 SN6JJ6& 643GV -6",
"66668Yu##uY92 +#666JG### &6JJ -66NY966& If 28YB6 &6JJ6& 6NY92 -6",
"66668Bw4cvB86-:#&;:fj### &6JJ-,:VVB866& IB-&-B2&f96JJ61-&8Y92 -6",
"66666666IV6666:# o#66### &6JJ6:#IS6666& IV6  6& ID6JJ666 2I82 -6",
"666JJ6:#If   666Pf 18Iz666666666IS6 -IN684#GV +#IS6666VI66662 -6",
"68NVB-=+f2 .-N86If ;wDBN446ff666Vf- &DBN-:#vB2,:IS666-fVNf666266",
"6NY82      28YB6If ##6VI#:6JJ6666-   6VI o#68YB6IS662 -6IV668YB6",
"6NY--D5@ .2SJ986If ##6VI#5J5: fJ6- -;#nI#+X@5YB6-8J-.266IIJ88YB6",
"6NY-&Jp> -6JL666Im @@2VI>pY5>XaS91 26#pG#O #>Jf1-8J& 666JJJ88YB6",
"6NY- 6VI666JG#,6IS6   fI6NYYG#o If 266:#6- ##6& IS6  66666668YB6",
"68N1-&BI666u5#iSut6   6B:,2faoo@IB-BB:,,68f4,:% IS6  6NV&&&&-N86",
"66662 fI866###nI#:6   -6#+ 12 +#IV6JG#,66NIf6#o IV6  6VP     666",
"6BI86#,8IV6 &Iu#6NI866:#Ic#$-I2 6- JJ666666JS -6666 -I6 #uI-&IN6",
"6fVBf:;-IB-&1Yj:68fNf6ruSi#o=na261&NB666Na,LJ&--Nf6%;Y0o+4V88Vf6",
"666JJ6& If 28YB66- JJ6VI6,####nI86666666In#GJ6& IS6#3Yu# &6JJ666",
"666JJ -2If @:9- #= JJ6VI#:6ZZ6SI64#ZZ#xJf4#08 8Sf2 ;69;$V8 JJ 16",
"666JJ -6Ga #>9- #+ ZZ6BJ#48GZ6NS643Zn#nI64362XfI6- 686--S8 BM -6",
"666JJ -6#+ #3Y6 #+ ###,66BY3#6& 6NY3##nI6NY96#nI &6JG#nI &6  666",
"666JJ-26#<f>3Y6 o%-@#,::6NYw,:;-&8Y3#,jN&-2Bv#nI@4SBaofI--&88&16",
"666JJ666#uI33I6  &6>>6:#6NY96#,6 2I3>666   SG#cI#uYa1 fI8- SS -6",
"666666VI666##6VI666JIIB66NYfaIu# o#GJ6VI6- SL6666BY-$#48IV6 -IN6",
"666ff6VIB8-::,ZI666JPn0-6an08fiuo=:ZB6NVNf2ff66668f-*+;6VVN-1YB6",
"666JJ6VYYf 26#nI666JG#o 6,#62 fI#:666666IYY- 6666- 12 -66NY98YB6",
"6fJf8 2fIV2.&6SYJB6JDX-26-X .1VI#@ 266BJ3,-11 fJJB168Sf66NY96986",
"6NY8- -6IC6  6BJJB6JJ &26;& .2zG@+X682BJ3:X--XfYJB668GB86fJf8886",
"6NY-  -6IC6  666666JJ   #uY92 +# o#GH -6In#XX#nI66666#nI666JYYB6",
"68B1--&&Na:aa:46666ff---nvB-*+oo-0n62+%&Ifo++ofI60:BB,ZI:::LPN86",
"666666& 6,#GG#4666666666IS6 $#o 6NY-$#o If @# fP84#GL6SI###GJ666",
"666JS -6 2I- 6VP 2Y86666IS6JJ666 6Y81 -6IV6 X#o PV6JG#nI666JJ666",
"666BB21-&8Y1&-BIo;fNf,66IS6BVN6-o0Y6-&--Vf-%=u:of86JL:jV666JJ666",
"66668Y2 6BY92 fI#+ JG#,6IS668Y2 #uY- 6& 6- #3Yu# &6JJ666666JJ666",
"6fJ88Yf26BY-.2VI$*2JG###aw##5Yf2#:966Jf1 &2ZG9;$1668fJf6JB68fJf6",
"6NY88Jf66BY-.2BJ &2JL###aw#>5Jf03588fJf1 &2JJ6- 88868Jf6IV668YB6",
"6NY866666BY92 -66- JJ666IS6JJ6:#IYYYJ6& 6- DJ666IYY96666IV668YB6",
"68B8666668B86-2662-ff666Nf6mf644BBBBf61-62-ff666NBB86666Nf668B86",
"6666666666666666666666666666666666666666666666666666666666666666"
};
