/* XPM */
static char *_a82e493b8224056bf14c8b6c5d4a393pMHgOHMLtZl9Hwyo[] = {
/* columns rows colors chars-per-pixel */
"40 40 22 1 ",
"  c #0C1406",
". c #1A0D10",
"X c #20100C",
"o c #341B0D",
"O c #291611",
"+ c #19290D",
"@ c #223529",
"# c #2A3C38",
"$ c #5C341D",
"% c #2E4A1B",
"& c #37582C",
"* c #4F5236",
"= c #43643D",
"- c #4F744B",
"; c #834A29",
": c #A35223",
"> c #59992E",
", c #599130",
"< c #7F883B",
"1 c #6BA642",
"2 c #7FC051",
"3 c #91D960",
/* pixels */
"1111111111111111111111111111111111111111",
"12,111111211       1121 1121121112112111",
",12,1121,11 %33333%    >   1212212121121",
"1,2,1,121,1 3>3>>%>%>%>333 1211211121211",
"1,21,<121, %33>>%3%3%>%>33> ,11211212211",
"1,11,<121, >%>>%>%>3>+>%>>>> ,<,12<11211",
"1,12,<11,1 %>%%>%>+>+>+>%>>>> <2,21<1,11",
"111<2<2   +>%>>%>+%+%+%+%%%>>  1,2,2,111",
"11,12  >>+>%>%+>%++++++% %%>3>% ,<21,111",
"111, >%>%>%+%+   %++++%33 %>33% ,121,121",
"111 33>%>%+%  >>> %++%33>> %>>>%  211211",
"1, >3>33%+  >3>>>>++%33>3>> %3>>3% ,,211",
"12 3>>>>> >>3>>>>%>%+%>3>%>> %>333> ,211",
"11 3>3>> >>3>3>>%>%>%>%>%>%>> %3>33 ,211",
"1 >>>>>% >>>3>>%>%>%%%>%>%>> %%>>>>> 111",
"1 3>>>%>%%%>>>%>%>%++%%>%>%>>%>%>>>>3 21",
"1 3>>%>%%%>%>%>%>%%++%%%%%>%%%%>%>33>> ,",
"1 3>%>%%+%%>%>%%%+++++%%+%%%+%>%>%3>3> 1",
"1 >%>%%+++%%+%%+%+++++%+++%++%%>%>333> 1",
"1 %>%+++++++++++++%%+++++++++++%>++++ ,1",
"11  ++++ %++++;+;oooo++++++++++%>+++% ,1",
"121 %%% 2O$+++oooo$ooo+++++OO++++    121",
"12,2   211O$oo$;o$;o;o$$;:$oO  + 1122121",
"12,12112<1O$$o$$;;;o;;oooooO1,2 ,1111121",
"111,211<<2<O$;$$;$$$;$o$;;O1<,21,12,,,11",
"121<121,2<12O:;$;$$$;;$;:O12,111,2,<2,21",
"1121,2,1211,O$;$;;$$$$$;:O<21,21<2<,1211",
"112,12,<1,<,O$;;;$$;$$$;:O<1,21,11,2,2,1",
"112,1<,<2,<&*O:;;$$$;$$;:O-=<2,12<2,1,11",
"11211<2<2&&=*O:;$;$;$;$;:O&-*-<21,21,2,1",
"1111211*=-==-O:;$;$;$;$;;:O-===-,<121,21",
"11212-&=*-==OO:;$;o;$;$;$:O&===&=&112121",
"121,=-=&=--O:$$$o;o$o;$o$$$OO--==-=12111",
"12,&=-=&==OO$X$=ooooo;$oooo$:O===*-=1221",
"111=&=*-*O=$o-oo=-oooo-ooo&o$-O*-=-*<211",
"112,=&-&=-O=-.==oO-O$-O&O&O&-O-=-*-11211",
"1112,=-=&-*&-*=OO=-&O-&O@#&O-*&=-=111211",
"121211-&=-&=-**=**-=*==-=&=-=&===2121121",
"1211112=&==&-==-=-=*---=&=&-==--11121121",
"1111111111====================1111111111"
};
