/* XPM */
static char *a60fe8d3dfb3463dd1962d637bc9f44cLRkNs21nBRvWe6Df[] = {
/* columns rows colors chars-per-pixel */
"40 40 12 1 ",
"  c #37582C",
". c #4F5236",
"X c #43643D",
"o c #28264D",
"O c #4F744B",
"+ c #599130",
"@ c #7F883B",
"# c #6BA642",
"$ c #7FC051",
"% c #57549C",
"& c #B7B5CE",
"* c white",
/* pixels */
"########################################",
"#$+######$#####$#####$####$##$###$##$###",
"+#$+##$#+##$###+$###@$#++#$#$#$$#$#$##$#",
"#+$+#+#$#+##$#+#$##$#####+##$##$###$#$##",
"#+$#+@#$#+X****###$###$##+##+##$##$#$$##",
"#+##+@#$# *oooo*##$@@$##$+#$#+@+#$@##$##",
"#+#$+@##+X*o%%%o*######$#+@$$+@$+$#@#+##",
"###@$@$+@XO*ooo%o*@$###$#+#$#+##+$+$+###",
"##+#$@#$+XO.*o&o%o*#$@#$#@$###$#+@$#+###",
"###+$@#$XX***oo&%o*#$####$##$#@$+#$#+#$#",
"###+##+OX*oooo&o%o*@$##$#$@@$##$@#$##$##",
"#+#$++#X *o&&&o&%o*#####$##+#$@@$+#++$##",
"#$+#$+#$ X*o&&&o%o*##$++$+@#+#+++##@+$##",
"##+#$#$@+XX*o&o&o%o*$++#+#$#+@++##$#+$##",
"##+##+$#$+XX*ooo&%o*$+$+#$##+$+@###$+###",
"##$#+@$##$#XX**oo&%o*+#$#$#$+@$+###$##$#",
"##$#+@$+#$+#O.*o&o%o*+#$#++#$+$#@$#####+",
"###$@###+@++$.X*o&o%o*#$+#$+$+$#$#+#@$+#",
"###$@@$#+@##$..*oo&%o*##+$+#$#+#$#+#$#+#",
"#####$###@+@#@. *oo&%o*#+$#+#+$#$##+$#+#",
"##$#@$++##$+#$XX*o&o&oo*##@$+@$###$###+#",
"#$#++++#$#$+@#$.X*o&o%o*$+@#$#$##+#$##$#",
"#$+$@+#$##$+@#$@O.*o&o%o*@+@$#+$+##$$#$#",
"#$+#$##$@#$#++$#OO*oo&%o*#+@#+$#+#####$#",
"###+$##@@$@#++#@+X *oo&%o*$#@+$#+#$+++##",
"#$#@#$#+$@#$##@$@ O*o&o&o*#$+###+$+@$+$#",
"##$#+$+#$##+$#$#@@.O*o&o%o**#+$#@$@+#$##",
"##$+#$+@#+@+$#$@#$XO*oo&oooo*$#+##+$+$+#",
"##$+#@+@$+@+@@##$@# X*oo&%o%o*+#$@$+#+##",
"##$##@$@$++#@#@#$#@# O*o&o%%%o*$#+$#+$+#",
"####$##@#$##$$##$#$@ .*o&&o%%%o*+@#$#+$#",
"##$#$$+#@$##$@+#@#+$.X*o&o&oooo*#+##$#$#",
"#$#+#$#+#$$#$+##++#$. *o&&oo***X#$##$###",
"#$++#$#+####$++@$#+@ .*o&o&o*OX##@$##$$#",
"####+#@$@######$#+@+#O *o&ooo*X@$#$@@$##",
"##$+#+$+#$+$###$#$##+$X *o&&&o*#$@$##$##",
"###$+#$#+$@+$@#$##$+@$+X *oooo*#$####$##",
"#$#$##$+#$+#$@@#@@$#@##$X ****X##$#$##$#",
"#$####$#+##+$##$#$#@$$$#+X OXX$$###$##$#",
"########################################"
};
