/* XPM */
static char *_9f453dc60b347278e494895e5d1a28aAkosZi5373oZroqh[] = {
/* columns rows colors chars-per-pixel */
"64 64 215 2 ",
"   c #3C572E",
".  c #37582C",
"X  c #395A2D",
"o  c #3C5D34",
"O  c #3F6331",
"+  c #445632",
"@  c #4F5236",
"#  c #4A5B39",
"$  c #525739",
"%  c #43643D",
"&  c #48683A",
"*  c #5B6737",
"=  c #4D753B",
"-  c #4D7938",
";  c #5A793A",
":  c #687537",
">  c #6E763A",
",  c #27254C",
"<  c #28264D",
"1  c #2B294E",
"2  c #292750",
"3  c #2C2A51",
"4  c #312F53",
"5  c #302E5A",
"6  c #333155",
"7  c #383757",
"8  c #3B3957",
"9  c #35335A",
"0  c #3D3B5B",
"q  c #343262",
"w  c #3B396D",
"e  c #3F3D74",
"r  c #413F5D",
"t  c #403E75",
"y  c #423F78",
"u  c #42415F",
"i  c #4B6845",
"p  c #4D6B45",
"a  c #516D4C",
"s  c #4C7343",
"d  c #4E734A",
"f  c #527B46",
"g  c #597856",
"h  c #677A43",
"j  c #4A4865",
"k  c #514F6C",
"l  c #515067",
"z  c #53516C",
"x  c #454376",
"c  c #46437F",
"v  c #575572",
"b  c #585672",
"n  c #5B5A74",
"m  c #59577B",
"M  c #605E7A",
"N  c #697C63",
"B  c #67677B",
"V  c #59912F",
"C  c #538634",
"Z  c #55833E",
"A  c #5A8C3C",
"S  c #5B9332",
"D  c #5F9836",
"F  c #5E933D",
"G  c #628F32",
"H  c #6A8E35",
"J  c #6B8F3B",
"K  c #718C37",
"L  c #7A853B",
"P  c #748D39",
"I  c #7D8A3B",
"U  c #639235",
"Y  c #689437",
"T  c #619937",
"R  c #639739",
"E  c #6D9339",
"W  c #639C3A",
"Q  c #6C9C3D",
"!  c #76953E",
"~  c #7B933E",
"^  c #739B3F",
"/  c #7A993F",
"(  c #67A13E",
")  c #68A33F",
"_  c #5C8D41",
"`  c #58804B",
"'  c #5E9042",
"]  c #668A44",
"[  c #7C8D40",
"{  c #619445",
"}  c #659D41",
"|  c #7F9540",
" . c #739D40",
".. c #7C9D42",
"X. c #6BA642",
"o. c #6EAA44",
"O. c #6DA548",
"+. c #74A343",
"@. c #7DA245",
"#. c #71AE46",
"$. c #7BA946",
"%. c #70A44B",
"&. c #74AC4A",
"*. c #7EAC49",
"=. c #74B147",
"-. c #75B349",
";. c #7AB64B",
":. c #7BBA4E",
">. c #73A753",
",. c #7EBF50",
"<. c #6E826B",
"1. c #798874",
"2. c #7C9C70",
"3. c #7DAF60",
"4. c #7FC051",
"5. c #809244",
"6. c #818E7E",
"7. c #80917E",
"8. c #8BB06C",
"9. c #8FB579",
"0. c #94BB7F",
"q. c #A0A67B",
"w. c #85C35B",
"e. c #89C461",
"r. c #474582",
"t. c #484683",
"y. c #4C4986",
"u. c #4F4D8F",
"i. c #504D8F",
"p. c #575489",
"a. c #504D90",
"s. c #555296",
"d. c #57549B",
"f. c #5B589D",
"g. c #605E8A",
"h. c #686686",
"j. c #706E8D",
"k. c #757485",
"l. c #7A7A87",
"z. c #76758E",
"x. c #7B7B88",
"c. c #686599",
"v. c #777695",
"b. c #787691",
"n. c #7B7A93",
"m. c #615EA0",
"M. c #726FA7",
"N. c #7E7CA3",
"B. c #817F99",
"V. c #888D80",
"C. c #889786",
"Z. c #85839C",
"A. c #88889D",
"S. c #97989B",
"D. c #93AD88",
"F. c #97BC83",
"G. c #9BA799",
"H. c #A1AB9F",
"J. c #8987A2",
"K. c #8E8CA6",
"L. c #8B89AB",
"P. c #908EA7",
"I. c #918FA8",
"U. c #9391AB",
"Y. c #9A9AA9",
"T. c #8A88B2",
"R. c #918FB3",
"E. c #9997B6",
"W. c #A09EB8",
"Q. c #A3A3AC",
"!. c #A8A7AF",
"~. c #A8A9AF",
"^. c #A6B1A4",
"/. c #A8B1A7",
"(. c #ABB4AA",
"). c #AEBAAE",
"_. c #AAABB0",
"`. c #A3A2BB",
"'. c #A8A6BF",
"]. c #B0AFB8",
"[. c #B6B9BA",
"{. c #9FCD86",
"}. c #AFD09D",
"|. c #B5CBA7",
" X c #B9CEAD",
".X c #BCD8AD",
"XX c #B8CCB0",
"oX c #BBC4BB",
"OX c #BED7B3",
"+X c #C1D6B6",
"@X c #ABA9C4",
"#X c #B0AEC7",
"$X c #B9B8C0",
"%X c #B5B3CC",
"&X c #BFC1C3",
"*X c #C4C9C4",
"=X c #C5C4CA",
"-X c #CACBCC",
";X c #CAD7C4",
":X c #CCD1CB",
">X c #CFDCC9",
",X c #D5D9D3",
"<X c #D3E2CC",
"1X c #D7E4CE",
"2X c #DEDEE1",
"3X c #E3E4E5",
"4X c #E6E9E5",
"5X c #E7E7E8",
"6X c #EAEAE9",
"7X c #E9F1E5",
"8X c #F4F5F4",
"9X c #F7F8F7",
"0X c #F9F9FA",
"qX c #FCFDFC",
"wX c white",
/* pixels */
"X.X.X.X.X.X.X.X.X.X.X.X.X.X.X.X.X.X.X.X.X.X.X.X.X.X.X.X.X.X.X.X.X.X.X.X.X.X.X.X.X.X.X.X.X.X.X.X.X.X.X.X.X.X.X.X.X.X.X.X.X.X.X.X.",
"X.o.=.( ( X.X.X.X.X.X.X.X.X.#.=.X.X.X.X.X.X.X.X.=.#.X.X.X.X.X.X.X.o.=.o.X.X.X.X.X.o.=.o.X.X.#.=.X.X.X.X.o.=.o.X.X.o.=.o.X.X.X.X.",
"X.=.4.T S X.X.X.X.X.X.X.X.X.-.,.X.X.X.X.X.X.X.X.,.;.X.X.X.X.X.X.X.=.4.o.X.X.X.X.X.=.4.o.X.X.-.,.X.X.X.X.o.4.-.X.X.=.4.o.X.X.X.X.",
"S W o.-.=.S W X.X.#.;.o.) S ) o.X.#.;.o.X.X.X.X.W o.;.o.X.X.X.X.~ @.4.o.) S S S X.=.4.o.o.;.-.#.;.;.;.o.o.4.-.X.;.-.o.X.o.;.#.X.",
"S T ) ;.;.S W X.X.#.:.=.X.S W ) X.#.;.#.o.X.X.) S o.4.o.X.X.o.#.~ @.;.o.) S S S ) #.;.o.o.4.-.X.;.:.4.o.o.;.#.X.4.-.X.o.#.;.#.X.",
"X.W S ;.;.S W X.S T X.:.;.X.T S X.X.X.;.;.X.T S X.=.4.o.X.X.-.,.X.X.X.X.X.X.X.X.S T X.X.o.4.-.X.X.=.4.o.X.X.X.X.4.-.X.:.;.X.X.X.",
"X.W S ;.;.W T T K Q X.;.;.X.T S Z D.<X<X<X<X>X;XO.o.=.o.o.-.-.=.X.X.X.-.-.X.X.X.S T X.X.X.) X.X.X.=.4.o.X.X.=.-.-.-.-.,.;.X.X.X.",
"X.W S ;.;.X.T S I ! X.;.;.X.T V p /.0X0X0X0X0X9X>.O.X.X.o.4.-.X.X.X.X.;.;.X.X.X.S T X.X.) S W X.X.&.,.o.X.X.;.,.o.=.,.4.;.X.X.X.",
"X.W S ) X.X.T S I ! X.;.;.X.C % 8X=X0 0 0 0 0 u 9X>XX.X.o.4.@.I I @.,.#.X.X.-.,.S T X.;.;.X.T S I K S ) o.4.@.I X.X.X.;.;.X.X.X.",
"X.W S ) o.-.W S I ! X.-.-.W - i 0X=X< w t t t x -X*X X3.o.;.+.! ! +.;.o.o.-.-.-.S R ^ :.:.-.W S I ! ) W X.4.$.! ^ ^ X.#.#.X.X.X.",
"X.W S ) o.4.) S I ! X.X.) S - a 0X=X, a.d.d.d.d.2 Q.wX0.X.X.X.X.X.X.X.X.o.4.=.X.S H I ;.4.4.) S I @.4.W W 4.-.X.I ! X.S S X.X.X.",
"X.X.) X.X.| $.;.I ..;.W U I ; i C.).3Xk.q q q q u.g.l.,X1XI $.;.X.X.X.X.o.4.=.X.S R X.:.:.o.W S X.X.o.D W w.o.S ;.#.S ( ) X.X.X.",
"X.X.X.) Q I *.,.I ..:.) R I ; % d G.3XS.B < j v i.c q -X,Xq.8.;.#.X.X.X.o.4.=.X.U R o.;.;.X.W S o.o.X.S T ;.X.W ;.o.S ) X.X.X.X.",
"X.X.X.S S X.-.,.I ! X.;.;.S - % d p @ 5X3X< K.%X6 e d.q l.wX XX.,.*.I X.o.4.=.X.I 5.4.o.X.X.X.X.,.;.X.S G I 5.,.X.W S ) X.X.X.X.",
"X.X.X.( W T -.,.I ! X.;.;.- & p :X:X-X9X3X< B n.U.N.d.q l.wX Xo.,.;.^ X.o.-.o.X.*.*.-.o.o.-.#.X.@.$.-.T S ^ ;.,.X.W S ) o.-.#.X.",
"X.X.X.X.) S #.,.I ! X.;.&.% p g 9X0X0X0X3X< 3 7 %XE.d.q l.wX XX.,.;.X.X.X.X.X.o.,.;.X.X.#.4.-.X.I @.4.T S X.-.,.o.W S ) #.,.=.X.",
"X.X.X.X.) S W o.X.W S f d % -X9X0 6 6 6 6 < K.#X7 t d.q l.wXXXI ,.;.X.X.o.,.=.X.,.*.I I | 4.-.X.X.-.4.| I X.-.,.o.X.X.;.;.o.X.X.",
"X.) W X.X.) ( W W W T f i o :X0X6 k z.z.z.z.Z.K.b.c.d.q l.wX X! ;.=.X.X.o.;.-.=.-.$.! K ^ -.-.=. .@.*.@.@.W #.-.( W W ;.;.X.X.X.",
"X.W S ) o.4.) S S T X.= % . :X0X6 z.%X%X%X%Xb.3 %XE.d.q l.wX XX.X.X.X.X.X.X.-.,.X.X.X.S S X.-.,.I I I ;.;.S W X.S S S ;.;.X.X.X.",
"X.#.;.W T o.-.-.S T X.&.O.. <.C.3X$Xn @X%X%X@X`.n p.d.q l.wX XX.X.#.;.W S S =.,.S Y I Q ( S ) o.U G G T W ) X.X.P H S ;.;.X.X.X.",
"X.#.;.T S X.-.,.S W o.;.&.O % p 3X&Xl.E.'.%X@X`.n m a.w k.3XXX0.&.=.;.T S S o.;.S E | X.X.S R  .S S S S T X.o.#.~ E S ;.;.X.X.X.",
"X.X.X.S S X.-.,.X.-.4.| I S - % % (.wXx.b %Xb.3 %XI.< u.a.< -XwXw.#.S S S X.T S X.=.4.o.) S K I S S S ) X.X.-.,.X.W S ;.;.X.X.X.",
"X.X.X.S S X.#.=.T o.4.+. .#.R C % 1.(.&X[.b.k 1 z.n.K.c.a.< -XwXw.#.S o.o.T W W -.-.=.o.) S +.*.S G K X.X.X.#.-.-.o.S o.#.X.X.X.",
"X.X.X.S S X.X.X.S X.4.o.o.4.X.S % % % 3X3X4 4 4 < z.%XM.a.< =X9Xe.-.S ;.;.S W X.,.-.X.X.) S #.,.S H I X.X.X.X.X.,.#.S ) X.X.X.X.",
"X.X.X.;.;.X.T S I @.4.o.X.X.-.,.X._ % p C.wXwX0X8 3 6 `.@Xd.x j 9X>XS ) o.,.=.X.,.-.X.;.;.S K I ,.#.S ) X.X.X.X.,.-.X.X.o.,.=.X.",
"X.X.X.;.;.X.T S I @.4.X.( X.-.,.W F Z s <.-X6XwX8 z b.J.J.d.e 8 9X>XS ) o.4.=.X.#.o.W -.-.) E K ,.-.T ^  .=.o.X.-.=.X.X.o.;.o.W ",
"X.X.X.;.:.X.T S I @.4.W S X.-.,.S T X.` p @ -XwX8 b.%Xv q d.e 8 0X>XV ) o.4.=.X.S S S ) o.4.) S ,.;.X.I | 4.-.X.X.X.X.X.X.X.T S ",
"X.X.X.o.=.:.@.P  .X.o.X.W S ! ~ S S S &.%.@ N 7.3X$Xv U.U.q c i.k.~.4X9.o.4.o.S ( o.;.W ( 4.) S ,.;.X.;.;.o.W S X. .I ;.-.S W ) ",
"X.X.X.X.o.4.@.I +.X.o.X.) S K I S S S ;.&.@ # i wX-X, U.E.n p.d.2 !.wXF.o.;.) S o.=.;.W W 4.o.S ;.=.X.;.;.X.T S X. .| ;.-.S W X.",
"X.X.X.X.o.4.@.I I @.4.o.) S K I X.X.X.;.&.@ @ $ wX-X, < n %XT.d.2 !.wXF.X.X.T S ,.#.S ) o.4.-.X.S T X.;.;.X.T S X.=.4.o.) S W X.",
"X.X.X.X.o.-.+. .*.*.-.o.X.W ! I T Q ! #.+.> * $ /.[.-Xn r n.L.E.y.v.!.;X+XX.T S ,.-.W T W -.) T #.o.X.;.;.X.( W T o.4.o.) S W X.",
"X.X.X.X.X.X.X.X.,.-.X.X.X.X.! I S H I X.X.I : @ . /.wXl.1 6 K.#Xm.y.< 2X4X&.W S ,.-.X.S D X.T S ,.;.X.;.;.X.X.X.S ) ,.o.) S W X.",
"X.X.X.;.;.X.! I ,.#.S S S X.X.X.:.#.S ) o.,.{ % % (.wXl.b %Xb.0 #XK.< 7 l.wX|.X.X. .I ;.-.S K I ,.;.X.X.X.X.-.,.X.X.X.X.) S W X.",
"X.o.=.-.-.W E K #.) S D W =.o.X.,.#.S Q +.;.O.' # C.:X_.Q.I.B.b.K.v.e 3 k.wX.X=.W ^ I *.-.) ^ ! ,.;.X.X.X.W #.-.=.#.X.X.X.) X.X.",
"X.=.4.o.) S S S S S S ) o.4.-.X.,.#.S I I X.-.,.$ # % 3X5X, P.%X6 e d.q k.wX.X,.S H I X.o.4.-.X.,.;.X.X.) S W X.,.-.X.X.o.4.-.X.",
"X.=.4.W W ;...P S D ) ;.;.o.o.X.,.#.S I I X.-.,.L h d 1.S.3XQ.n W.Z.q y.p.x.*X7X[ K G P ..4.-.X.W o.;.W D ) X.X.,.,.;.o.o.4.-.X.",
"X.=.4.W T ;.@.~ S W X.;.:.X.X.X.,.=.S K P ) -.4.~ ] d & V.wX!.4 E.J.v s.i.< -XwX5.K S I ~ ;.#.( W o.:.T S X.X.X.;.;.:.o.o.4.-.X.",
"X.=.4.W S X.-.,.X.X.X.;.;.I ^ X.,.;.X.S S S #.4.X.{ d d C.wX!.< , n.%XM.i.< -XwX&.W S I I X.T S 4.;.X.S S X.X.X.X.X.X.X.o.4.-.X.",
"X.o.=.( W T -.,.X.X.X.@...I @.;.@.@.X.S S S X.-.! J Z s N (.[.=X6 z b.R.T.t.A.!.>X|.#. .^ ! Y S ,.;.X.S S X.=.-.T T T T W =.o.X.",
"X.X.X.X.) S #.,.o.X.X.I I I *.,.I ! X.S S S W X.I K S & % X -X0X0 1 6 `.@Xf.t 8 0X1X,.#.X.I H S ,.-.X.S S X.-.:.S S S S S X.X.X.",
"X.=.,.o.X.I ^ o.,.-.X.S T ,.@.I X.=.,.o.X.X.! I w.*.I & o d :X0X0 z.%Xn v %Xb.8 0X<XX.;.;.S W X.X.X.X.S W ,.X.S I @.4.W T ,.=.X.",
"X.#.-.-.#.! Q ( 4.-.W T ( 4.$.! X.o.#.=.#.X.+.@.;.@.I : * p ^.:XQ.Y.P.n.b.P.h.x =XoX|..X}.T W W =.#.X.Y Q 4.+.H K  .-.o.o.-.#.X.",
"X.X.X.;.;.X.T S ,.#.S ) o.4.-.X.X.W S ;.;.X.-.,.X.^ I I > @ p g 0X-X< `.`., t.d.2 Q.wXwX7XX.T S ,.;.X.I | 4.@.I S T X.;.;.X.X.X.",
"X.X.X.;.;.S W ) ,.#.S P ! o.W S I E S ;.;.X.-.,.I ! X.;.&.% p g 0X-X< z h.`.j.q , l l.l.S.7X}.;.#.) S Q X.o.Q U -.o.S ;.;.S ( X.",
"X.X.X.;.;.S W X.;.#.S I ~ o.W S I K S ;.;.X.-.;.I ^ o.;.&.= s g 3X=Xl.r k '.n.b q 5 < 9 k.5XOX{.X.W S X.o.X.W W ;.o.S -.=.S W X.",
"X.X.X.;.;.S W X.I K S I | 4.X.S L K S I I I ^ X.X.=.4.| I X.- X % (.wXx.< < I.%Xf.t.< u.a.< =XwX{ T X.;.;.I *.,.S T X.S S X.X.X.",
"X.X.X.;.;.W ) X.I / #.~ | 4.X.S H Y W P I ^ ! ! X.=.4.+.^ ! J A o 1.).&X]., I.%Xx y r.s.s.r.Z.Q.;X|.;.-.#.H #.,.( W T o.o.T ( X.",
"X.X.X.;.;.X.X.X.I @.,.| | ,.X.S S T X.~ ~ X.! I X.=.4.o.X.I ^ X.X % d 4X3X, I.%X6 t d.d.d.d.t 6 9X<Xw.#.( S #.,.o.W S ;.;.S W X.",
"X.X.X.X.X.X.-.,.X.X.X.I I X.-.,.X.X.X.;.,.4.-.X.X.=.w.#.#.,.@.L X + @ 3X3X, I.%X%XK.2 a.d.d.d.d.0 _.wX9.U I  .o.,.-.X.S W ,.=.X.",
"X.X.X.#.#.X.-.,.-.o.W ! ! ^ ;.,.X.X.X.;.:.*.+.W X.+.5.+.o.#.$...+ + # 4X3X, I.%XU.Z.n.p.t.t.t.r.2 !.wX9.R K Q X.-.-.=.( ( 4.-.X.",
"X.X.X.;.;.X.-.4.4.#.S ) X.I *.,.X.X.X.;.;.I H S X.^ I X.) S =.,.$ # % 4X3X, I.%X3 z.%Xn < , , , , !.wX0.) S W X.X.=.4.o.o.4.-.X.",
"X.=.:.#.o.S ) #.,.-.) D T X.;.4.;.-.X.;.;.U W X.X.W G S D ( -.,.$ + o 4X3X, I.%X`.J.v 6 B 3X3X3X3X*X7.%.o.;.#.X.X.=.4.#.X.o.o.X.",
"X.=.4.o.W S W X.,.;.X.S S X.-.;.;.-.X.;.;.S T ) X.Q T S D ) &.;.$ +   3X3X, I.%X`.J.b 6 l.wX8X4X4XoX= } o.;.-.o.X.#.;.#.o.o.o.X.",
"X.=.4.T S S W o.,.;.X.S S X.X.X.X.X.X.;.;.S S S I @.4.o.) S K L X + @ 3X3X, I.%X3 z.%Xn l.wX).d % Z X.X.X.I *.,.X.X.X.;.4.4.-.X.",
"X.o.-.( W W T T =.+.! #.#.!  .X.X.X.X.#.#.W W W *.*.-.W R K H H A Z p G.(.-XY.n.P.Z.n.r z _.oX:Xp ; ! -.-.^ ;.,.! ! ! :.:.=.o.X.",
"X.X.X.X.X.X.T S X.^ I ;.;.I  .X.X.X.X.X.X.X.X.X.,.;.X.S U I H S X.{ f o 1.0XQ.u #XK.6 6 6 6 =X9Xg h I w.:.X.;.,.I I I ;.;.X.X.X.",
"X.X.X.;.;.S W X.S ) ,.W S X.-.:.S ) 4.o.X.X.X.X.,.;.X.;.;.X.X.X.S ) ,.f % % *X9X8 z.%X%X%X%Xb.0 8X>XX.;.;.I *.4.X.X.X.:.;.X.X.X.",
"X.X.X.-.-.) ( W T o.4.( T W -.,.H Q #.=.#.^ X.X.,.;.X.-.-.=.X.W H +.4.A = o H.-XQ.Y.P.P.P.P.M 6 0X<XX.;.:.! +.-.o.X.X.:.;.X.X.X.",
"X.X.X.X.o.4.) S X.-.4.o.) S #.,.I K S ;.;.I ^ X.,.;.X.X.o.4.) S I @.4.W C % o % 0X=X< < < < < 6 0X<XX.;.;.X.X.X.X.X.X.:.;.X.X.X.",
"X.#.;.o.o.4.#.) X.-.4.W D ) -.,.U R ) ;.;.I I I #.+.I I ..4.#.) I ! o.X.X.-._ % 6.(.5X5X5X5X5X3XC.2.X.o.#.;.#.X.;.-.X.#.#.;.#.X.",
"X.=.4.o.o.;.#.X.X.-.4.W D ) -.;.S T ) ;.:.I I ~ #.+.I ~ ..;.#.+.| ..o.o.#.;.{ & o G.3X4X4X4X4X3X` ' o.X.o.;.#.X.,.-.X.X.o.4.-.X.",
"X.=.4.o.X.X.X.X.X.-.4.o.) S W X.X.W S ;.;.X.X.X.,.;.X.;.;.X.! I ,.4.4.4.;.X.T S % o . p d % % % ,.4.4.o.X.X.X.X.,.-.X.X.o.4.-.X.",
"X.o.-.o.X.X.X.X.X.o.-.o.X.W ) X.X.) W #.#.X.X.X.=.#.X.#.#.X.+. .-.-.-.-.#.X.( W ' A A ' { _ _ ' =.-.-.o.X.X.X.X.=.#.X.X.o.-.o.X.",
"X.X.X.X.X.X.X.X.X.X.X.X.X.X.X.X.X.X.X.X.X.X.X.X.X.X.X.X.X.X.X.X.X.X.X.X.X.X.X.X.X.X.X.X.X.X.X.X.X.X.X.X.X.X.X.X.X.X.X.X.X.X.X.X."
};
