/* XPM */
static char *_ac5a23282f9432780ba8d609e758183rr0c1gYC7UTYAvKX[] = {
/* columns rows colors chars-per-pixel */
"40 40 19 1 ",
"  c #0F0D1F",
". c #4D3026",
"X c #37582C",
"o c #4F5236",
"O c #43643D",
"+ c #28264D",
"@ c #161266",
"# c #4F744B",
"$ c #803D26",
"% c #BD3639",
"& c #C05600",
"* c #D65659",
"= c #599130",
"- c #7F883B",
"; c #6BA642",
": c #7FC051",
"> c #E4C46B",
", c #3B3183",
"< c #5499EE",
/* pixels */
";;;;;;;;;;;;;;;;;      ;;;;;;;;;;;;;;;;;",
";:=;;;;;;:;;;;;  $&&&&$  ;:;;:;;;:;;:;;;",
"=;:=;;:;=;;:;; &&$$&&$$&& :;:;::;:;:;;:;",
";=:=;=;:;=;;  &&&$$&&$$&&&  :;;:;;;:;:;;",
";=:;=-;:;=; &&&&&$&&&&$&&&&& ;;:;;:;::;;",
";=;;=-;:;= &&&$$&$$&&$$&$$&&& -=;:-;;:;;",
";=;:=-;;=; &$$&$&$$&&$$&$&$$& -:=:;-;=;;",
";;;-:-:=-; &$&$&&$&&&&$&&$&$& ;;=:=:=;;;",
";;=;:-;:= $&&$&$$$$$$$$$$&$&&$ ;=-:;=;;;",
";;;=:-;: $.&&$$$$$$$$$$$$$$&&.$ =;:;=;:;",
";;;=;;=: .$&$++++*****%++++$&$. -;:;;:;;",
";=;:==;; $.$+<<<@+%++%+<<<@+$.$ :=;==:;;",
";:=;:=;: .$++<@@@++++++<@@@++$. =;;-=:;;",
";;=;:;:- $.++<@@@++**++@@@@++.$ ;;:;=:;;",
";;=;;=:; .$++@@@@+***%+@@@@++$. ;;;:=;;;",
";;:;=-:;; .++@@@@+**%%+@@@@++. =;;;:;;:;",
";;:;=-:=;: $+@@@@+%%%%+@@@@+$ :;-:;;;;;=",
";;;:-;;;=-=  ++++$.%%$.++++  =:;:;=;-:=;",
";;;:--:;=- %%$$$$..$$......%% =;:;=;:;=;",
";;;;;:;;; **$....******.....%% ;:;;=:;=;",
";;:;-:== **%%&+>>>****>>>+&**%% ;;:;;;=;",
";:;====; ..*%>+>>>%%%%>>>+>*%.. ;=;:;;:;",
";:=:-=; .**%%&+>>>>%%>>>>+&**%%. ;;::;:;",
";:=;:;;: ..*%+>+>&>>>&>>+>+*%.. =;;;;;:;",
";;;=:;; .**%%+&+>>&>&>&>+&+**%%. ;:===;;",
";:;-;:;= ***%+>&+>>&>&>+&>+*%*% =:=-:=:;",
";;:;=:=; +*%*%&>+>&>&>>+>&***%+ -:-=;:;;",
";;:=;:=-; @+@@@&+>>>>>>+&@+@+@ =;;=:=:=;",
";;:=;-=-: +@+@+@&++++++&@+@+@@ ;:-:=;=;;",
";;:;;-:-: @+@+@,,,++,,,+,@+@+@ :;=:;=:=;",
";;;;:;;-;: @@@ ,,+,+,,,,+ @@@ ;:=-;:;=:;",
";;:;::=;-:;    ,,,++,,,+,    ;;=;=;;:;:;",
";:;=;:;=;::O#X ,,+,+,,+,+ XOX::;;:;;:;;;",
";:==;:;=;;OO# @@@@++@@@@@@ Xo#;;;-:;;::;",
";;;;=;-:-OOO @<@@@++@@<@@@+ X#O-:;:--:;;",
";;:=;=:=;#X @<@@@+++@<@@@+++ X#;:-:;;:;;",
";;;:=;:;=#o @@@@++++@@@@++++ oX;:;;;;:;;",
";:;:;;:=;:XO @@++++  @@++++ OX;;;:;:;;:;",
";:;;;;:;=;;X#      o#      #O;::;;;:;;:;",
";;;;;;;;;;;;;OOOOOOOOOOOOOO;;;;;;;;;;;;;"
};
