/* XPM */
static char *f06e9e3319e94d0aaffb17b817bf359d2Euau69SDQewih8W[] = {
/* columns rows colors chars-per-pixel */
"64 64 209 2 ",
"   c #0F0C1F",
".  c #1B101F",
"X  c #231B1E",
"o  c #110F2D",
"O  c #131322",
"+  c #181924",
"@  c #191A37",
"#  c #2F1D28",
"$  c #1D2828",
"%  c #2B2D24",
"&  c #3D2523",
"*  c #3E2924",
"=  c #253428",
"-  c #22253B",
";  c #263633",
":  c #56311D",
">  c #65391F",
",  c #7A3A18",
"<  c #571D26",
"1  c #472923",
"2  c #562C24",
"3  c #4D3126",
"4  c #4B3826",
"5  c #523126",
"6  c #5B3325",
"7  c #622E25",
"8  c #7B2B2D",
"9  c #653425",
"0  c #6E3826",
"q  c #753A26",
"w  c #7E3C26",
"e  c #752837",
"r  c #763D30",
"t  c #7F3E3A",
"y  c #2E452A",
"u  c #39462C",
"i  c #334C29",
"p  c #38562B",
"a  c #3B5A2C",
"s  c #354E33",
"d  c #30453C",
"f  c #3C5936",
"g  c #3E612C",
"h  c #7C4018",
"j  c #564C29",
"k  c #485635",
"l  c #7F4027",
"z  c #48662C",
"x  c #456C31",
"c  c #466835",
"v  c #43643D",
"b  c #4E7230",
"n  c #537B37",
"m  c #6B7838",
"M  c #120F42",
"N  c #181A48",
"B  c #151352",
"V  c #17155A",
"C  c #1E1C5C",
"Z  c #221F59",
"A  c #262646",
"S  c #282947",
"D  c #27254E",
"F  c #28264D",
"G  c #2C294C",
"H  c #33294C",
"J  c #37314E",
"K  c #252353",
"L  c #2A2758",
"P  c #161266",
"I  c #1A1762",
"U  c #1A1963",
"Y  c #2E2962",
"T  c #312B68",
"R  c #342D70",
"E  c #352C7D",
"W  c #382F7A",
"Q  c #3A307F",
"!  c #581F5D",
"~  c #472D48",
"^  c #5A3343",
"/  c #4E2F54",
"(  c #59245A",
")  c #643642",
"_  c #773249",
"`  c #48316A",
"'  c #62376C",
"]  c #375440",
"[  c #694D5A",
"{  c #6B5B53",
"}  c #486943",
"|  c #4E724A",
" . c #50764B",
".. c #813D26",
"X. c #80302D",
"o. c #8D3E2B",
"O. c #952D31",
"+. c #8E3430",
"@. c #993332",
"#. c #AB3538",
"$. c #BD3639",
"%. c #B93939",
"&. c #884319",
"*. c #93451C",
"=. c #9A471C",
"-. c #9D481B",
";. c #8B531C",
":. c #AB500B",
">. c #BE5502",
",. c #B5520B",
"<. c #BC590F",
"1. c #A54B16",
"2. c #AA4D14",
"3. c #A34B19",
"4. c #8E4221",
"5. c #914320",
"6. c #97472F",
"7. c #80413B",
"8. c #925934",
"9. c #B74B27",
"0. c #BD4334",
"q. c #966739",
"w. c #B56E35",
"e. c #C05600",
"r. c #C15A05",
"t. c #C15B0A",
"y. c #C4732D",
"u. c #C8752B",
"i. c #C36B38",
"p. c #963041",
"a. c #C33F42",
"s. c #885E4F",
"d. c #8B6E53",
"f. c #927758",
"g. c #844565",
"h. c #947F68",
"j. c #C64346",
"k. c #C9474A",
"l. c #C94C4C",
"z. c #CA584A",
"x. c #D15154",
"c. c #D55558",
"v. c #C66649",
"b. c #CE6252",
"n. c #D5735B",
"m. c #4F812E",
"M. c #51822F",
"N. c #538136",
"B. c #578937",
"V. c #5B9332",
"C. c #5F9836",
"Z. c #5E923C",
"A. c #688D39",
"S. c #718C37",
"D. c #788A3A",
"F. c #7D8A3B",
"G. c #669739",
"H. c #639D3A",
"J. c #77953E",
"K. c #7C943E",
"L. c #739B3F",
"P. c #67A13E",
"I. c #68A33F",
"U. c #5A8943",
"Y. c #5F9344",
"T. c #659744",
"R. c #659D41",
"E. c #7F9540",
"W. c #729E40",
"Q. c #7C9F42",
"!. c #67A040",
"~. c #6BA642",
"^. c #6EAA44",
"/. c #75A544",
"(. c #7EA145",
"). c #72AE46",
"_. c #72AC49",
"`. c #7EAC49",
"'. c #74B147",
"]. c #73B148",
"[. c #75B349",
"{. c #7BB54C",
"}. c #7AB94D",
"|. c #7BBB4E",
" X c #77B450",
".X c #7EBF50",
"XX c #7FC051",
"oX c #CC8337",
"OX c #95805A",
"+X c #A38658",
"@X c #B89F61",
"#X c #C08645",
"$X c #CF8E42",
"%X c #D08F40",
"&X c #D19042",
"*X c #D49B4C",
"=X c #D29C58",
"-X c #CEA357",
";X c #D7A252",
":X c #DDB35E",
">X c #DFA264",
",X c #CFB165",
"<X c #DFB660",
"1X c #DDBC68",
"2X c #E1BA65",
"3X c #E2C067",
"4X c #E4C36B",
"5X c #3B3182",
"6X c #453981",
/* pixels */
"~.~.~.~.~.~.~.~.~.~.~.~.~.~.~.~.~.~.~.~.~.~.~.~.~.~.~.y                 y ~.~.~.~.~.~.~.~.~.~.~.~.~.~.~.~.~.~.~.~.~.~.~.~.~.~.~.",
"~.^.].P.P.~.~.~.~.~.~.~.~.~.).].~.~.~.~.~.~.~.~.N.N.N.4 2 , , , , , h 6 j N.N.N.~.^.].^.~.~.).].~.~.~.~.^.].^.~.~.^.].^.~.~.~.~.",
"~.].XXH.V.~.~.~.~.~.~.~.~.~.[..X~.~.~.~.~.~.~.~.+     0 4.e.e.e.e.e.e.4.q     + !.].XX^.~.~.[..X~.~.~.~.^.XX'.~.~.].XX^.~.~.~.~.",
"V.H.^.[.'.V.H.~.~.).}.^.I.V.I.^.~.).}.^.~.~.b i :.:.:.4...4.4.4.4.4.4...4.:.:.:.i N.XX^.^.}.'.).}.}.}.^.^.XX'.~.}.[.^.~.^.}.).~.",
"V.H.I.}.}.V.H.~.I.).}.).~.V.H.I.~.).}.R.G.G.z & ,.>.e.4.....4.4.4.4.....4.e.>.,.1 b _.R.R.XX'.~.}.}.XX^.^.}.).~..X[.~.^.).}.).~.",
"~.H.V.{.}.V.H.~.V.H.~.}.}.~.H.V.~.~.~.i     9 ....-.e.4.....2.e.e.2.....4.e.-.....7     p XX'.~.~.].XX^.~.~.~.~.XX[.~.}.}.~.~.~.",
"~.H.V.{.}.H.H.H.S.L.~.}.}.~.H.V.~.Z.x &.&.9 *.2...-.e.4.4.2.,.e.e.,.2.4.4.e.-...2.*.7 &.;.n Z.~.~.].XX^.~.~.].[.'.'.[..X}.~.~.~.",
"~.H.V.{.}.~.H.V.F.J.~.}.}.~.H.V.!.n . :.,...2.>...-.e.4.4.>.>.>.>.>.>.4.4.e.-...>.2...,.:.X n !.~._..X^.~.~.{..X~.]..XXX}.~.~.~.",
"~.H.V.I.~.~.H.V.F.J.~.}.}.~.H.V.$ , >.5.5.>.-.....-.e.4.................4.e.-.....-.>.*.5.>.h $ F.S.V.I.^.}.(.F.~.~.~.}.}.~.~.~.",
"~.H.V.I.^.'.H.V.F.J.~.'.'.H.H.V.O , e.5.4.2.3.-...-.e.4.....5.-.-.5.....4.e.-...-.3.2.4.4.e., O F.J.I.H.~.XX`.J.L.W.~.).).~.~.~.",
"~.H.V.I.^.XXI.V.F.J.~.~.I.V.H.!.O , e.5.....2.>...-.e.4.....2.e.e.2.....4.e.-...>.2.....4.e., O F.(.XXH.H.XX'.~.F.J.~.V.V.~.~.~.",
"~.~.I.~.~.E.`.[.F.Q.}.H.G.D.L.!.+ , e.5.4.,.-.5.,.>.e.4.4.,.>.e.e.>.,.4.4.e.>.,.5.-.,.4.4.e., O W.~.^.V.H.XX^.C.{.).V.P.I.~.~.~.",
"~.~.~.I.L.F.`..XF.Q.}.I.G.D.A.Z.& &.e.=.=.,.-.4.,.,.,.4.4.,.,.,.,.,.,.4.4.,.,.,.5.-.,.=.=.e.&.* Z.H.~.V.H.OX^.H.}.^.V.I.~.~.~.~.",
"~.~.~.V.V.~.[..XF.J.~.}.}.V.a . w -.e.>.,...2.>.................................>.2...,.e.e.-.l + x ~.V.A.F.`.XX~.H.V.I.~.~.~.~.",
"~.~.~.P.H.H.'..XF.J.~.}._.a j 9 9 *.>.e.,...5.-.............=.2.2.=.............-.5...,.e.e.*.9 9 j x B.V.L.{.XX~.H.V.I.^.[.).~.",
"~.~.~.~.I.V.)..XF.J.~.}._.  7 w 5 &.e.>.,...................2.e.e.2...................,.>.e.&.5 w 9   M.V.~.[.XX~.H.V.I.)..X].~.",
"~.~.~.~.I.V.H.^.~.H.V.}._.  & 5 w -.e.5.5.>.>.>.>.>.>.4.4.>.>.e.e.>.>.4.4.>.>.>.>.>.>.5.5.e.-.w 5 *   m F.~.[..X~.~.~.}.}.~.~.~.",
"~.I.H.~.~.I.P.H.H.H.H.].!.  2 9 0 4.2.-.1.e.e.e.e.e.e.4.4.2.2.2.2.2.2.4.4.e.e.e.e.e.e.1.-.2.4.0 9 5   S.(.H.).[.H.H.H.}.}.~.~.~.",
"~.H.V.I.^.XXI.V.V.H.~.~.Z.  7 w 3 9 ..,.e.e.e.e.e.e.e.4.................4.e.e.e.e.e.e.e.,...9 3 w 9   ^.}.V.H.~.V.V.V.}.}.~.~.~.",
"~.).}.H.H.^.'.[.V.H.~.}.~.  1 6 q *.,.>.e.e.e.>.5.1.e.4.....3.,.,.3.....4.e.1.5.>.e.e.e.>.,.=.q 6 1   B.H.I.~.~.D.S.V.}.}.~.~.~.",
"~.).}.H.V.~.[..XV.H.^.{.W.  1 6 q =.e.,.,.e.>.,.5.-.,.4...4.2.e.e.2.4...4.,.-.5.,.>.e.,.,.e.=.q 6 1   N.H.~.^.).K.G.V.}.}.~.~.~.",
"~.~.~.V.V.~.[..X~.'.XXE.m   7 w 3 &.e.5.4.e.-...>.2.....4.e.e.e.e.e.e.4.....2.>...-.e.4.4.e.&.3 w 9   Z.~.~.[..X~.H.V.}.}.~.~.~.",
"~.~.~.V.V.~.).].H.^.XX/.A.  3 9 0 ..-.1.1.-.1.2.-.3.2.4...-.-.-.-.-.-...4.2.3.-.2.1.-.1.1.-...0 9 2   Z.~.~.).'.[.^.V.^.).~.~.~.",
"~.~.~.V.V.~.~.~.V.~.XX^.G.O * 3 w ....,.,...2.>...-.>.4.................4.>.-...>.2...,.,.....w 3 * O Z.~.~.~.~..X).V.I.~.~.~.~.",
"~.~.~.}.}.~.H.V.F.(.XX^.~.~.x + 3 &.>.5.5.>.-...>.2.........2.>.>.2.........2.>...-.>.5.5.e.&.5 + a V.P.~.~.~.~..X[.~.~.^..X].~.",
"~.~.~.}.}.~.H.V.F.OXXX~.P.~.Z.n * , 2.-.-.2.3.-.2.1.-.....-.,.e.e.,.-.....-.1.2.-.3.2.-.3.2., * n B.H.L.W.].^.~.[.].~.~.^.{.^.H.",
"~.~.~.}.}.~.H.V.F.(.XXH.V.~.}..XO 2 ..,.,...2.>...-.e.4.4.e.e.e.e.e.e.4.4.e.-...>.2...,.,...5 O .X{.~.F.E.XX'.~.~.~.~.~.~.~.H.V.",
"~.~.~.^.).}.(.D.W.~.^.~.P.V.J.K.M.z * : > ..4.4.....4.....4.4.4.5.4.4.....4.....4.4...> : 1 z M.}.{.~.{.{.^.H.V.~.W.F.{.[.V.H.I.",
"~.~.~.~.^.XX(.F.~.~.^.~.I.V.S.F.M.z < < 7 r r r q.8.o.o.o.o.o.o.o.o.o.o.o.o.8.q.r r r 6 < < z M.[.].~.}.}.~.H.V.~.W.E.{.[.V.H.~.",
"~.~.~.~.^.XX(.F.F.(.XX^.I.V.S.F.O 8 $.$.#.F F G 3X=X$.$.$.$.$.$.$.$.$.$.$.$.=X3XH F F #.$.$.8 O V.H.~.}.}.~.H.V.~.].XX^.I.V.H.~.",
"~.~.~.~.^.'./.W.`.`.'.^.~.H.n j +.#.$.k.l.6.) G OXd._ 9.i.=Xi.9.9.i.=Xi.9._ d.OXG ) 6.l.k.$.#.+.a N.~.}.}.~.P.H.H.^.XX^.I.V.H.~.",
"~.~.~.~.~.~.~.~..X[.~.~.~.!.x # %.$.$.x.z.e.7.J H G F 3.y.3X%Xt.t.$X3Xy.3.F G H J 7.e.z.x.$.$.%.& x !.}.}.~.~.~.V.I..X^.I.V.H.~.",
"~.~.~.}.}.~.J.F..X).V.V.M.+ O.%.$.j.c.a.0.e.*X1X<.6.F H ) t.;X3X3X;Xt.) H F 6.<.1X*Xe.0.a.c.j.$.%.+.+ G.~.~.[..X~.~.~.~.I.V.H.~.",
"~.^.].[.'.H.G.S.).I.V.C.B.  8 @.$.a.l.k.z.$X*X;X$Xw.t ~ ~ 6.#X;X;X#X6.~ ~ t w.$X;X*X$Xz.k.l.a.$.@.8   Z.~.H.).[.].).~.~.~.I.~.~.",
"~.].XX^.I.V.V.V.V.V.V.I.Z.  & 5 %.$.$.x.n.4X$Xr.3X;Xe.^ F F 6.e.e.6.F F ^ e.;X3Xr.$X4Xn.x.$.$.%.5 &   Z.I.V.H.~..X[.~.~.^.XX'.~.",
"~.].XXH.H.}.Q.D.V.C.I.g u 3 +.#.$.j.x.j.v.4X2X:X4X2X:X,X@XF / ( ( / F @X,X:X2X4X:X2X4Xv.j.x.j.$.#.+.3 u g I.~.~..X.X}.^.^.XX'.~.",
"~.].XXH.H.}.(.K.V.H.~.c u 3 +.#.$.j.x.j.v.4X4X4X:X2X4X<X-X{ ` P P ` { -X:X4X2X:X4X4X4Xv.j.x.j.$.#.+.3 = p ~.~.~.}.}.}.^.^.XX'.~.",
"~.].XXH.V.~.[..X~.~.~.}._.  & 5 %.$.$.x.n.4X4X4Xt.$X4Xu.u.4Xh.P P h.4Xu.u.4X$Xt.3X4X4Xn.x.$.$.%.5 &   m.V.~.~.~.~.~.~.~.^.XX'.~.",
"~.^.].P.H.H.'..X~.~.~.N.b * X.@.$.a.l.k.v.4X4X4X;X*X$X*X*X$Xs.Z Z s.$X*X*X$X*X;X4X4X4Xv.k.l.a.$.@.X.* p x ~.].[.H.H.H.H.H.].^.~.",
"~.~.~.~.I.V.)..X^.~.~.i % 3 @.$.$.j.c.a.v.4X4X4X4X;Xt.:X:Xt.7.F F 7.t.:X:Xt.;X4X4X4X4Xv.a.c.j.$.$.@.3 % i ~.[.}.V.V.V.V.V.~.~.~.",
"~.'..X^.~.F.L.^..X[.~.V.n O O.$.$.$.$.x.n.4X4X4X4X4X3Xu.u.3XOXF F OX3Xu.u.3X4X4X4X4X4Xn.x.$.$.$.$.O.O n H..XI.V.F.(..XH.H..X].~.",
"~.).{.'.).J.G.H..X'.H.H.B.  e p.%.$.$.k.b.>X2X4X4X<X;X%X&X;Xd.F F d.;X&X%X;X<X4X4X2X>Xb.k.$.$.%.p.e   n L.XX/.A.S.W.[.^.^.[.).~.",
"~.~.~.}.}.~.H.V..X).V.I.Z.  - H %.$.$.$.a.c.>X4X4X;Xe.:X:Xe.t F F t e.:X:Xe.;X4X4X>Xc.a.$.$.$.%.H -   m E.XX(.F.V.H.~.}.}.~.~.~.",
"~.~.~.}.}.V.H.I..X).V.D.D.Z.c @ ! ( ^ ! ! ( [ { { +X:XoXoX:Xf.F F f.:XoXoX:X+X{ { [ ) ( ! ^ ( ( @ p m.G.~.^.G.G.[.^.V.}.}.V.P.~.",
"~.~.~.}.}.V.H.~.{./.V.D.K.^.x O U C K C I P Z K L f.<Xw.w.,Xf.F F f.,Xw.w.<Xf.L K K K U C K C I O g V.~.^.~.H.H.{.^.V.'.'.V.H.~.",
"~.~.~.}.}.V.H.~.F.S.V.D.E.XXn O G Z P K K P P P 5Xg.e.^ F F F F F F F F ^ e.g.5XP P P K K P P I O x ~.}.{.F.`..XV.H.~.V.V.~.~.~.",
"~.~.~.}.}.H.I.~.F.J.).K.E.XXn O C C Z C C K U P 6X' g.` T F F F R R R R ` t ' 6XI U Z C C Z I I O b {.'.).A.)..XH.H.H.^.^.H.P.~.",
"~.~.~.}.}.~.~.~.F.(..XE.E..Xn O P C F I I F C P 5X5X5X5XW F F D 5X5X5X5XW F R 5XI C F I I F Z U O n XX^.P.V.)..X^.H.V.{.{.V.H.~.",
"~.~.~.~.~.~.[..X~.~.~.F.F.~.[.}.O N P P P P N o 5X5X5XL L 5XY D 5X5X5X5X5X5XY F O N P P P P N O R._.XXH.A.F.W.^..X[.~.V.H..X].~.",
"~.~.~.).).~.[..X'.^.H.J.J.L.{..Xx ] B B B B @ O 5X5X5XR T R L D 5X5X5X5XQ R T Y O @ B B B B ] x ~.^.).H.G.S.L.~.[.[.].H.P.XX'.~.",
"~.~.~.}.}.~.[.XXXX).V.I.~.F.`..X~.n           O 5X5X5X5XW F F D 5X5X5X5XW F R 5XO           n ~.~.H.V.P.I.V.H.~.~.].XX^.^.XX'.~.",
"~.).}.).^.V.I.)..X[.I.C.H.~.{.XX}.T.f } } i = O 5X5X5XY Y W Y D 5X5X5XY Y W T L O = i f f i T.}.}.'.P.~.^.{.).~.~.].XX).~.^.^.~.",
"~.].XX^.H.V.H.~..X{.~.V.V.~.'.}.[.T.v | } i ; @ E E E L L W Y F E E E L L E Y K @ ; i k v a T. X}.[.~.~.^.{.'.^.~.).}.).^.^.^.~.",
"~.].XXH.V.V.H.~..X{.~.V.V.~.~.~.v v v | }   B P P P P P I F F F P P P P P P P P P B   i a k }  .~.~.~.~.~.F.`..X~.~.~.}.XXXX'.~.",
"~.^.'.P.H.H.H.H.]./.J.).).J.A.N.v v v s d B V P P P P P I F F F P P P P P P P P P C - = y k } | B.A.J.'.'.L.{..XJ.J.J.}.}.].^.~.",
"~.~.~.~.~.~.H.V.~.L.F.{.{.F.m v v v v = @ P P P P P P P U F F F P P P P P P P P P C F @ $ p v | v n F.OX}.~.{..XF.F.F.{.}.~.~.~.",
"~.~.~.}.{.V.H.~.V.I..XH.V.~.U.| a y O V I P P P P P P K F F F F P P P P P P P P F F F G A O y a | U.~.}.{.F.`..X~.~.~.}.}.~.~.~.",
"~.~.~.'.'.I.P.H.H.^.XXP.H.H.U.| k u   V P P P P P I C K F F F F P P P P P P U C F F F F A   u k } U.~.}.}.J./.[.~.~.~.}.}.~.~.~.",
"~.~.~.~.^.XXI.V.~.'.XX^.I.V.U.| k u   V P P P P P C F F F F F F P P P P P P Z F F F F F A   u k a n ~.}.}.~.~.~.~.~.~.}.}.~.~.~.",
"~.).}.^.^.XX).I.~.'.XXH.C.I._.[.f f f - M P P P K K F F F F - o o B P P I K F F F F F @ ; f f a H.R.~.^.).}.).~.}.'.~.).).}.).~.",
"~.].XX^.^.}.).~.~.'.XXH.C.I.'.}.x c v y ; V V C A A A S S S - % = S C C C S S S S S S ; y v c x ^.^.^.~.^.}.).~..X[.~.~.^.XX'.~.",
"~.].XX^.~.~.~.~.~.'.XX^.I.V.H.~.~.B.a } }                   u k | f                   } | v Y.~..XXXXX^.~.~.~.~..X[.~.~.^.XX'.~.",
"~.^.'.^.~.~.~.~.~.^.'.^.~.H.I.~.~.H.B.Y.U.s s s s s s s s s k k } v s s s s s s s s s U.T.Y.R.~.].'.'.^.~.~.~.~.].).~.~.^.'.^.~.",
"~.~.~.~.~.~.~.~.~.~.~.~.~.~.~.~.~.~.~.~.R.v v v v v v v v v v v v v v v v v v v v v v R.~.~.~.~.~.~.~.~.~.~.~.~.~.~.~.~.~.~.~.~."
};
