/* XPM */
static char *_9741093d35245249ebcff00b69d54eeVgc3lX1paG5Ugb7y[] = {
/* columns rows colors chars-per-pixel */
"64 64 209 2 ",
"   c #0F0D1F",
".  c #160E1F",
"X  c #18111F",
"o  c #0F0D24",
"O  c #100E23",
"+  c #131421",
"@  c #181827",
"#  c #110E37",
"$  c #191738",
"%  c #361B22",
"&  c #241C30",
"*  c #1C2628",
"=  c #372022",
"-  c #3C2623",
";  c #263729",
":  c #29302F",
">  c #5E291B",
",  c #793616",
"<  c #793918",
"1  c #551B28",
"2  c #462A25",
"3  c #4E2D25",
"4  c #552821",
"5  c #4D3026",
"6  c #4D3727",
"7  c #563428",
"8  c #422C36",
"9  c #5B3239",
"0  c #7A272C",
"q  c #653425",
"w  c #6E3728",
"e  c #7D3C26",
"r  c #753829",
"t  c #7E3C28",
"y  c #653537",
"u  c #7A3C36",
"i  c #2D452C",
"p  c #334428",
"a  c #324D2A",
"s  c #3A592B",
"d  c #344D33",
"f  c #3A5738",
"g  c #3E612E",
"h  c #564E29",
"j  c #485635",
"k  c #49652A",
"l  c #51772D",
"z  c #456B31",
"x  c #466835",
"c  c #43643D",
"v  c #4D7535",
"b  c #537D36",
"n  c #687638",
"m  c #120F42",
"M  c #131047",
"N  c #141052",
"B  c #16135B",
"V  c #1E1B5D",
"C  c #221F58",
"Z  c #1E2742",
"A  c #242246",
"S  c #27254E",
"D  c #29264D",
"F  c #2F2C4E",
"G  c #342849",
"H  c #332B4D",
"J  c #37324E",
"K  c #252353",
"L  c #2A2757",
"P  c #161266",
"I  c #1A1762",
"U  c #1A1B69",
"Y  c #211860",
"T  c #2E2962",
"R  c #312B68",
"E  c #362D78",
"W  c #2B3179",
"Q  c #561C5E",
"!  c #432B47",
"~  c #46274C",
"^  c #522E4F",
"/  c #5D2A49",
"(  c #5A3242",
")  c #5C2959",
"_  c #6F304F",
"`  c #683350",
"'  c #50326A",
"]  c #622961",
"[  c #33497C",
"{  c #665255",
"}  c #486843",
"|  c #4E724A",
" . c #50754B",
".. c #803A17",
"X. c #922F2F",
"o. c #813D26",
"O. c #853C2A",
"+. c #8D3636",
"@. c #9A3531",
"#. c #A42F34",
"$. c #AA3538",
"%. c #BD3639",
"&. c #B93939",
"*. c #88471B",
"=. c #954416",
"-. c #9E481B",
";. c #AE4E07",
":. c #AA4C09",
">. c #BE5502",
",. c #B5520B",
"<. c #BE5A0D",
"1. c #AA4D14",
"2. c #A74C1A",
"3. c #8D4221",
"4. c #914320",
"5. c #97492F",
"6. c #944339",
"7. c #9E5E3B",
"8. c #B54B2C",
"9. c #C05600",
"0. c #C25B08",
"q. c #C4572B",
"w. c #C8752D",
"e. c #8D374B",
"r. c #A13744",
"t. c #C23E41",
"y. c #8D4E45",
"u. c #A44346",
"i. c #AE4949",
"p. c #B84748",
"a. c #A94754",
"s. c #BD4C55",
"d. c #947F5A",
"f. c #A37045",
"g. c #B67F4C",
"h. c #834263",
"j. c #C64649",
"k. c #CC4B4E",
"l. c #CD544D",
"z. c #C65253",
"x. c #D25356",
"c. c #D65C57",
"v. c #D65659",
"b. c #CC6C4D",
"n. c #4F812D",
"m. c #52842E",
"M. c #568637",
"N. c #5B9332",
"B. c #5F9836",
"V. c #5E923C",
"C. c #688D39",
"Z. c #758B39",
"A. c #7D8A3B",
"S. c #66973A",
"D. c #639D3A",
"F. c #77953E",
"G. c #77983E",
"H. c #67A13E",
"J. c #68A33F",
"K. c #598943",
"L. c #5F9244",
"P. c #659744",
"I. c #669D41",
"U. c #7F9540",
"Y. c #729E40",
"T. c #7C9F42",
"R. c #67A040",
"E. c #6BA642",
"W. c #6EAA44",
"Q. c #75A544",
"!. c #7EA145",
"~. c #72AE46",
"^. c #72AC49",
"/. c #7EAC49",
"(. c #74B147",
"). c #75B349",
"_. c #7BB54C",
"`. c #7AB94D",
"'. c #7BBB4E",
"]. c #77B450",
"[. c #7EBE50",
"{. c #7FC051",
"}. c #96815A",
"|. c #B4905A",
" X c #B59C60",
".X c #CE8D41",
"XX c #CF884F",
"oX c #D29647",
"OX c #D1904D",
"+X c #D6A04F",
"@X c #D7A352",
"#X c #DDB35E",
"$X c #CAAE66",
"%X c #CEB166",
"&X c #DCB865",
"*X c #E1B167",
"=X c #E1BD65",
"-X c #E3C36A",
";X c #253B83",
":X c #3B3182",
">X c #2A478D",
",X c #2F4C8F",
"<X c #355CA5",
"1X c #3B64A4",
"2X c #3D6DB8",
"3X c #4276C4",
"4X c #4A86D7",
"5X c #5294E8",
"6X c #5499EE",
/* pixels */
"E.E.E.E.E.E.E.E.E.E.E.E.E.E.E.E.E.E.E.E.E.E.E.E.E.E.E.i                 i E.E.E.E.E.E.E.E.E.E.E.E.E.E.E.E.E.E.E.E.E.E.E.E.E.E.E.",
"E.W.(.H.H.E.E.E.E.E.E.E.E.E.~.(.E.E.E.E.E.E.E.E.M.M.M.6 4 , , , , , , 4 6 M.M.M.E.W.(.W.E.E.~.(.E.E.E.E.W.(.W.E.E.W.(.W.E.E.E.E.",
"E.(.{.D.N.E.E.E.E.E.E.E.E.E.).[.E.E.E.E.E.E.E.R.@     w 3.9.9.9.9.9.9.3.w     @ R.(.{.W.E.E.).[.E.E.E.E.W.{.).E.E.(.{.W.E.E.E.E.",
"N.D.W.).(.N.D.E.E.~.`.W.J.N.J.W.E.~.`.W.E.E.v p :.:.:.3.o.3.1.9.9.1.3.o.3.:.:.:.p M.{.W.W.`.).~.`.`.`.W.W.{.).E.`.).W.E.W.`.~.E.",
"N.D.J.`.`.N.D.E.J.~.`.~.E.N.D.J.E.~.`.I.S.S.k > >.9.9.3.o.o.1.9.9.1.o.o.3.9.9.>.> n ^.D.I.[.).E.`.`.{.W.W.`.~.E.[.).E.W.~.`.~.E.",
"E.D.N._.`.N.D.E.N.D.E.`.`.E.D.N.E.E.E.a     =.9.9.9.9.3.o.o.1.9.9.1.o.o.3.9.9.9.9.=.    s {.).E.E.(.{.W.E.E.E.E.{.).E.`.`.E.E.E.",
"E.D.N._.`.D.D.D.Z.F.E.`.`.E.D.N.E.V.z *.=.=.;.9.9.9.9.3.3.1.,.9.9.,.1.3.3.9.9.9.9.;.=.=.*.b S.E.E.(.{.W.E.E.(.).).).).[.`.E.E.E.",
"E.D.N._.`.E.D.N.A.F.E.`.`.E.D.N.R.b X ;.9.9.>.>.>.>.9.3.3.>.>.9.9.>.>.3.3.9.>.>.>.>.9.9.;.X b R.E.^.[.W.E.E._.[.E.(.[.{.`.E.E.E.",
"E.D.N.J.E.E.D.N.A.F.E.`.`.E.D.N.* < >.>.9.9.-.o.o.-.9.3.o.o.1.9.9.1.o.o.3.9.-.o.o.-.9.9.>.>.< * A.Z.N.J.W.[.!.A.E.E.E.`.`.E.E.E.",
"E.D.N.J.W.).D.N.A.F.E.).).D.D.N.+ , 9.1.1.1.2.-.o.-.9.3.o.o.1.9.9.1.o.o.3.9.-.o.-.2.1.1.1.9., + A.F.J.D.E.{./.F.G.Y.E.~.~.E.E.E.",
"E.D.N.J.W.{.J.N.A.F.E.E.J.N.D.R.+ , 9.4.o.o.1.>.o.-.9.3.o.o.1.9.9.1.o.o.3.9.-.o.>.1.o.o.3.9., + A.!.{.D.D.{.).E.A.F.E.N.N.E.E.E.",
"E.E.J.E.E.U./._.A.T.`.D.S.Z.G.R.+ , 9.4.3.,.-.4.,.,.9.3.3.,.>.9.9.>.,.3.3.9.,.,.4.-.,.3.3.9., + Y.E.W.N.D.{.W.N._.~.N.H.J.E.E.E.",
"E.E.E.J.D.A./.[.A.T.`.J.S.Z.C.V.= < 9.-.-.,.-.3.,.,.,.3.3.,.,.,.,.,.,.3.3.,.,.,.4.-.,.-.-.9...% V.D.E.N.D._.E.D.`.W.N.J.E.E.E.E.",
"E.E.E.N.N.E.).[.A.F.E.`.`.N.s X e -.9.9.,.o.1.>.o.o.o.o.o.o.o.o.o.o.o.o.o.o.o.o.>.1.o.,.9.9.-.e X z E.N.C.A./.[.E.D.N.J.E.E.E.E.",
"E.E.E.H.D.D.).[.A.F.E.`.^.s h q q =.9.9.,.o.4.-.o.o.o.o.o.o.o.o.o.o.o.o.o.o.o.o.-.4.o.,.9.9.=.q q h z m.N.G._.[.E.D.N.J.W.).~.E.",
"E.E.E.E.J.N.~.[.A.F.E.`.^.  q e 5 *.9.>.,.t t t t t t o.O.O.O.O.O.O.O.o.o.t t t t t t ,.>.9.*.5 e q   l N.E.).{.E.D.N.J.~.[.(.E.",
"E.E.E.E.J.N.D.W.E.D.N.`.^.  - 5 e -.9.4.u F D F F F D s.x.x.x.x.x.x.x.t.$.D F F F F F r 4.9.-.e 5 -   n A.E.).[.E.E.E.`.`.E.E.E.",
"E.J.D.E.E.J.H.D.D.D.D.(.R.  3 q w 3.1.u ` 1X1X1X1X,XC u.a.k.s.a.a.s.k.r.e.1X1X1X1X,XC ( u 1.3.w q 3   Z.!.D.~.).D.D.D.`.`.E.E.E.",
"E.D.N.J.W.{.J.N.N.D.E.E.S.  q e 5 q o.! [ 6X6X6X6X3XP K / %._ S D _ %./ [ 6X6X6X6X3XP K ! o.q 5 e q   ^.`.N.D.E.N.N.N.`.`.E.E.E.",
"E.~.`.D.D.W.).).N.D.E._.E.  2 7 r y ! F [ 6X2X>X>X;XP K G / ~ S D ~ / G [ 6X2X>X>XW P K F ! y r 7 2   M.D.J.E.E.Z.C.N.`.`.E.E.E.",
"E.~.`.D.N.E.).[.N.D.W._.Q.  2 7 r y D D [ 6X1XP P P P K D D ^ ` ` ^ D D [ 4X<XP P P P K D D 9 r 7 2   m.D.E.W.~.A.S.N.`.`.E.E.E.",
"E.E.E.N.N.E.).[.E.).{.U.n   q e 5 8 D D [ 6X1XP P P P K D D a.v.v.a.D D K P P P P P P K D D 8 5 e q   V.E.E.).[.E.D.N.`.`.E.E.E.",
"E.E.E.N.N.E.~.(.D.W.{.Q.C.  3 q w 9 D D R 1X;XP P P P K ^ a.z.v.v.s.r.~ K P P P P P P K D D 9 w q 3   V.E.E.~.)._.W.N.W.~.E.E.E.",
"E.E.E.N.N.E.E.E.N.E.{.W.S.+ - 5 e y D D K P P P P P P K ` v.v.v.v.k.%./ K P P P P P P K D D y e 5 - . V.E.E.E.E.[.~.N.J.E.E.E.E.",
"E.E.E.`.`.E.D.N.A.!.{.W.E.E.z X 3 8 D D K P P P P P P K ` v.v.v.%.%.%./ K P P P P P P K D D 8 3 X s N.H.E.E.E.E.[.).E.E.W.[.(.E.",
"E.E.E.`.`.E.D.N.A.!.{.E.H.E.V.v - 8 ( G K P P P P P P K ` k.k.k.%.%.%./ K P P P P P P K G ( 8 - v M.D.G.Y.(.W.E.).(.E.E.W._.W.D.",
"E.E.E.`.`.E.D.N.A.!.{.D.N.E.).[.+ 4 o.! K P P P P P P K / %.%.%.%.%.%./ K P P P P P P K ! e 4 + [._.E.A.U.{.).E.E.E.E.E.E.E.D.N.",
"E.E.E.W.~.`.!.Z.Y.E.W.E.D.N.F.F.n.k % @ $ K K K K K K y r w #.%.%.$.O.7 8 K K K K K K $ @ % k n.[._.E._._.W.D.N.E.Y.A._.).N.D.J.",
"E.E.E.E.W.{.!.A.E.E.W.E.J.N.Z.A.n.k 1 1 1 ! ! ! ! ! ! w w 5 X.&.&.@.e 7 5 G G G G G G 1 1 1 k n.).(.E.`.`.E.D.N.E.Y.U._.).N.D.E.",
"E.E.E.E.W.{.!.A.A.!.{.W.J.N.Z.A.+ 0 %.%.&.o.o.o.o.o.o.7 5 5 w o.e w 5 5 5 5 5 5 5 5 5 $.%.%.0 + N.D.E.`.`.E.D.N.E.(.{.W.J.N.D.E.",
"E.E.E.E.W.).Q.Y././.).W.E.D.b h u.p.k.$.@.q q q q q q u.i.i.p.p.p.i.i.i.u.5 5 5 5 5 5 r X.%.#.X.s b E.`.`.E.H.D.D.W.{.W.J.N.D.E.",
"E.E.E.E.E.E.E.E.[.).E.E.E.R.z % x.v.v.6.e 7 5 5 7 7 7 z.c.v.v.v.v.v.v.c.z.7 7 7 5 5 7 7 r %.%.%.% z R.`.`.E.E.E.N.J.[.W.J.N.D.E.",
"E.E.E.`.`.E.F.A.[.~.N.N.n.@ u.x.v.k.%.%.&.>.u H &X&X&X-X*Xv.v.v.v.v.v.*X-X&X&X&XH u >.l.x.v.j.%.&.X.@ S.E.E.).[.E.E.E.E.J.N.D.E.",
"E.W.(.).).D.S.Z.~.J.N.B.M.  +.i.i.p.j.%.q..Xy.F -X-X-X-X*Xk.k.k.k.k.k.&X-X-X-X-XH y..Xc.x.k.&.@.@.0   V.E.D.~.).(.~.E.E.E.J.E.E.",
"E.(.{.W.J.N.N.N.N.N.N.J.V.  - 5 5 y.v.t.b.-Xd.F -X-X-X-X&X%.%.%.%.%.%.&X-X-X-X-XH d.-Xb.x.%.+.5 5 -   V.J.N.D.E.[.).E.E.W.{.).E.",
"E.(.{.D.D._.T.Z.N.B.J.g p 2 u.z.z.j.t.%.8.w.y.F -X-X-X-X-X&Xb.%.%.b.&X-X-X-X-X-XH y.w.c.v.x.p.$.$.X.2 p g J.E.E.[.[.`.W.W.{.).E.",
"E.(.{.D.D.`.!.F.N.D.E.x a 2 u.z.z.j.t.%.&.2.y.{ $X&X-X&X&X-XOXb.b.XX#X-X-X-X&X$X{ y.2.l.v.x.p.$.$.X.2 ; s E.E.E.`.`.`.W.W.{.).E.",
"E.(.{.D.N.E.).[.E.E.E.`.^.  - 5 5 6.v.t.$.S  X-XJ }.-Xw.w.-X-X-X-X@X9.#X-X-X}.J -X XS s.x.%.O.5 5 -   n.N.E.E.E.E.E.E.E.W.{.).E.",
"E.W.(.H.D.D.).[.E.E.E.M.x - +.i.i.p.j.%.$.D f..XH }.-X@XoX.X#X-X.XoX@X.XoX-X}.H .Xf.D s.x.k.&.@.@.0 - s z E.)._.D.D.D.D.D.(.W.E.",
"E.E.E.E.J.N.~.[.E.E.E.a * 3 i.v.v.k.%.%.$.D 5.<.G d.-X-X#X0.@X=X<..X-Xw.w.-X}.G <.5.D s.v.v.j.%.%.@.3 * a E._.`.N.N.N.N.N.E.E.E.",
"E.).[.W.E.A.G.W.[.).E.N.l   u.v.v.v.v.t.$.D  X=X<.5.H $X-X-X.X0.=X@X0.#X$XH 5.<.=X XD s.x.%.k.x.%.X.  l D.[.E.N.A.!.[.D.D.[.(.E.",
"E.~._.).~.F.S.D.[.).D.D.M.  e.a.v.x.k.j.p._ g.+X.Xf.S $X=X@XoX.X+XoX.X=X$XS f..X+X|.e.z.x.j.k.k.r.0   b S.{.Q.C.Z.Y.).W.W.).~.E.",
"E.E.E.`.`.E.D.N.[.~.N.J.V.  $ G x.k.%.x.x.%.8.0.-X XS $X#X9.@X-X0..X-X-X%XS  X-X0.q.v.v.v.v.j.%.G $   n U.{.!.A.N.D.E.`.`.E.E.E.",
"E.E.E.`.`.N.D.J.[.~.N.Z.F.V.g $ ] ) / ] ] Q ) ) w.7.S $X-X#X=X-X#X=X-X-X$XS 7.w.) ) ` ] ] ` ) Q $ a n.S.E.W.S.C.).W.N.`.`.N.H.E.",
"E.E.E.`.`.N.D.E._.~.N.Z.A.W.z o V V K V I P I Y 8.6.(  X%X%X%X%X%X%X%X%X X( 6.8.Y V K V V K V P o g N.E.W.E.D.D._.W.N.).(.N.D.E.",
"E.E.E.`.`.N.D.E.A.Z.N.Z.U.{.b O S C P K K P C D P _ 9.( D D D D D D D D ( 9._ P D C P K K P P P O z E.`._.A./.[.N.D.E.N.N.E.E.E.",
"E.E.E.`.`.D.J.E.A.G.~.A.U.{.b O V V C V V C C V E ' h.' R D D D R E E E ' u ' E V V C V V C I P O v _.).~.C.~.[.D.D.D.W.W.D.H.E.",
"E.E.E.`.`.E.E.E.A.!.[.U.U.[.b + P V S I I S V P :X:X:X:XE D D D :X:X:X:XE D E :XP V S I I S V P + b {.W.H.N.~.[.W.D.N._._.N.D.E.",
"E.E.E.E.E.E.).[.E.E.E.A.A.E.).`.@ M P P P P M O :X:X:XL L :XT D :X:X:X:X:X:XT D O M P P P P M + I.^.{.D.C.A.Y.W.[.).E.N.D.[.(.E.",
"E.E.E.~.~.E.).[.).W.D.F.F.G._.[.z f N N N N # O :X:X:XR R E L D :X:X:X:XE E R T O # N N N N f z E.W.~.D.S.Z.D.E.).).(.D.H.{.).E.",
"E.E.E.`.`.E.).{.{.~.N.J.E.A./.[.E.b           O :X:X:X:XE D D D :X:X:X:XE D E :XO           b E.E.D.N.H.J.N.D.E.E.(.{.W.W.{.).E.",
"E.~.`.~.W.N.J.~.[.).J.B.D.E._.{.`.P.f } } a ; O :X:X:XT T E T D :X:X:XT T E R L O ; a f f a I.`.`.).H.E.W._.~.E.E.(.{.~.E.W.W.E.",
"E.(.{.W.D.N.D.E.[._.E.N.N.E.).`.).P.c | } a : # E E E L L E T D E E E L L E T K # : a f c s P.].`.).E.E.W._.).W.E.~.`.~.W.W.W.E.",
"E.(.{.D.N.N.D.E.[._.E.N.N.E.E.E.c c c | }   N P P P P P I D D S P P P P P P P P P N   a s j }  .E.E.E.E.E.A.}.[.E.E.E.`.{.{.).E.",
"E.W.).H.D.D.D.D.(.Q.F.~.~.F.C.M.c c c d d N <X3XU P P P I D D S P P P 2X2XP P P P B $ ; ; j } | M.C.F.).).G._.[.G.F.F.`.`.(.W.E.",
"E.E.E.E.E.E.D.N.E.G.A._._.A.n c c c c * # U 3X5XU P P P I D D S P U U 4X4XP P P P V D $ * s c | c n A._.`.E._.[.A.A.A._.`.E.E.E.",
"E.E.E.`._.N.D.E.N.J.[.D.N.E.K.| s i + B >X5X<XU P P P K D D D D P <X5X>XU P P P S D D S A + i s | K.E.`._.A./.[.E.E.E.`.`.E.E.E.",
"E.E.E.).).J.H.D.D.W.{.H.D.D.K.| j p   B W 3X,XP P I V K D D D S P ,X3X;XP P I V D D D D A   p j } K.E.`.`.F.Q.).E.E.E.`.`.E.E.E.",
"E.E.E.E.W.{.J.N.E.).{.W.J.N.K.| j ;   B P P P P P V S S D D D S P P P P P P C D D D D D A   ; j s b E.`.`.E.E.E.E.E.E.`.`.E.E.E.",
"E.~.`.W.W.{.~.J.E.).{.D.B.J.^.).s f f : m P P P K K D D D D $ @ # N P P I K S D D D D $ * f f s S.I.E.W.~.`.~.E.`.).E.~.~.`.~.E.",
"E.(.{.W.W.`.~.E.E.).{.D.B.J.).`.z x c ; : B B B A A A A A A & * : Z B B B A A A A A A : ; c x z W.W.W.E.W.`.~.E.[.).E.E.W.{.).E.",
"E.(.{.W.E.E.E.E.E.).{.W.J.N.D.E.E.M.s | }   o               ; j | f                   } | c L.E.[.{.{.W.E.E.E.E.[.).E.E.W.{.).E.",
"E.W.).W.E.E.E.E.E.W.).W.E.D.J.E.E.D.M.P.K.d d d d d d d d d j j } c d d d d d d d d d K.P.L.I.E.(.).).W.E.E.E.E.(.~.E.E.W.).W.E.",
"E.E.E.E.E.E.E.E.E.E.E.E.E.E.E.E.E.E.E.E.I.c c c c c c c c c c c c c c c c c c c c c c I.E.E.E.E.E.E.E.E.E.E.E.E.E.E.E.E.E.E.E.E."
};
