/* XPM */
static char *_87ee1fbe44949d38d4271c034afa575lWAbgMZ0BJLNYSu1[] = {
/* columns rows colors chars-per-pixel */
"64 64 220 2 ",
"   c #0F0D1F",
".  c #18131F",
"X  c #221A1F",
"o  c #100F20",
"O  c #131320",
"+  c #171927",
"@  c #171733",
"#  c #221320",
"$  c #381D21",
"%  c #201E3E",
"&  c #1C2624",
"*  c #212D26",
"=  c #382221",
"-  c #28382A",
";  c #34392C",
":  c #24273C",
">  c #4B281E",
",  c #562A1C",
"<  c #53341E",
"1  c #64351E",
"2  c #783918",
"3  c #531C26",
"4  c #4A2723",
"5  c #542B27",
"6  c #423526",
"7  c #4D3026",
"8  c #533225",
"9  c #5A3326",
"0  c #55362A",
"q  c #453237",
"w  c #5B3535",
"e  c #643526",
"r  c #6E3826",
"t  c #6C3429",
"y  c #743A26",
"u  c #7B3C26",
"i  c #713434",
"p  c #793934",
"a  c #2D4427",
"s  c #344528",
"d  c #314B29",
"f  c #39542C",
"g  c #39582C",
"h  c #344D33",
"j  c #334738",
"k  c #3B5636",
"l  c #3E6037",
"z  c #6D491F",
"x  c #514E2F",
"c  c #4A562B",
"v  c #4E5436",
"b  c #435C38",
"n  c #6D4E2C",
"m  c #42642D",
"M  c #4C782D",
"N  c #456B31",
"B  c #476439",
"V  c #43643D",
"C  c #5C6A35",
"Z  c #4C753A",
"A  c #507636",
"S  c #6A7736",
"D  c #1D1A42",
"F  c #1E1B5D",
"G  c #211F59",
"H  c #1F2D54",
"J  c #252545",
"K  c #27254E",
"L  c #28264D",
"P  c #2F2C4C",
"I  c #362B4A",
"U  c #38324E",
"Y  c #252352",
"T  c #2A2A53",
"R  c #272659",
"E  c #293256",
"W  c #161266",
"Q  c #191664",
"!  c #1B1A62",
"~  c #211961",
"^  c #1F2262",
"/  c #2E2E67",
"(  c #302B65",
")  c #332C6D",
"_  c #352D74",
"`  c #362E7C",
"'  c #383377",
"]  c #4B314C",
"[  c #5C3344",
"{  c #672C4A",
"}  c #7E3445",
"|  c #6B3055",
" . c #2D4673",
".. c #534951",
"X. c #654C4F",
"o. c #6A5C54",
"O. c #466941",
"+. c #4B6C45",
"@. c #4D7242",
"#. c #4E734A",
"$. c #537A48",
"%. c #6F6054",
"&. c #843F1F",
"*. c #813D26",
"=. c #883B2A",
"-. c #8E2D31",
";. c #922C30",
":. c #893532",
">. c #9A3735",
",. c #A33C2A",
"<. c #AB3639",
"1. c #BD3639",
"2. c #B73838",
"3. c #BD393B",
"4. c #8C4315",
"5. c #984718",
"6. c #99461D",
"7. c #9D481B",
"8. c #BE5502",
"9. c #B5520B",
"0. c #B85408",
"q. c #A54C16",
"w. c #A94F12",
"e. c #AA4D14",
"r. c #A24A19",
"t. c #8E4321",
"y. c #824229",
"u. c #904320",
"i. c #95462C",
"p. c #874A37",
"a. c #974538",
"s. c #BE4A24",
"d. c #A85429",
"f. c #98683A",
"g. c #C05600",
"h. c #C15A05",
"j. c #C15814",
"k. c #C8752B",
"l. c #963347",
"z. c #B13B43",
"x. c #C23E41",
"c. c #8E4D4B",
"v. c #A94748",
"b. c #B8494A",
"n. c #AF4F54",
"m. c #8F784F",
"M. c #B77E44",
"N. c #C54345",
"B. c #C44749",
"V. c #C84649",
"C. c #CC4B4E",
"Z. c #CA5B4B",
"A. c #C14E51",
"S. c #C55153",
"D. c #D25255",
"F. c #D55558",
"G. c #CA704C",
"H. c #4F802E",
"J. c #53862E",
"K. c #548137",
"L. c #58873A",
"P. c #5B9332",
"I. c #5F9836",
"U. c #5F933C",
"Y. c #678C36",
"T. c #718C37",
"R. c #758B39",
"E. c #7D8A3B",
"W. c #619937",
"Q. c #689639",
"!. c #639D3A",
"~. c #77953E",
"^. c #7B933E",
"/. c #739B3F",
"(. c #7A993F",
"). c #67A13E",
"_. c #68A33F",
"`. c #5C8D43",
"'. c #5E9040",
"]. c #619442",
"[. c #679C45",
"{. c #7F9540",
"}. c #739D40",
"|. c #7D9E43",
" X c #6BA642",
".X c #6EAA44",
"XX c #6DA649",
"oX c #76A644",
"OX c #7EA245",
"+X c #71AE46",
"@X c #72AB49",
"#X c #7EAC49",
"$X c #74B147",
"%X c #73B148",
"&X c #75B349",
"*X c #7AB64C",
"=X c #7AB94D",
"-X c #7BBB4E",
";X c #7EBF50",
":X c #7FC051",
">X c #96815A",
",X c #B29155",
"<X c #B39A60",
"1X c #CE8B44",
"2X c #D29647",
"3X c #CD8953",
"4X c #D29B57",
"5X c #D7A354",
"6X c #DDB25D",
"7X c #CFAC63",
"8X c #D4B767",
"9X c #DDBE69",
"0X c #E4C36B",
"qX c #3B3182",
"wX c #2C4B92",
"eX c #3C629F",
"rX c #3B65A7",
"tX c #436EAF",
"yX c #4479C5",
"uX c #5398EC",
/* pixels */
" X X X X X X X X X X X X X X X X X X X X X XN                         U. X X X X X X X X X X X X X X X X X X X X X X X X X X X X",
" X.X%X).). X X X X X X X X X+X%X X X XL.K.K.n 2 8 e 2 9 9 2 1 8 2 1 7 A K.K.W. X X.X%X.X X X+X%X X X X X.X%X.X X X.X%X.X X X X X",
" X%X:XW.P. X X X X X X X X X&X;X X X Xd     4.8.*.7.g.t.t.g.7.*.8.e.*.$     K. X X%X:X.X X X&X;X X X X X.X:X$X X X%X:X.X X X X X",
"P.!..X&X$XP.!. X X+X=X.X_.P._..Xd d d 5.7.y *.t.*.*.t.*.*.t.*.*.t.t.*.q.w.w.z d  X%X:X.X.X=X$X+X=X=X=X.X.X:X$X X=X&X.X X.X=X+X X",
"P.W._.=X=XP.!. X_.+X=X+X XP.I.U.= > , q.e.*.t.t.t.t.t.t.t.t.t.t.t.t.*.e.0.g.4., U.XX=X.X.X:X$X X=X=X:X.X.X=X+X X;X&X X.X+X=X+X X",
" X!.P.*X=XP.!. XP.W. X=X=X XN O u 7.g.u.*.*.e.g.g.g.g.g.g.g.g.g.g.e.*.*.t.g.g.8.. m  X X.X:X$X X X%X:X.X X X X X:X&X X=X=X X X X",
" X!.P.*X=X!.W.W.T./. X=X=X XN . q.q.7.q.e.e.r.7.8.9.7.0.g.g.g.g.g.9.e.t.*.7.9.8.. m  X X X_. X X X%X:X.X X X%X&X$X$X&X;X=X X X X",
" X!.P.*X=X XW.P.E.~. X=X=X XN X 0.e.*.9.g.8.7.*.8.e.*.9.g.g.g.g.8.8.g.u.*.*.e.8.. m  X X_.P.!. X X+X;X.X X X*X;X X%X;X:X=X X X X",
" X!.P._. X XW.P.E.~. X=X@X+ e u *.*.*.9.9.*.e.8.*.7.8.8.g.g.g.8.*.7.g.8.9.*.e.g.8.4.& @X=X XW.P.E.T.P._..X;XOXE. X X X=X=X X X X",
" X!.P._..X$X!.P.E.~. X[.Y.2 5.7.*.t.7.e.q.7.q.e.7.e.g.g.8.e.e.e.7.r.e.8.9.*.6.e.8.w.2 Y.[.%X!.P.E.~._.!. X:X#X~./.}. X+X+X X X X",
" X!.P._..X:X_.P.E.~. Xd > g.g.8.*.7.g.u.t.g.7.*.8.g.g.g.9.*.*.*.8.e.*.9.9.*.*.*.8.g.g.> f :X_.P.E.OX:X!.W.:X$X XE.~. XP.P. X X X",
" X X_. X X{.#X&XE.|.=Xf = t.t.t.*.7.g.9.e.t.q.9.u.q.g.6.6.9.6.*.8.e.*.9.8.9.6.*.t.q.g., d .X!.P. X X.XP.!.:X.XP.*X+XP.)._. X X X",
" X X X_./.E.#X;XE.|.=Xf = t.*.*.t.q.g.9.e.t.q.9.u.q.g.6.6.9.7.u.9.q.t.e.9.9.6.*.*.6.9.> d  X!.P..X.X XP.W.*X X!.=X.XP._. X X X X",
" X X XP.P. X&X;XE.~. Xd > g.7.*.8.g.g.u.t.g.7.*.8.g.g.g.9.*.e.8.*.7.g.t.*.*.*.*.*.*.*.$ s  X X X;X*X XP.Y.E.#X;X X!.P._. X X X X",
" X X X).!.W.$X;XE.~. Xd 4 7.t.*.8.g.g.e.e.g.9.e.8.g.g.g.8.e.9.8.e.q.7.*.*.*.*.*.*.*.*.= d &X+X XOX#X&XW.P./.*X;X X!.P._..X&X+X X",
" X X X X_.P.+X;XE.~. Xd = *.*.*.8.g.g.8.8.8.8.8.8.8.8.8.8.8.8.8.8.e.*.*.*.u u u *.*.*.= f :X$X XE.>X:XW.P. X&X;X X!.P._.+X;X%X X",
" X X X X_.P.!..X X!.P.a > 8.7.*.8.g.g.y 9 *.*.*.*.y 8 u u 8 8 8 *.*.*.*.n P P U F.C.1.3 f :X$X X X$X:X{.E. X&X;X X X X=X=X X X X",
" X_.!. X X_.).!.!.!.W.a > e.u.*.8.9.7.y e r u *.*.y e r r e 8 7 r y *.i X.rXrXtXn.v.-.c N &X$X+X}.OX#XOXOX!.+X&X!.!.!.=X=X X X X",
" X!.P._..X:X_.P.P.W. Xd = *.*.*.8.7.7 u u 7 r *.*.*.*.9 9 *.e 7 7 e *.]  .uXuXuXT %   H.P. X&X;XE.E.E.*X=XP.!. XP.P.P.=X=X X X X",
" X+X=X!.W..X$X&XP.W. Xd > 9.6.*.8.q.u e e u u *.*.y 9 y y 9 r y 7 q ] P R wXyXuXT J J ; a d f g Y.Y.Y.W.!._. X XR.T.P.=X=X X X X",
" X+X=XW.P. X&X;XP.!..Xd > 9.r.u.9.7.u e e u u u *.y 9 y y 9 r y 7 q L L Y W yXuXT K L w 5 5 5 4 M J.P.P.W. X.X+X^.Q.P.=X=X X X X",
" X X XP.P. X&X;X X$X:Xf = u e.8.*.r 7 u u 7 r u *.*.*.9 9 *.e 7 7 q L L Y W yXuXT K L S.F.F.V.2.# g P._. X X&X;X X!.P.=X=X X X X",
" X X XP.P. X+X%XW..X:XU.A 7 &.7.e.5.r e e r u *.*.y e r r e r r 7 q L L Y W wXrXT | n.B.V.F.V.2.# c T. X X X+X$X&X.XP..X+X X X X",
" X X XP.P. X X XP. X:X.XW.O e *.8.e.u 9 9 *.u u *.r 7 y y 7 r u 8 q K L Y W W W L c.F.x.x.F.V.2.# c E. X X X X X;X+XP._. X X X X",
" X X X=X=X XW.P.E.OX:X.X X XN # u y 7 y u *.e 8 u *.u 9 9 u e 7 7 q L L Y W W W L } 1.D.D.1.1.2.# g P._. X X X X;X&X X X.X;X%X X",
" X X X=X=X XW.P.E.>X:X X). XU.A e e e u u r r e u u r e e r 9 7 7 i c.] Y W W W L } 1.V.B.;.;.-.A L.W./.}.%X.X X&X%X X X.X*X.X!.",
" X X X=X=X XW.P.E.OX:X!.P. X=X;XO 5 *.*.u 7 r *.*.r 7 y u 7 7 7 7 a.F.| Y W W W K } 1.1.<.    O ;X*X XE.{.:X$X X X X X X X XW.P.",
" X X X.X+X=XOXR.}. X.X X).P.~.^.H.m $ 8 e y u u 9 e y e 8 7 7 8 b.B.x.A.n.Y Y Y q 0 t =.=.y 4   =X*X X*X*X.X!.P. X}.E.*X&XP.!._.",
" X X X X.X:XOXE. X X.X X_.P.T.E.P.M d 6 9 =.i.a.t p.f.w 0 t i p D.V.<.b.n.I I I 9 9 9 y u u 5 $ XX.X X=X=X XW.P. X}.{.*X&XP.!. X",
" X X X X.X:XOXE.E.OX:X.X_.P.T.E. X X Xd 3 1.C.F.1.G.0Xo.{ 1.C.F.3.>.7 7 7 7 7 7 u *.*.9 7 7 r u . N  X=X=X XW.P. X%X:X.X_.P.!. X",
" X X X X.X$XoX}.#X#X$X.X X!.~.E.W.L.N c.v.C.V.V.C.Z.3X,X,X} z.N.:.t 7 7 8 r r y b.a.5 = = $ 4 5 . N  X=X=X X).!.W..X:X.X_.P.!. X",
" X X X X X X X X;X&X X X X X~.E.P.N   b.F.F.V.3.F.C.1.6X7XU l.2.0 0 0 0 9 y.y.y.F.v.  O O O O O + N  X=X=X X X XP._.;X.X_.P.!. X",
" X X X=X=X X~.E.;X+XP.P.P. X X X=XU.  <.x.F.F.F.3.V.F.N.Z.9Xm.] 8X9X9X9X9X9X3X3.3.-.  XX$XJ.T.E.=X$X X X X X&X;X X X X X_.P.!. X",
" X.X%X&X$X!.Q.T.+X_.P.I.!.%X.X X;X].  z.V.C.b.v.>.<.v.B.Z.4X,Xm.<X7X0X0X0X0X5X3Xs.,.i Y.]._./.~.;X*X X X X!.+X&X%X+X X X X_. X X",
" X%X:X.X_.P.P.P.P.P.P._..X:X$X X;X'.  A.D.1.:.7 7 7 7 A.D.1.4X9XU >X0X0X0X0X0X0Xh.s.1.3 f <X$X X;X*X X X_.P.!. X;X&X X X.X:X$X X",
" X%X:X!.!.=X|.R.P.I._.*X=X.X.X X;X].  <.N.D.S.A.<.b.A.:.p t ,X0Xd.a.%.8X0X0X2Xk.6X2Xj.> f ;X$X X!..X=X!.I._. X X;X;X=X.X.X:X$X X",
" X%X:X!.W.=XOX^.P.!. X=X=X X X X;X].  <.N.D.F.F.<.b.A.p t t ,X6Xd.i.[ <X7X6X1Xk.6X2Xk.8 f =X.X).!..X=XW.P. X X X=X=X=X.X.X:X$X X",
" X%X:X!.P. X&X;X X X X=X*XE./. X;X].  A.D.1.C.F.8 7 7 A.D.1.s.8.I p g.[ [ g.5X0Xh.1X0Xx d  XW.P.;X*X XP.P. X X X X X X X.X:X$X X",
" X.X%X).!.W.$X;X X X XOX|.E.OX*XOXS   z.V.C.D.F.>.<.v.a.>.:.M.4XU m.5XX.X.5X2X1X5X2X1Xx s ~.Q.P.;X*X XP.P. X%X&XW.W.W.W.!.%X.X X",
" X X X X_.P.+X;X.X X XE.E.E.#X;XE.C & <.x.F.F.F.3.V.F.p 8 8 ,X9XU >X0X%.o.0X1Xj.0X5X8.< s R.Y.P.;X&X XP.P. X&X=XP.P.P.P.P. X X X",
" X$X;X.X XE./..X;X&X XP.W.;XOXE. X+X;Xf 3 1.1.3.F.C.1.1.1.1.4X9XU p.h.[ o.0X0X0X0X,X. XX&XP.!. X X X XP.!.;X XP.E.OX;X!.W.;X%X X",
" X+X*X$X+X~.Q.!.;X$X!.W.).:X#X~. X.X+XK.C ;.<.1.C.N.1.N.N.1.G.4XU c.1XX...<X<X<X,Xm.c @X=XW.!.!.%X+X XQ./.:XoXY.T.}.&X.X.X&X+X X",
" X X X=X=X XW.P.;X+XP._..X:X$X X X!.P.=X@X  ;.1.1.1.1.D.D.1.1.3.I >X0X%.L L L L O c E.*X=X XW.P.;X*X XE.{.:XOXE.P.W. X=X=X X X X",
" X X X=X=XP.!._.;X+XP.R.~..X!.P.E.Q.P.m h J ] { { { { z.x.1.l.| ~ ] o.d.i.L : & U.T.E.oX.XP..X*X+X_.P./. X.X!.W.&X.XP.=X=XP.). X",
" X X X=X=XP.!. X*XoXP.R.^..X!.P.E.T.P.c ; J T T L L K l.<.z.| Q W F Y a.a.J j g  X}.{. X_.Y.+X;X X!.P. X.X X!.!.*X.XP.$X$XP.!. X",
" X X X=X=XP.!. XE.T.P.R.{.:X XP.E.T.P.R.S   ( qXL L L L Y W G K W W W ` _   ].;X X%X:X.X XE.#X;XP.W. X=X*XE.#X;XP.W. XP.P. X X X",
" X X X=X=X!._. XE.(.+X^.{.:X XP.Y.Q.!.E.S   ( qX) ( L L K G G F R F W ` _   L.%XW.!._.$X#XE.#X;XT.}.*X$X+XY.+X;X).!.W..X.XW.). X",
" X X X=X=X X X XE.OX;X{.{.;X XP.P.W. X^.S   ( qXqX_ L L L K F Q K R W ` _ O K. XP.P.P.*X*XE.#X;XE.OX:X+X).P.+X;X.X!.P.*X*XP.!. X",
" X X X X X X&X;X X X XE.E. X&X;X X X X=X@X  J T qX_ L L Y W G K Q F K @ d  X&X;X X!.P.&X=X X X X X$X:X!.Y.E.}..X;X&X XP.!.;X%X X",
" X X X+X+X X&X;X$X.X!.~.~./.*X;X X X X=X@X  T ( _ ) ( T Y F Y L F ^ ( @ - '.[.XX].'.L..X+X X X X X.X+X!.W.T./. X&X&X%X!.).:X$X X",
" X X X=X=X X&X:X:X+XP._. XE.#X;X X X X=X@X  ( qXL ( qXE L L L L L ( qXD * V V V #.#.#.L.P. X X X X!.P.)._.P.!. X X%X:X.X.X:X$X X",
" X+X=X+X.XP._.+X;X&X_.I.W. X*X:X=X$X X=X@X  J R ` ` qX' ' ' ' ' ` ) ^ F Y * * * - - - B Z P.+X=X=X$X). X.X*X+X X X%X:X+X X.X.X X",
" X%X:X.X!.P.!. X;X=X XP.P. X$X=X=X$X X=X@X  J R ` ` qX` ` ` ` ` ` _ W W F @ H  . .E + k B J.+X:X=X&X X X.X*X$X.X X+X=X+X.X.X.X X",
" X%X:X!.P.P.!. X;X*X XP.P. X X X X X X=X@X  ( qXL ( qXR Y W W W W W W W W W yXuXuXtXL + * v [.;X.X X X X XE.#X;X X X X=X:X:X$X X",
" X.X$X).!.!.W.W.%XoX~.+X+X~.}. X X X X].L.  Y ( _ ) ( G F W W W W W W W W W wXrXrXtXyX/ : ; $.[. X X~.$X$X/.*X;X~.~.~.=X=X%X.X X",
" X X X X X XW.P. X/.E.*X*XE.}. X X X XZ k O : L qX) K ! Q W W W W W W W W W W Q L eXuX .J   k $. X}.E.>X=X X*X;XE.E.E.*X=X X X X",
" X X X=X*XP.!. XP._.;X!.P. X&X=XP.L.$.O.V V - O W W W ^ ! K F W K G W Y Y W G K Q R T L J   a g $.`. X=X*XE.#X;X X X X=X=X X X X",
" X X X$X$X_.).!.W..X:X).W.!.$X;XY.L.O.O.O.b - o W Q Q R F G G F G G F G R R R G F R K J : h k b O.`. X=X=X~.oX&X X X X=X=X X X X",
" X X X X.X:X_.P. X$X:X.X_.P.+X;XE.S g +.+.v ; o W Q W Y Y W G K W F L Q ^ L R W L L K + - #.B v g A  X=X=X X X X X X X=X=X X X X",
" X+X=X.X.X:X+X_. X$X:X!.I._.&X;XW.W.!.$.+.v v x @ D Y K K Y K L Y Y L Y Y L Y Y + + + b O.O.b g !.[. X.X+X=X+X X=X$X X+X+X=X+X X",
" X%X:X.X.X=X+X X X$X:X!.I._.$X=XP.W._.`.$.v v v O @ J J J J J J J J J J J J J J * & & +.#.V N N .X.X.X X.X=X+X X;X&X X X.X:X$X X",
" X%X:X.X X X X X X$X:X.X_.P.!. X X!.P.=X&XV V V O                             O V l g +.#.V '. X;X:X:X.X X X X X;X&X X X.X:X$X X",
" X.X$X.X X X X X X.X$X.X X!._. X X_.!.+X.X'.Z V h h h h h h h h h h h h h h h h V V k O.@.'.[. X%X$X$X.X X X X X%X+X X X.X$X.X X",
" X X X X X X X X X X X X X X X X X X X X X XL.V V V V V V V V V V V V V V V V V V V V V Z  X X X X X X X X X X X X X X X X X X X"
};
