/* XPM */
static char *_98f098db58a4fc0fb55525a91786211OoJIA7QayLaRLjzn[] = {
/* columns rows colors chars-per-pixel */
"40 40 19 1 ",
"  c #0F0D1F",
". c #4D3026",
"X c #37582C",
"o c #4F5236",
"O c #43643D",
"+ c #28264D",
"@ c #161266",
"# c #4F744B",
"$ c #803D26",
"% c #BD3639",
"& c #C05600",
"* c #D65659",
"= c #599130",
"- c #7F883B",
"; c #6BA642",
": c #7FC051",
"> c #E4C46B",
", c #3B3183",
"< c #5499EE",
/* pixels */
";;;;;;;;;;;;;;        ;;;;;;;;;;;;;;;;;;",
";:=;;;;;;:;;  &$&$&$&$  ;;:;;:;;;:;;:;;;",
"=;:=;;:;=;  &$$$$$$$$$&& ;:;:;::;:;:;;:;",
";=:=;=;:; $&$$&&&&&&&$$&& ;;:;;:;;;:;:;;",
";=:;=-;:; &$&&$&$&&&&&$$& ;;=;;:;;:;::;;",
";=;;=-;: $$$&$&$&&&&$&&$&& :;=-=;:-;;:;;",
";=;:=-; &&$&$&$&&&$$&$&$$&& :=-:=:;-;=;;",
";;;-:-: $$$&&$&$&$&$&$&&$$& ;=;;=:=:=;;;",
";;=;:-; &$&&$&$&&&$&$&$$$$$ ;;:;=-:;=;;;",
";;;=:-; $$&&&&&&&&&&&$$$$$$ :;-:=;:;=;:;",
";;;=;;= &$&&.$$$.$..$$$++*% :;;:-;:;;:;;",
";=;:==; $$&.$.$$$.$..$+<<+ =;:--:=;==:;;",
";:=;:=; &$&$.$$$.$.$.++@<++   ===;;-=:;;",
";;=;:;: $&$.$.$$$.$..++@<++**% =;;:;=:;;",
";;=;;=:; $&$.$$$.$.$.++@@+*%*% -;;;:=;;;",
";;:;=-:;; $.$$.$$.$..++@@+%*%% =;;;:;;:;",
";;:;=-:=;: $$.$$.$...*+@@+%%  :;-:;;;;;=",
";;;:-;;;=-= .$$.$...*%*++..$$ :;:;=;-:=;",
";;;:--:;=-;; %*%>+%*%....$$..$ ;:;=;:;=;",
";;;;;:;;;-= **%*%>+%...$$*     ;:;;=:;=;",
";;:;-:==;;: %**%*%>+>>>>%% :=-:;;;:;;;=;",
";:;====;:;: *%...*%>+>>>>&% :;:;;=;:;;:;",
";:=:-=;:;;: %**%*..>&+>>&>& :;=:=;;::;:;",
";:=;:;;:-;: *%*..*%&+&+&>&> ;=:;=;;;;;:;",
";;;=:;;--:- %**%*..>+>+>&>& -=:;=;:===;;",
";:;-;:;=:-;: %%*%%%>+&+>>> :=;;;=:=-:=:;",
";;:;=:=;:;;=: %%%*%%+>+++ -:;=:;-:-=;:;;",
";;:=;:=-;=-= ++++%%@@+&+ ;-;=:;=;;=:=:=;",
";;:=;-=-:=-=- ,+++@+@@, :;:;-:=;:-:=;=;;",
";;:;;-:-:==;- ,,+++@+@, ;==:-:-:;=:;=:=;",
";;;;:;;-;:;;: +,++@+@+ ;:;=:;;;:=-;:;=:;",
";;:;::=;-:;;: ,+,++++, OO##=;;;=;=;;:;:;",
";:;=;:;=;::;: +,,,,,,@@    O=::;;:;;:;;;",
";:==;:;=;;;;: ,+,+@@@@@@<<+ o:;;;-:;;::;",
";;;;=;-:-;;;O +,+@@@@@@@@+<+ #;-:;:--:;;",
";;:=;=:=;:=#OO @@@+@+@+@+@++ X#;:-:;;:;;",
";;;:=;:;=:-X#o @@+@+@+@+@++ #oX;:;;;;:;;",
";:;:;;:=;:=;#oo +++++++++  #OX;;;:;:;;:;",
";:;;;;:;=;;=:OO          OX#O;::;;;:;;:;",
";;;;;;;;;;;;;;OOOOOOOOOOOOOO;;;;;;;;;;;;"
};
