/* XPM */
static char *_5f1d357502a4a2ade25125605525aefjKEbVyvpM0XgHRqT[] = {
/* columns rows colors chars-per-pixel */
"40 40 18 1 ",
"  c #0F0D1F",
". c #4D3026",
"X c #37582C",
"o c #4F5236",
"O c #43643D",
"+ c #28264D",
"@ c #161266",
"# c #4F744B",
"$ c #803D26",
"% c #BD3639",
"& c #C05600",
"* c #D65659",
"= c #599130",
"- c #7F883B",
"; c #6BA642",
": c #7FC051",
"> c #E4C46B",
", c #3B3183",
/* pixels */
";;;;;;;;;;;;;;;;;      ;;;;;;;;;;;;;;;;;",
";:=;;;;;;:;;;;;  $&&&&$  ;:;;:;;;:;;:;;;",
"=;:=;;:;=;;:;; &&$$$$$$&& :;:;::;:;:;;:;",
";=:=;=;:;=;;  $$&$$&&$$&$$  :;;:;;;:;:;;",
";=:;=-;:;=; &$&$&$&&&&$&$&$& ;;:;;:;::;;",
";=;;=-;:;= &$&$$&$$$$$$&$$&$& -=;:-;;:;;",
";=;:=-;;=; &$$&$&$$&&$$&$&$$& -:=:;-;=;;",
";;;-:-:=-; &$&$&&$&&&&$&&$&$& ;;=:=:=;;;",
";;=;:-;:= $&&$&$$$$$$$$$$&$&&$ ;=-:;=;;;",
";;;=:-;: $.&&$$$$$$&&$$$$$$&&.$ =;:;=;:;",
";;;=;;=: .$&$&&&&$&&&&$&&&&$&$. -;:;;:;;",
";=;:==;; $.$&&&&&$$$$$$&&&&&$.$ :=;==:;;",
";:=;:=;: .$&&&&$&$$&&$$&$&&&&$. =;;-=:;;",
";;=;:;:- $.&$&$&$$&&&&$$&$&$&.$ ;;:;=:;;",
";;=;;=:; .$$&$&$&$$$$$$&$&$&$$. ;;;:=;;;",
";;:;=-:;; .&$&$&$$$&&$$$&$&$&. =;;;:;;:;",
";;:;=-:=;: $&$&$&$&&&&$&$&$&$ :;-:;;;;;=",
";;;:-;;;=-=  $$$$$$$$$$$$$$  =:;:;=;-:=;",
";;;:--:;=- %%++>%%%%%%%%>++%% =;:;=;:;=;",
";;;;;:;;; %%*&+++&>&&>&+++&*%% ;:;;=:;=;",
";;:;-:== %%*%&>&++&>>&++&>&%*%% ;;:;;;=;",
";:;====; .%%*>&>&++&&++&>&>*%%. ;=;:;;:;",
";:=:-=; .%%*%>>>>>+@@+>>>>>%*%%. ;;::;:;",
";:=;:;;: .%%*>>&>&>@@>&>&>>*%%. =;;;;;:;",
";;;=:;; .%%*%>>>&>&++&>&>>>%*%%. ;:===;;",
";:;-;:;= %%%*>>>>&>++>&>>>>*%%% =:=-:=:;",
";;:;=:=; +%%%*>>&>&++&>&>>*%%%+ -:-=;:;;",
";;:=;:=-; @+@@++>&>++>&>+++@+@ =;;=:=:=;",
";;:=;-=-: +@+@@,&++++++&,@@+@@ ;:-:=;=;;",
";;:;;-:-: @+@+@,,,++,,,+,@+@+@ :;=:;=:=;",
";;;;:;;-;: @@@ ,,+,+,,,,+ @@@ ;:=-;:;=:;",
";;:;::=;-:;    ,,,++,,,+,    ;;=;=;;:;:;",
";:;=;:;=;::O#X ,,+,+,,+,+ XOX::;;:;;:;;;",
";:==;:;=;;OO# @@@@++@@@@@@ Xo#;;;-:;;::;",
";;;;=;-:-OOO @@@@@++@@@@@@+ X#O-:;:--:;;",
";;:=;=:=;#X @@@@@+++@@@@@+++ X#;:-:;;:;;",
";;;:=;:;=#o @@@@++++@@@@++++ oX;:;;;;:;;",
";:;:;;:=;:XO @@++++  @@++++ OX;;;:;:;;:;",
";:;;;;:;=;;X#      o#      #O;::;;;:;;:;",
";;;;;;;;;;;;;OOOOOOOOOOOOOO;;;;;;;;;;;;;"
};
