/* XPM */
static char *_29ca58413ff4c04fd2f6c0ae65a2b8dgPmpuCRUfKauBy09[] = {
/* columns rows colors chars-per-pixel */
"64 64 221 2 ",
"   c #0F0D1F",
".  c #18131F",
"X  c #221A1F",
"o  c #100F20",
"O  c #131320",
"+  c #171927",
"@  c #171733",
"#  c #221320",
"$  c #381D21",
"%  c #201E3E",
"&  c #1C2624",
"*  c #212D26",
"=  c #382221",
"-  c #28382A",
";  c #34392C",
":  c #24273C",
">  c #4B281E",
",  c #562A1C",
"<  c #53341E",
"1  c #64351E",
"2  c #783918",
"3  c #531C26",
"4  c #4A2723",
"5  c #542B27",
"6  c #423526",
"7  c #4D3026",
"8  c #533225",
"9  c #5A3326",
"0  c #55362A",
"q  c #453237",
"w  c #5B3535",
"e  c #643526",
"r  c #6E3826",
"t  c #6C3429",
"y  c #743A26",
"u  c #7B3C26",
"i  c #713434",
"p  c #793934",
"a  c #2D4427",
"s  c #344528",
"d  c #314B29",
"f  c #39542C",
"g  c #39582C",
"h  c #344D33",
"j  c #334738",
"k  c #3B5636",
"l  c #3E6037",
"z  c #6D491F",
"x  c #514E2F",
"c  c #4A562B",
"v  c #4E5436",
"b  c #435C38",
"n  c #6D4E2C",
"m  c #42642D",
"M  c #4C782D",
"N  c #456B31",
"B  c #476439",
"V  c #43643D",
"C  c #5C6A35",
"Z  c #4C753A",
"A  c #507636",
"S  c #6A7736",
"D  c #1D1A42",
"F  c #1E1B5D",
"G  c #211F59",
"H  c #1F2D54",
"J  c #252545",
"K  c #27254E",
"L  c #28264D",
"P  c #2F2C4C",
"I  c #362B4A",
"U  c #38324E",
"Y  c #252352",
"T  c #2A2A53",
"R  c #272659",
"E  c #293256",
"W  c #161266",
"Q  c #191664",
"!  c #1B1A62",
"~  c #211961",
"^  c #1F2262",
"/  c #2E2E67",
"(  c #302B65",
")  c #332C6D",
"_  c #352D74",
"`  c #362E7C",
"'  c #383377",
"]  c #4B314C",
"[  c #5C3344",
"{  c #672C4A",
"}  c #7E3445",
"|  c #6B3055",
" . c #2D4673",
".. c #534951",
"X. c #654C4F",
"o. c #6A5C54",
"O. c #466941",
"+. c #4B6C45",
"@. c #4D7242",
"#. c #4E734A",
"$. c #537A48",
"%. c #6F6054",
"&. c #843F1F",
"*. c #813D26",
"=. c #883B2A",
"-. c #8E2D31",
";. c #922C30",
":. c #893532",
">. c #9A3735",
",. c #A33C2A",
"<. c #AB3639",
"1. c #BD3639",
"2. c #B73838",
"3. c #BD393B",
"4. c #C13C3F",
"5. c #8C4315",
"6. c #984718",
"7. c #99461D",
"8. c #9D481B",
"9. c #BE5502",
"0. c #B5520B",
"q. c #B85408",
"w. c #A54C16",
"e. c #A94F12",
"r. c #AA4D14",
"t. c #A24A19",
"y. c #8E4321",
"u. c #824229",
"i. c #904320",
"p. c #95462C",
"a. c #874A37",
"s. c #974538",
"d. c #BE4A24",
"f. c #A85429",
"g. c #98683A",
"h. c #C05600",
"j. c #C15A05",
"k. c #C15814",
"l. c #C8752B",
"z. c #963347",
"x. c #B13B43",
"c. c #C23E41",
"v. c #8E4D4B",
"b. c #A94748",
"n. c #B8494A",
"m. c #AF4F54",
"M. c #8F784F",
"N. c #B77E44",
"B. c #C54345",
"V. c #C44749",
"C. c #C84649",
"Z. c #CC4B4E",
"A. c #CA5B4B",
"S. c #C14E51",
"D. c #C55153",
"F. c #D25255",
"G. c #D55558",
"H. c #CA704C",
"J. c #4F802E",
"K. c #53862E",
"L. c #548137",
"P. c #58873A",
"I. c #5B9332",
"U. c #5F9836",
"Y. c #5F933C",
"T. c #678C36",
"R. c #718C37",
"E. c #758B39",
"W. c #7D8A3B",
"Q. c #619937",
"!. c #689639",
"~. c #639D3A",
"^. c #77953E",
"/. c #7B933E",
"(. c #739B3F",
"). c #7A993F",
"_. c #67A13E",
"`. c #68A33F",
"'. c #5C8D43",
"]. c #5E9040",
"[. c #619442",
"{. c #679C45",
"}. c #7F9540",
"|. c #739D40",
" X c #7D9E43",
".X c #6BA642",
"XX c #6EAA44",
"oX c #6DA649",
"OX c #76A644",
"+X c #7EA245",
"@X c #71AE46",
"#X c #72AB49",
"$X c #7EAC49",
"%X c #74B147",
"&X c #73B148",
"*X c #75B349",
"=X c #7AB64C",
"-X c #7AB94D",
";X c #7BBB4E",
":X c #7EBF50",
">X c #7FC051",
",X c #96815A",
"<X c #B29155",
"1X c #B39A60",
"2X c #CE8B44",
"3X c #D29647",
"4X c #CD8953",
"5X c #D29B57",
"6X c #D7A354",
"7X c #DDB25D",
"8X c #CFAC63",
"9X c #D4B767",
"0X c #DDBE69",
"qX c #E4C36B",
"wX c #3B3182",
"eX c #2C4B92",
"rX c #3C629F",
"tX c #3B65A7",
"yX c #436EAF",
"uX c #4479C5",
"iX c #5398EC",
/* pixels */
".X.X.X.X.X.X.X.X.X.X.X.X.X.X.X.X.X.X.X.X.X.X.X.X.X.X.X.XY.                        N .X.X.X.X.X.X.X.X.X.X.X.X.X.X.X.X.X.X.X.X.X.X",
".X.X.X.XXX&XXX.X.XXX&XXX.X.X.X.X&X@X.X.XXX&XXX.X.X~.L.L.A 7 1 2 5 1 2 9 9 2 e 7 2 n L.L.P..X.X.X&X@X.X.X.X.X.X.X.X.X.X_._.&XXX.X",
".X.X.X.XXX>X&X.X.X*X>XXX.X.X.X.X:X*X.X.XXX>X&X.X.XL.    $ *.r.9.*.8.h.y.y.h.8.*.9.5.    d .X.X.X:X*X.X.X.X.X.X.X.X.X.XU.Q.>X&X.X",
".X@X;XXX.XXX*X;X.X*X>XXXXX;X;X;X@X*X;XXXXX>X&X.Xd z e.e.w.*.y.y.*.*.y.*.*.y.*.*.y.*.y 6.6.d d d XX`.U.`.XX;X@X.X.X~.U.%X*XXX~.U.",
".X@X;X@XXX.X*X:X.X@X;XXXXX>X;X;X.X*X>XXXXX;X.XY., 5.h.q.r.*.y.y.y.y.y.y.y.y.y.y.y.y.*.r.w., > = Y.U.U..X@X;X@X`..X~.I.;X;X`.Q.U.",
".X.X.X;X;X.X*X:X.X.X.X.XXX>X&X.X.X*X>XXX.X.Xm . 9.h.h.y.*.*.r.h.h.h.h.h.h.h.h.h.h.r.*.*.i.h.8.u O N .X;X;X.XQ.I..X~.I.;X=XI.~..X",
".X.X.X;X:X*X*X*X*X&X.X.XXX>X&X.X.X.X`..X.X.Xm . 9.0.8.*.y.r.q.h.h.h.h.h.q.8.0.9.8.t.r.r.w.8.w.w.. N .X;X;X.X(.R.Q.Q.~.;X=XI.~..X",
".X.X.X;X>X:X&X.X:X=X.X.XXX:X@X.X.X~.I.`..X.Xm . 9.r.*.*.i.h.9.9.h.h.h.h.q.*.r.9.*.8.9.h.0.*.r.q.X N .X;X;X.X^.W.I.Q..X;X=XI.~..X",
".X.X.X;X;X.X.X.XW.+X:XXX`.I.R.W.I.Q..X;X#X& 5.9.h.r.*.0.9.h.8.*.9.h.h.h.9.9.8.*.9.r.*.q.0.*.*.*.u e + #X;X.X^.W.I.Q..X.X`.I.~..X",
".X.X.X@X@X.X|.(.^.OX>X.X~.`.^.W.I.~.&X{.T.2 e.9.r.7.*.q.9.r.t.8.r.r.r.9.h.h.r.8.r.w.8.w.r.8.y.*.8.6.2 T.{..X^.W.I.~.*XXX`.I.~..X",
".X.X.XU.U..X^.W..X*X>XQ.~.>X+XW.I.`.>Xf , h.h.9.*.*.*.q.0.*.r.9.*.*.*.0.h.h.h.9.*.8.h.y.i.h.8.*.9.h.h.> d .X^.W.I.`.>XXX`.I.~..X",
".X.X.X`._.U.@X=XU.XX>XQ.U.XX.X.XI.~.XXd , h.w.y.*.7.q.9.0.*.r.9.*.7.q.7.7.h.w.i.0.w.y.r.q.h.8.*.y.y.y.= f ;X XW.=XOX}..X.X`..X.X",
".X.X.X.X`.I.XX;X~..X=XQ.U..XXXXXU.~..Xd > q.7.*.*.7.q.q.r.y.w.0.i.8.q.7.7.h.w.i.q.w.y.r.q.h.w.y.*.*.y.= f ;X XW.:X$XW.(.`..X.X.X",
".X.X.X.X`.I.~..X:X$XW.T.U..X=X:X.X.X.Xs $ *.*.*.*.*.*.*.y.h.8.*.9.r.*.0.h.h.h.9.*.8.h.y.i.h.h.9.*.8.h.> d .X^.W.:X*X.XU.U..X.X.X",
".X@X*XXX`.I.~..X:X=X(.I.Q.*X$X+X.X@X*Xd = *.*.*.*.*.*.*.*.8.w.r.9.q.r.9.h.h.h.9.r.0.h.r.r.h.h.9.*.y.8.4 d .X^.W.:X*XQ.~._..X.X.X",
".X&X:X@X`.I.~..X:X*X.XU.Q.>X+XW..X*X>Xf = *.*.*.u u u *.*.*.r.9.9.9.9.9.9.9.9.9.9.9.9.9.9.9.h.9.*.*.*.= d .X^.W.:X@XI.`..X.X.X.X",
".X.X.X;X;X.X.X.X:X*X.XW.}.>X*X.X.X*X>Xf 3 1.Z.G.U P P n *.*.*.*.8 8 8 u u 8 y *.*.*.*.9 y h.h.9.*.8.9.> a I.~..X.X~.I.`..X.X.X.X",
".X.X.X;X;X~.~.~.*X@X~.OX+X$XOX|.&X*X*XN c -.b.m.yXtXtXX.i *.y r 7 8 e r r e y *.*.u r e y 6.0.9.*.i.r.> a Q.~.~.~._.`..X.X~.`..X",
".X.X.X;X;XI.I.I..X~.I.;X=XW.W.W.:X*X.XU.J.  % T iXiXiX .] *.e 7 7 e *.9 9 *.*.*.*.r 7 u u 7 6.9.*.*.*.= d .XQ.I.I.`.>XXX`.I.~..X",
".X.X.X;X;XI.R.E..X.X`.~.Q.T.T.T.g f d a ; J K T iXuXeXR P ] q 7 y r 9 y y 9 y *.*.u u e e u w.9.*.7.0.> d .XQ.I.*X*XXXQ.~.;X@X.X",
".X.X.X;X;XI.R./.@XXX.XQ.I.I.K.M 4 5 5 5 w L L T iXuXW Y L L q 7 y r 9 y y 9 y *.*.u u e e u 8.0.i.t.q.> d XX~.U.:X*X.XU.Q.;X@X.X",
".X.X.X;X;XI.~..X:X*X.X.X`.I.g # 2.C.G.G.D.L L T iXuXW Y L L q 7 7 e *.9 9 *.*.*.*.r 7 u u 7 r *.9.r.*.= f >X*X.X:X*X.XU.U..X.X.X",
".X.X.X@XXXI.XX*X*X@X.X.X.XR.c # 2.C.G.C.V.m.| K tXeXW Y L L q 7 r e e r r e y *.*.u r e e r 7.r.8.&.7 A P.>XXXQ.&X@X.XU.U..X.X.X",
".X.X.X.X`.I.@X:X.X.X.X.X.XW.c # 2.C.G.c.c.G.v.L W W W Y L L q 8 u r 7 y y 7 y *.u u u 9 9 u r.9.*.e O ~.XX>X.XI..X.X.XU.U..X.X.X",
".X&X:XXX.X.X*X:X.X.X.X.X`.I.g # 2.1.1.F.F.1.} L W W W Y L L q 7 7 e u 9 9 u *.u 8 e *.u y 7 y u # N .X.XXX>X+XW.I.Q..X;X;X.X.X.X",
"~.XX=XXX.X.X&X*X.XXX&X|.(.Q.P.A -.;.;.V.C.1.} L W W W Y ] v.i 7 7 9 r e e r u *.e e r u u e e e A P..X_..X>X+XW.I.Q..X;X;X.X.X.X",
"I.Q..X.X.X.X.X.X.X*X>X}.W..X=X:XO     <.1.1.} L W W W Y | G.s.7 7 7 7 y y 7 y *.*.r 7 u *.*.4 . :X*X.XU.~.>X+XW.I.Q..X;X;X.X.X.X",
"`.~.U.*X=XW.|..XU.~.XX=X=X.X=X;X  4 y =.=.t 0 q Y Y Y m.S.c.V.n.8 7 7 8 e y e 9 u u y e 8 $ m J./.^.U.~..XXX.X|.E.OX;X@XXX.X.X.X",
".X~.I.*X=X}.|..XI.Q..X;X;X.XXXoX$ 5 u u y 9 9 9 I I I m.n.<.C.F.p i t 0 w g.a.t s.p.=.9 6 d M U.W.R.I.`..XXX.X.XW.+X>XXX.X.X.X.X",
".X~.I.`.XX>X&X.XI.Q..X;X;X.XN . u r 7 7 9 *.u u 7 7 7 7 7 7 >.3.G.Z.1.{ o.qXH.1.G.Z.1.3 d .X.X.XW.R.I.`.XX>X+XW.W.+X>XXX.X.X.X.X",
".X~.I.`.XX>XXXQ.~._..X;X;X.XN . 4 4 $ = = 5 s.n.y r r 8 7 7 t :.C.b.} <X<X4XA.Z.C.C.Z.b.v.N P.Q.W.^.~..XXX*X$X$X|.OX*XXX.X.X.X.X",
".X~.I.`.XX:X`.I..X.X.X;X;X.XN + O O O O .   b.G.u.u.u.9 0 0 0 0 2.z.U 8X7X1.Z.G.3.C.G.G.n.  N I.W.^..X.X.X.X*X:X.X.X.X.X.X.X.X.X",
".X~.I.`..X.X.X.X:X*X.X.X.X.X*X;XW.R.K.*X.X  -.3.2.4X0X0X0X0X0X9X] ,X0XA.B.G.C.3.G.G.G.c.<.  Y.;X.X.X.XU.I.I.@X:XW.^..X;X;X.X.X.X",
".X.X`..X.X.X@X&X*X@X~..X.X.X=X:X).(.`.[.T.i ,.d.4X5XqXqXqXqX8X1X,X<X5XA.V.b.<.>.b.n.Z.C.x.  [.:X.XXX&X~.U.I.`.@XR.R.~.*X*X&XXX.X",
".X*X>XXX.X.X*X:X.X~.I.`..X.X=X:X.X*X>Xf 3 1.d.j.qXqXqXqXqXqX,XU 0X5X1.F.S.7 7 7 7 :.1.F.S.  [.:X.X*X>XXX`.I.I.I.I.I.I.`.XX>X&X.X",
".X*X>XXXXX;X:X:X.X.X`.U.~.;XXX~..X*X>Xf , k.3X7Xl.3XqXqX9X%.s.f.qX<Xt p :.S.n.<.S.D.F.B.<.  [.:X.XXXXX;X=X`.U.I.E. X;X~.~.>X&X.X",
".X*X>XXXXX;X;X;X.X.X.XU.Q.;XXXQ.`.@X;Xf < l.3X7Xl.2X7X8X1X[ p.f.7X<Xt t p S.n.<.G.G.F.B.<.  [.:X.X.X.X;X;X.X~.U./.+X;XQ.~.>X&X.X",
".X*X>XXX.X.X.X.X.X.X.XU.U..X=X:XI.Q..Xd x qX2Xj.qX6Xh.[ [ h.p I 9.d.1.F.S.7 7 8 G.Z.1.F.S.  [.:X.X(.W.=X;X.X.X.X:X*X.XU.~.>X&X.X",
".XXX&X~.Q.Q.Q.Q.*X&X.XU.U..X=X:XI.!.^.s x 2X3X6X2X3X6XX.X.6XM.U 5XN.:.>.s.b.<.>.G.F.Z.C.x.  S +X=X+XW. X+X.X.X.X:X*XQ.~._.&XXX.X",
".X.X.XU.I.I.I.I.;X*X.XU.U..X*X:XI.T.W.s < 9.6XqXk.2XqXo.%.qX,XU 0X<X8 8 p G.C.3.G.G.G.c.<.& C W.:X$XW.W.W..X.XXX:X@XI.`..X.X.X.X",
".X&X:XQ.~.:X+XW.I..X:XQ.U..X.X.X.X~.I.*XoXO <XqXqXqXqXo.[ j.a.U 0X5X1.1.1.1.Z.G.3.1.1.3 f :X@X.XW.+X:XQ.U..X*X:XXX(.W..XXX:X&X.X",
".X@X*XXXXX*X|.R.T.OX>X(.!..X@X&X~.~.Q.;X@Xc M.<X1X1X1X..X.2Xv.U 5XH.1.B.B.1.B.Z.1.<.;.C L.@XXX.X^.OX>X_.Q.~.*X:X~.!.^.@X*X*X@X.X",
".X.X.X;X;X.XQ.I.W.+X>X}.W..X=X:XI.Q..X;X=XW.c O L L L L %.qX,XI 2.1.1.F.F.1.1.1.1.;.  #X;XI.~..X.X*X>XXX`.I.@X:XI.Q..X;X;X.X.X.X",
".X_.U.;X;XU.XX*XT.~.XX.X(.U.`.@X=XXXU.XXOXW.R.Y.& : L p.f.%.] ~ | z.1.4.x.{ { { { ] J h m I.R.W.U.~.XX).E.I.@X:X`.~.U.;X;X.X.X.X",
".X~.U.%X*XU.XX=X~.~..XXX.XU.~..X:X@XT.`..X}.|..Xg j J s.s.Y F W ! | x.<.z.L L L T T J ; c I.R.W.I.~.XX/.E.I.OX=X.X~.I.;X;X.X.X.X",
".X.X.XU.U..XQ.I.:X$XW.=X;X.XQ.I.:X$XW..XXX>X&X.X:X[.  _ ` W W W L G W Y L L L L wX(   S E.I.R.W.I..X>X}.E.I.R.W..X~.I.;X;X.X.X.X",
".X_.Q.XXXXQ.~.~.:X@XT.@X&X*X|.R.:X$XW.$X*X`.~.Q.&XP.  _ ` W F G F F G Y L L ( ' wX(   S E.~.!.T.I..X>X}./.@X).W..X`.~.;X;X.X.X.X",
".X~.I.=X=XI.~.XX:X@XI._.XX>X+XW.:X$XW.=X=XI.I.I..XL.O _ ` W G L W F L L L L _ wXwX(   S /..XQ.I.I..X:X}.}.:X+XW..X.X.X;X;X.X.X.X",
".X&X:X~.U..X*X:XXX(.W.T.~.>X*X.X.X.X.X;X=XI.~..X:X*X.Xd @ L F Q L G W Y L L _ wXK J   #X;X.X.X.X:X*X.XW.W..X.X.X:X*X.X.X.X.X.X.X",
".X*X>X_.~.&X*X*X.X(.R.Q.~.@XXX.X.X.X.X@XXXP.].[.oX{.].- @ ( ^ F L Y F Y T ( ) _ ( T   #X;X.X.X.X:X=X(.^.^.~.XX*X:X*X.X@X@X.X.X.X",
".X*X>XXXXX>X&X.X.X~.I.`._.I.~..X.X.X.XU.P.#.#.#.V V V * D wX( L L L L L E wX( L wX(   #X;X.X.X.X:X$XW..X`.I.@X>X>X*X.X;X;X.X.X.X",
".XXXXX.XXX>X&X.X.X@X=XXX.X_.*X;X;X@XU.Z B - - - * * * Y F ^ _ ` ' ' ' ' ' wX` ` R J   #X;X.X*X;X>X=X.XQ.U.`.*X:X@X`.U.XX@X;X@X.X",
".XXXXXXX@X;X@X.XXX*X,XXX.X.X*X;X>X@XK.B h + E  . .H @ F W W _ ` ` ` ` ` ` wX` ` R K   #X;X.X*X;X;X*X.XU.U..X=X:X.X~.I.~.XX>X&X.X",
".X*X>X>X;X.X.X.X:X$XW..X.X.X.X.X>X{.v * + L yXiXiXuXW W W W W W W W W Y R wX( L wX(   #X;X.X.X.X.X.X.XU.U..X=X:X.X~.I.I.Q.>X&X.X",
".XXX&X;X;X^.^.).:X=X(.*X@X^..X.X{.$.; : / uXyXtXtXeXW W W W W W W W W F G ( ) _ ( Y   P.[..X.X.X.X|.^.@X@X^.OX&XQ.Q.~.~._.*XXX.X",
".X.X.X;X=XW.W.W.:X=X.X;X=XW.|..X#.k   J  .iXrXL W W W W W W W W W W W Q ! L _ wXL : O k Z .X.X.X.X|.W.=X=XW.(..XI.Q..X.X.X.X.X.X",
".X.X.X;X;X.X.X.X:X$XW.=X;X.X'.#.g a   J L T R W L G W Y Y W G L W F L ! ^ W W Q O - V V O.#.P.I.;X*X.XU.~.:X`.I..X~.I.=X;X.X.X.X",
".X.X.X;X;X.X.X.X*XOX^.;X;X.X'.O.b k h : J L R F G R R R G F G G F G G F R Q Q W o - b O.O.O.P.T.:X*X~.Q._.>XXXQ.~._.`.*X*X.X.X.X",
".X.X.X;X;X.X.X.X.X.X.X;X;X.XA g v B #.- + L L L W R L ^ ! L F W L G W Y Y W Q W o ; v +.+.g S W.:X@XI.`.XX>X*X.XI.`.>XXX.X.X.X.X",
".X@X;X@XXX.X*X;X.X@X;X@XXX.X{.~.g b O.O.b + + @ Y Y L Y Y L Y Y L L Y L L Y D @ x v v +.$.~.T.T.:X*X`.U.~.>X*X.X`.@X>XXXXX;X@X.X",
".X*X>XXX.X.X*X:X.X@X;XXX.XXXXXXXN B V #.O.& & * J J J J J J J J J J J J J J @ O v v v $.'.`.Q.U.;X*X`.U.~.>X*X.X.X@X;XXXXX>X&X.X",
".X*X>XXX.X.X*X:X.X.X.X.XXX>X>X:X.X].V #.+.g l V O                             O V V V *X;XI.~..X.X~.I.`.XX>X*X.X.X.X.X.XXX>X&X.X",
".XXX*XXX.X.X@X&X.X.X.X.XXX*X*X&X.X{.].@.O.k V V h h h h h h h h h h h h h h h h V Z ].XX@X~.`..X.X`.~..XXX*XXX.X.X.X.X.XXX*XXX.X",
".X.X.X.X.X.X.X.X.X.X.X.X.X.X.X.X.X.X.XZ V V V V V V V V V V V V V V V V V V V V V P..X.X.X.X.X.X.X.X.X.X.X.X.X.X.X.X.X.X.X.X.X.X"
};
