/* XPM */
static char *_a35462e0a8b4a32b57d8a8f58464fa3LHs6RGGZgrGK1npR[] = {
/* columns rows colors chars-per-pixel */
"64 64 220 2 ",
"   c #0B0709",
".  c #0E080A",
"X  c #140C0E",
"o  c #0E0818",
"O  c #0F0B1D",
"+  c #160E10",
"@  c #130B1C",
"#  c #1B0E1D",
"$  c #1A1113",
"%  c #14111E",
"&  c #1E111F",
"*  c #1B1A1F",
"=  c #200F1E",
"-  c #3A0D1A",
";  c #21121F",
":  c #381116",
">  c #35131B",
",  c #3A131B",
"<  c #18211B",
"1  c #37221D",
"2  c #110F21",
"3  c #131320",
"4  c #1C1521",
"5  c #161B22",
"6  c #191D22",
"7  c #1A1D2B",
"8  c #151C33",
"9  c #261522",
"0  c #231B24",
"q  c #2A1821",
"w  c #1B2425",
"e  c #1F2B27",
"r  c #1C2529",
"t  c #1D2928",
"y  c #1A2937",
"u  c #232425",
"i  c #212C26",
"p  c #242F28",
"a  c #332227",
"s  c #3A2528",
"d  c #24322A",
"f  c #283828",
"g  c #353A27",
"h  c #500C14",
"j  c #4D1117",
"k  c #4E1418",
"l  c #4B1818",
"z  c #511B16",
"x  c #551A18",
"c  c #670F0C",
"v  c #6F0C0A",
"b  c #7D0C04",
"n  c #710E0C",
"m  c #6F140F",
"M  c #6A1B0D",
"N  c #7D1303",
"B  c #7E1B02",
"V  c #731B08",
"C  c #650F12",
"Z  c #641111",
"A  c #6C1611",
"S  c #46271D",
"D  c #582818",
"F  c #5B341E",
"G  c #6E2309",
"H  c #712306",
"J  c #7F2401",
"K  c #72230A",
"L  c #782B08",
"P  c #76340F",
"I  c #672614",
"U  c #762513",
"Y  c #752B16",
"T  c #61361B",
"R  c #69381A",
"E  c #7B3616",
"W  c #462825",
"Q  c #4E282E",
"!  c #58382A",
"~  c #6A3B24",
"^  c #2D4626",
"/  c #2D422C",
"(  c #31492B",
")  c #324C2A",
"_  c #36532C",
"`  c #39572A",
"'  c #37582C",
"]  c #3A5A2D",
"[  c #344731",
"{  c #344B33",
"}  c #395337",
"|  c #3C5D34",
" . c #3D5A3A",
".. c #3F622C",
"X. c #774219",
"o. c #76411B",
"O. c #50542E",
"+. c #445633",
"@. c #4E5336",
"#. c #405D3C",
"$. c #4C5B3A",
"%. c #784725",
"&. c #674231",
"*. c #774D36",
"=. c #47682B",
"-. c #46712B",
";. c #4A732C",
":. c #4E7E2D",
">. c #446835",
",. c #43643D",
"<. c #52653C",
"1. c #4D7535",
"2. c #4D7739",
"3. c #527E36",
"4. c #547839",
"5. c #606931",
"6. c #6A7838",
"7. c #1D324B",
"8. c #262547",
"9. c #2A354B",
"0. c #243C57",
"q. c #423B47",
"w. c #374F47",
"e. c #25415A",
"r. c #264567",
"t. c #2D4A6B",
"y. c #344362",
"u. c #2F5278",
"i. c #35557A",
"p. c #534951",
"a. c #446542",
"s. c #476940",
"d. c #4C6C45",
"f. c #4C7145",
"g. c #4F734A",
"h. c #507848",
"j. c #465A79",
"k. c #54637A",
"l. c #802801",
"z. c #833207",
"x. c #85370B",
"c. c #893D0E",
"v. c #853F13",
"b. c #8C4413",
"n. c #894718",
"m. c #854A1C",
"M. c #924D17",
"N. c #914D18",
"B. c #8C501D",
"V. c #96541B",
"C. c #844F27",
"Z. c #4F812D",
"A. c #53882E",
"S. c #548236",
"D. c #598D34",
"F. c #56843B",
"G. c #5B8C3B",
"H. c #5B9332",
"J. c #5F9836",
"K. c #5F933D",
"L. c #628F32",
"P. c #6B8E35",
"I. c #668A3D",
"U. c #718C37",
"Y. c #77833C",
"T. c #748D39",
"R. c #7D8A3B",
"E. c #639235",
"W. c #699337",
"Q. c #619937",
"!. c #62953B",
"~. c #6E9239",
"^. c #639D3A",
"/. c #6B9D3D",
"(. c #76953D",
"). c #7A943E",
"_. c #739B3F",
"`. c #67A13E",
"'. c #68A33F",
"]. c #598743",
"[. c #649443",
"{. c #669D41",
"}. c #7F9540",
"|. c #729D40",
" X c #7D9E43",
".X c #6BA642",
"XX c #6EAA44",
"oX c #6CA34C",
"OX c #73A242",
"+X c #7FA145",
"@X c #7DA244",
"#X c #72AD46",
"$X c #71AE46",
"%X c #7BAA47",
"&X c #72AE48",
"*X c #7EAC49",
"=X c #74B147",
"-X c #73B148",
";X c #74B249",
":X c #77B64B",
">X c #78B64B",
",X c #7BB54C",
"<X c #79B94D",
"1X c #7BBB4E",
"2X c #77B350",
"3X c #7EBE50",
"4X c #7FC051",
"5X c #395F89",
"6X c #436894",
"7X c #667892",
"8X c #4773A3",
"9X c #4A75A4",
"0X c #6782A7",
"qX c #7F8FA9",
"wX c #8D8F98",
"eX c #808FA9",
"rX c #8A96AB",
"tX c #939AAB",
"yX c #B0ADAF",
"uX c #B3AEB0",
/* pixels */
".X.X.X.X.X.X.X.X.X.X.X.X.X.X.X.X.X.X.X.X.X.X.X.X.X.X.X.X.X.X.X.X.X.X.X.X.X.X.X.X.X.X.X.X.X.X.X.X.X.X.X.X.X.X.X.X.X.X.X.X.X.X.X.X",
".XXX-X`.`..X.X.X.X.X.X.X.X.X$X-X.X.X.X.X.X.X.X.X-X$X.X.X.X.X.X.X.XXX-XXX.X.X.X.X.XXX-XXX.X.X$X-X.X.X.X.XXX-XXX.X.XXX-XXX.X.X.X.X",
".X-X4XQ.H..X.X.X.X.X.X.X.X.X:X3X.X.X.X.X.X.X.X.X3X>X.X.X.X.X.X.X.X-X4XXX.X.X.X.X.X-X4XXX.X.X:X3X.X.X.X.XXX4X;X.X.X-X4XXX.X.X.X.X",
"H.^.XX:X=XH.^..X.X$X<XXX'.H.'.XX.X$X<XXX.X.X.X.X^.XX<XXX.X.X.X.X).+X4XXX'.H.H.H..X-X4XXXXX<X;X$X<X<X<XXXXX4X;X.X<X:XXX.XXX<X$X.X",
"H.Q.'.<X<XH.^..X'.$X<X-X.XH.^.'..X$X<X$XXX.X.X'.H.XX4XXX.X.XXX$X).+X<XXX'.H.H.H.'.$X<XXXXX4X;X.X<X<X4XXXXX<X$X.X3X:X.XXX$X<X$X.X",
".X^.H.>X<XH.^..XH.Q..X<X<X.XQ.H..X.X.X<X<X.XQ.H..X-X4XXX.X.X:X3X.X.X.X.X.X.X.X.XH.Q..X.XXX4X;X.X.X-X4XXX.X.X.X.X4X:X.X<X<X.X.X.X",
".X^.H.>X<X^.Q.Q.U.~..X<X<X.XQ.H..X.X.X<X<XQ..X$X.XXX-XXXXX:X;X-X.X.X.X;X;X.X.X.XH.Q..X.X.X'..X.X.X-X4XXX.X.X-X:X;X;X:X3X<X.X.X.X",
".X^.H.>X<X.XQ.H.R.(..X<X<X.XQ.H..X.X.X<X<XH.$X3XXX.X.X.XXX4X;X.X.X.X.X<X<X.X.X.XH.Q..X.X'.H.^..X.X&X3XXX.X.X>X3X.X-X3X4X<X.X.X.X",
".X^.H.'..X.XQ.H.R.(..X<X<X.XQ.H..X.X.X<X<XH.^.XX3X:X.X.XXX4X+XR.R.+X3X$X.X.X:X3XH.Q..X<X<X.XQ.H.R.T.H.'.XX3X+XR..X.X.X<X<X.X.X.X",
".X^.H.'.XX;X^.H.R.(..X;X;X^.^.Q..XXX;X$XXXQ.`..X3X>X.X.XXX:XOX(.(.OX:XXXXX;X:X:XH.E._.<X<X;X^.H.R.(.'.^..X4X%X(._.|..X$X$X.X.X.X",
".X^.H.'.XX4X'.H.R.(..X.X'.H.^..X.X-X4X^.H..X.X.X3X>X.X.X.X.X.X.X.X.X.X.XXX4X;X.XH.P.R.,X4X4X'.H.R.+X4X^.Q.4X;X.XR.(..XH.H..X.X.X",
".X.X'..X.X}.%X>XR. X<X^.E.R._..X<X:XXX(.T.H.`..XXXOXR.E.E.R.%X<X.X.X.X.XXX4X-X.XH.E..X<X<XXX^.H..X.XXXH.Q.4XXXH.,X$XH.`.'..X.X.X",
".X.X.X'./.R.*X3XR. X<X'.^.R._..X3X>X.X).T.H.^..X.X_.R.E.E.R.%X<X$X.X.X.XXX4X-X.XE.^.XX<X>X.X^.H.XXXX.XH.Q.,X.X^.<XXXH.'..X.X.X.X",
".X.X.XH.H..X:X3XR.(..X<X<XH.^..X3X*XR..X'.H.^..X.X^.H.'..X.X.X.X3X*XR..XXX4X-X.XR.+X4XXX.X.X.X.X3X>X.XH.L.R.*X3X.X^.H.'..X.X.X.X",
".X.X.X`.^.Q.;X3XR.(..X<X<X^.'..X+X_.P..X.X^.`..X.X^.H.(._..X.XXX3X,X_..XXX;XXX.X*X*X;XXXXX:X$X.X+X%X:XQ.H._.,X3X.X^.H.'.XX:X$X.X",
".X.X.X.X'.H.$X3XR.(..X<X<X.X.X.XR.U.H.`..X.X.X.X.X^.H.R.R..X.X.X3X>X.X.X.X.X.X.X3X>X.X.X$X4X;X.XR.+X4X^.H..X:X3X.X^.H.'.$X3X-X.X",
".X.X.X.X'.H.^..X.X^.H.<X<X.XQ.H.R. X3XQ.H..X:X3X.X^.H.'.OXR.R.R.3X>X.X.XXX3X-X.X3X*XR.R.}.4X;X.X.X;X4X}.R..X:X3X.X.X.X<X<X.X.X.X",
".X'.^..X.X'.G.3.3.1.-.XX$X3.;.-. X+X$X^.^.-X$X$X^.^.Q.$X$XU.(.(.>X-X.XF.G.>X;X-X:X%X(.T.(.:X;X-X|.+X*X+X+X^.$X:X^.^.^.<X<X.X.X.X",
".X^.H.'.XX4X4.O O O O K.K.O O w <X$XH.'.XX4X'.H.H.Q..X<X<XH.^..X.X.X.X) ^ .X:X3X.X.X.XH.H..X:X3XR.R.R.,X<XH.^..XH.H.H.<X<X.X.X.X",
".X$X<X^.D.] F n K V n +.( w r t ] ;.H.'.XX4X$X`.H.Q..X<X<XH.^..X.XG.) e.e.) _ ] H.W.R./.`.H.'.XXE.L.L.Q.^.'..X.XR.P.H.<X<X.X.X.X",
".X$X<XD.;.> Z b J B N , 6 r r r 6 _ Z.^.XX4X$X`.H.H.K..X.XL.^.'.XXF.O e.r.9.y y :.L.}..X'.H.^..XH.H.H.H.Q..XXX$X).~.H.<X<X.X.X.X",
".X.X.X^ - b b b b B J : @ 9 9 9 t r O Z.Q.4X'.H..XS.O O g R.P.H.3X[.O e.u.9X5Xr.3 1.4XXX`.H.U.R.H.H.H.'..X.X:X3X.X^.H.<X<X.X.X.X",
".XG.>.F Z b b b B B B : % # 9 9 t w O D.^.'.`.^.=._ 0 w f O.6.P.2.a.0.r.j.tX7X5X0.w.2.{.`.H.OX*XH.L.U..X.X.X$X&X>...` 1.S..X.X.X",
".XS.O m b b b b J B b > % o & 9 t w O K.`.H.^.{.6 4 9 u t 3 5.Y.6 7.r.r.k.uXeX9Xt.0.O K.`.H.$X<XH.P.R..X.X.X.X{.6 @ @ @ ^ .X.X.X",
".X3.O v b b B J b B J : @ 9 # @ 9 0 t w ] 3X1.6 9 & @ 9 0 t w 5 O t.8Xu.u.9XtXyX9Xi.O &X>XH.] w 6 =.H.'..X.X>.6 N b b b A 6 S..X",
"S.=.j n b b N B B B B : @ & @ @ & 4 6 w / [.] & 4 & # & 4 t 6 O O t.9Xu.j.qXrXtXqX7X7.].G.-.O.! ~ O.-.3.G.-X1.& B N b b m O 1.^.",
"O k b b b b b b J B b > @ o o o o o o w t O 0 9 @ # 9 @ % t 6 O O t.9Xu.k.uXeX9XuXwXr.y O O %.V.V.o.O O _ 4X3.& J B b b m O -.H.",
"O k b b b b B J N B J , % 9 # o o # 9 % % q 4 @ 9 & @ 9 9 % % 3 0.i.9Xu.i.0Xj.9.p.q.8 I P m.v.z.S T m.m.%._ -.:.1 D J N m O 3.`.",
"O k b b b N B J N B J , % 9 # @ o # 9 # # 9 & @ 9 9 @ 9 9 @ 4 4 0.i.6Xt.t.6Xy.9 9 # @ L x.M.c.z.# T V.V.B.S =.:.5 z J N m O 3..X",
"O k b b N J B b J B b - o o & 9 @ o o 9 9 9 9 9 9 9 9 9 9 9 9 9 9 9 9 9 9 9 9 9 @ # 9 m.M.J b.V.# T V.V.V.V.T O O j b J K O 3..X",
"O k b b b B B B B B B c h o @ # & & & 9 9 9 9 9 9 9 9 9 9 9 9 9 9 9 9 9 9 9 ; # & # # E c.b.N.V.o.R T B.V.V.~ a ! ~ B B M O 3..X",
"5 l b b b b B J b B J N v @ o @ 9 9 9 9 9 9 9 9 9 9 9 9 9 9 9 9 9 9 9 9 9 9 # @ 9 & @ H z.V.V.V.V.o.o m.V.V.~ W *.%.J N A 5 S..X",
".X3.# n b b b b J B b J K 9 # @ 9 & @ 9 9 9 9 9 9 9 9 9 q q # @ 9 ; @ 9 9 @ & 9 @ # 9 m.M.l.b.V.V.o.o m.V.V.C.*.W x b , f D.^..X",
".X!.4.F C b N B B B B B V & # # # & # & 9 9 9 & & & & & & & # # & & # & & # & & # # & E b.c.M.V.V.o.o m.V.V.%.&.s W C =.1.'..X.X",
".X-X4X_ - b B J b B J N v o & 9 @ # 9 @ @ 9 # o o o o o o o & 9 @ # 9 @ @ 9 # @ 9 & o H z.V.V.V.V.o.o m.V.V.~ s s a O !.XX4X;X.X",
".X-X4XD.;.- Z N J B N B V 9 # @ 9 & @ 9 ; @ @ @ m.E H n.o.o @ @ o @ @ ; ; @ q a a ! &.B.b.z.b.V.V.V.m.x.c.V.T 9 m x 2 !.XX4X;X.X",
".X&X2XH.:.i x v G V N B V 9 # @ 9 & @ 9 ; o o @ M.v.K n.o.@ @ @ @ @ @ ; ; o q a s ! *.B.b.z.b.M.V.B.m.x.x.M.F @ b Z > S.{.3X;X.X",
".X[.g.| | ,.f O O x J N v o & 9 @ # 9 @ o o o @ J I 9 9 9 9 9 9 9 9 9 @ o   X $ s ! *.E z.V.c.l.V.o.o m.M.J x & N b b - ) 3X;X.X",
"F.h.s.,.| f r O O > z V V o @ # @ @ 4 x I o.I M z l # # # 9 9 9 9 0 u w 6 o @ & &.~ E b.n.T D z F S @ F F z > & N N B A F 2.!..X",
",.,.,.,. .@ O O O O O G G o o o @ O O K z.V.c.J # @ @ @ @ 9 9 9 9 0 t t r O O 4 *.%.J N.m.o % @ @ @ @ @ @ O % * N B J N m # 3..X",
",.s.g.d % $ X   $ +   % @ @ @ @ @ @ @ 9 q q q q 9 9 9 9 9 @ @ @ r w @ 3 3 3 3 3 3 3 % 3 3 % 0 9 9 9 9 9 q O -.A.5 k b J J b k 3 ",
",.#. .t % X X X X X X @ = j j j h - # & & & & & & 9 0 0 0 5 3 % w p f / / / / / { [ g [ { / p 0 9 ; ; & & * ` -.3 l B B B B x O ",
",.{ O 3 O   X $   X $ % > b b b b Z 9 @ o o o o o 5 t t t t 6 O O / ,.,.,.,.,.,.g.d.@.d.g.,./ O O % $ . . $ % O O z J N N J z O ",
",.#. .a.a.) '  .a.} % Z n b b b b b n v v v l 3 2 3 5 5 5 5 } a. .{ i i i i i i d p u d d e } a.3 @ . o.n.H Q 8.3 ; , K B N k O ",
"2.2.2.g.d.] | ,.d.#.w I U Y Y U U U U U U U W i i p d g g e  .d. .[ O O O O O O O O @ @ 3 u #.g.p < . o.n.H Q 8.7 w i R P Y W p ",
".X.X.X].d.] | ,.@.+.' @.$.g.,.] @.+.' @.@.@.$.,.,.s.g.Y.Y.,.| ' 5 O O O O O O O O 2 @ O u @.d.g.] ^ $ . . O O 2 8.w.,.| ] ,.,.,.",
".X.X.XoXoXG.G.].6.I.{.<.$.g.,.' +.+.| @.@.$.} / / [ { I.(.6.I.G.-.3.[./ O O 2 O O ^ -.G.I.6.[.oX+.+. .{ ( ^ }  .w. .| ,.,.| ,.,.",
".X.X.X<X<X.X.X.XR.+X3X4.$.g.,.] ] | ,.$.$.,./ 3 3 3 3 K..XR._..XH.'.3X] 3 3 3 3 3 ` H.>X,XR.*X3X$.<.g.s.,.] s.g.,.,.] f.f.] ,.,.",
".X.X.X.X.X.X:X3X.X.X.XR.R..X:X<X.X.X.X<X3X3X&X.X.X$X3X$X$X4X+XR.H.P.R.,X>X.X;X<X.X^.H.>X<X.X.X.X.X&X3XQ.S.@.$.,.3X:X.XH.Q.3X&X.X",
".X.X.X$X$X.X:X3X;XXX^.(.(._.,X3X.X.X.X<X<X*XOX^..X$X*XOXXX$X+X+XP.~.(.,X;X.X-X:X-X$X'.$X$X.X.X.X.XXX$X^.K.4.4.F.:X:X-X^.`.4X;X.X",
".X.X.X<X<X.X:X4X4X$XH.'..XR.*X3X.X.X.X<X,XR.P.H..X_.R..X'.H.$X3XR.(..X.X.X.X.X.X3X4X4X^.H..X.X.X.X^.H.`.'.H.^..X.X-X4XXXXX4X;X.X",
".X&X<X$XXXH.'.$X3X:X'.J.Q..X>X4X<X;X.X<X>XL.^.'..X^.L.H.J.`.:X3XR.T.H.'..X.X;X<X}._.^.`.`.H.$X<X<X;X`..XXX>X$X.X.X-X4X$X.XXXXX.X",
".X-X4XXX^.H.^..X3X>X.XH.H..X;X<X<X;X.X<X<XH.Q.'..X/.Q.H.J.'.&X,XR.U.L..XXX'.;X<X}.(.L.^.^.L.&X4X<X;X.X.XXX,X;XXX.X$X<X$XXXXXXX.X",
".X-X4X^.H.H.^..X3X:X.XH.H..X.X.X.X.X.X<X<XH.H.H.R.+X4XXX'.H.U.R.H.P.R.,X<XH.^..X3X*XR.L.L.R.*X3X.X.X.X.X.XR.*X3X.X.X.X<X4X4X;X.X",
".XXX;X`.^.^.Q.Q.-X%X(.$X$X(.|..X.X.X.X$X$X^.^.^.*X*X;X^.Q.U.P.P.^.OX*X.X'.U.W.Q.3X&XP.U.U.P.&X3X.XOX(.,X;X_.,X3X(.(.(.<X<X-XXX.X",
".X.X.X.X.X.XQ.H..X_.R.,X,XR.|..X.X.X.X.X.X.X.X.X4X>X.XH.E.R.P.H..X-X4X^.E.R.P.H.3X$XH.T.R.H.$X<XXX|.R.,X<X.X>X3XR.R.R.,X<X.X.X.X",
".X.X.X<X>XH.^..XH.'.3X^.H..X:X<XH.'.3XXX.X.X.X.X3X>X.X<X<X.X.X.XH..X4XXX`.H.^..X3X:X.XH.L.R.P.H.<X:X.X<X,XR.*X3X.X.X.X<X<X.X.X.X",
".X.X.X;X;X'.`.^.Q.XX4X`.Q.^.;X3XP./.$X-X$X_..X.X3X>X.X;X:X-X.X^.P.OX4X.X^.Q.^.^.:X$X^.W.~.+X(.P.$XXX.X<X<X(.$X:X.X.X.X<X<X.X.X.X",
".X.X.X.XXX4X'.H..X;X4XXX'.H.$X3XR.U.H.<X,XR._..X3X>X.X.XXX4X'.H.R.+X4X^.H..XQ.H..X^.H.R.}.4X+XR.H.Q..X<X<X.X.X.X.X.X.X<X<X.X.X.X",
".X$X<XXXXX4X$X'..X;X4X^.J.'.:X3XE.Q.'.<X,XR.R.R.$XOXR.R. X4X$X'.R.(.XX.X.X<X$X`.H.Q.'.,X,XXX/.E.`..X.XXX$X<X$X.X<X;X.X$X$X<X$X.X",
".X-X4XXXXX<X$X.X.X;X4X^.J.'.;X<XH.Q.'.<X<XR.R.R.$XOXR.). X<X&XOX}. XXXXX$X<X$X`.H.Q.'.<X<X.X^.H.XXXXXX.XXX<X$X.X3X:X.X.XXX4X;X.X",
".X-X4XXX.X.X.X.X.X;X4XXX'.H.^..X.X^.H.<X<X.X.X.X3X>X.X<X<X.X(.R.3X4X4X4X<X.XQ.H..X^.H.<X<X.X.X.X3X4X4XXX.X.X.X.X3X:X.X.XXX4X;X.X",
".XXX;XXX.X.X.X.X.XXX;XXX.X^.'..X.X'.^.$X$X.X.X.X-X$X.X$X$X.X|.|.;X;X;X;X$X.X`.^..X'.^.$X$X.X.X.X-X;X;XXX.X.X.X.X-X$X.X.XXX;XXX.X",
".X.X.X.X.X.X.X.X.X.X.X.X.X.X.X.X.X.X.X.X.X.X.X.X.X.X.X.X.X.X.X.X.X.X.X.X.X.X.X.X.X.X.X.X.X.X.X.X.X.X.X.X.X.X.X.X.X.X.X.X.X.X.X.X"
};
