/* XPM */
static char *_4a052125c234be5e5ed9e283fba5b22s9R2NREgPvQP5Pln[] = {
/* columns rows colors chars-per-pixel */
"64 64 239 2 ",
"   c #0E0C1F",
".  c #161D1B",
"X  c #1B1B1D",
"o  c #221F1E",
"O  c #1A251B",
"+  c #100E21",
"@  c #1A1E21",
"#  c #1A1A24",
"$  c #1A2124",
"%  c #1F2B24",
"&  c #1D252A",
"*  c #242A26",
"=  c #2A342C",
"-  c #363B36",
";  c #552A1B",
":  c #7A3A23",
">  c #31472B",
",  c #34482A",
"<  c #39542A",
"1  c #3F622C",
"2  c #48532D",
"3  c #655031",
"4  c #4A7030",
"5  c #6C7635",
"6  c #151444",
"7  c #3C1F5C",
"8  c #2C2A49",
"9  c #140F66",
"0  c #161266",
"q  c #181466",
"w  c #1B1869",
"e  c #291864",
"r  c #201B6D",
"t  c #261F71",
"y  c #1D3176",
"u  c #272569",
"i  c #37376F",
"p  c #2A2374",
"a  c #282574",
"s  c #2F2778",
"d  c #312778",
"f  c #342B7D",
"g  c #243A7A",
"h  c #55165A",
"j  c #681B5D",
"k  c #44215F",
"l  c #57275A",
"z  c #793A4F",
"x  c #783651",
"c  c #50346C",
"v  c #672C71",
"b  c #2F4370",
"n  c #545655",
"m  c #725459",
"M  c #574B70",
"N  c #694C6E",
"B  c #675867",
"V  c #6F6970",
"C  c #787A78",
"Z  c #BD180E",
"A  c #BD1B11",
"S  c #B81A17",
"D  c #BD260F",
"F  c #BE2C0E",
"G  c #BE370C",
"H  c #BE3B0B",
"J  c #BD2311",
"K  c #BE2816",
"L  c #BD3415",
"P  c #A91A31",
"I  c #B93331",
"U  c #C03B16",
"Y  c #C03530",
"T  c #BF4407",
"R  c #BF4C04",
"E  c #BF4209",
"W  c #B65310",
"Q  c #91572C",
"!  c #944535",
"~  c #B14E2D",
"^  c #B46D38",
"/  c #C0480C",
"(  c #C05501",
")  c #C15A09",
"_  c #C14913",
"`  c #C15615",
"'  c #C36114",
"]  c #C05424",
"[  c #C3692D",
"{  c #C37129",
"}  c #C8752B",
"|  c #931A44",
" . c #912E51",
".. c #AA2C44",
"X. c #8F4B4D",
"o. c #B05848",
"O. c #946D56",
"+. c #AB744F",
"@. c #855464",
"#. c #937C66",
"$. c #887273",
"%. c #C66255",
"&. c #CB6D6B",
"*. c #CA7B77",
"=. c #58912E",
"-. c #568637",
";. c #5B9332",
":. c #5E9538",
">. c #688B38",
",. c #728B39",
"<. c #7D8A3B",
"1. c #62953C",
"2. c #689638",
"3. c #639D3A",
"4. c #77963E",
"5. c #67A13E",
"6. c #68A33F",
"7. c #659846",
"8. c #789A41",
"9. c #6BA642",
"0. c #6DA646",
"q. c #6EAA44",
"w. c #7BA545",
"e. c #72AE46",
"r. c #72AA4B",
"t. c #74B147",
"y. c #74B249",
"u. c #7BB64C",
"i. c #7BBB4E",
"p. c #75AA53",
"a. c #7AB551",
"s. c #7EBF50",
"d. c #758471",
"f. c #7FC051",
"g. c #CD8538",
"h. c #859352",
"j. c #BD9057",
"k. c #978571",
"l. c #A88F6E",
"z. c #B39A69",
"x. c #8DB274",
"c. c #93BA7D",
"v. c #CF8E42",
"b. c #CB8C4A",
"n. c #D49A4A",
"m. c #D6A04F",
"M. c #D6A252",
"N. c #D8A758",
"B. c #DDB25D",
"V. c #C98F6C",
"C. c #C9AC67",
"Z. c #DBBB69",
"A. c #E1BC65",
"S. c #86C35C",
"D. c #DFC069",
"F. c #E2C067",
"G. c #E4C46B",
"H. c #E3C573",
"J. c #372E80",
"K. c #392F81",
"L. c #243E81",
"P. c #3B3183",
"I. c #393C87",
"U. c #294886",
"Y. c #314E8E",
"T. c #2C5794",
"R. c #2C5D99",
"E. c #33629C",
"W. c #376CAD",
"Q. c #4B4789",
"!. c #535486",
"~. c #5A589C",
"^. c #605E8C",
"/. c #556694",
"(. c #716F90",
"). c #4874AF",
"_. c #7673A6",
"`. c #907194",
"'. c #738BB2",
"]. c #4680C9",
"[. c #4988D4",
"{. c #6192D3",
"}. c #4E90E0",
"|. c #579AEE",
" X c #78ABF2",
".X c #909293",
"XX c #98BC86",
"oX c #9092B1",
"OX c #AC9FA0",
"+X c #A7A9A7",
"@X c #B2AEAE",
"#X c #A3A3B4",
"$X c #A8A7BA",
"%X c #B3B5B7",
"&X c #D1958D",
"*X c #CEB499",
"=X c #D6ADAA",
"-X c #D8B5A3",
";X c #9EC788",
":X c #9FCC92",
">X c #AAC998",
",X c #B6C7AB",
"<X c #B5CCAA",
"1X c #B7CEAB",
"2X c #B8D1AB",
"3X c #BED9B3",
"4X c #E5CF92",
"5X c #CECFB9",
"6X c #ECDDB5",
"7X c #EADCBE",
"8X c #90AACF",
"9X c #ADB4CE",
"0X c #95BAF0",
"qX c #C0BFC1",
"wX c #AFCDF6",
"eX c #C6C6C5",
"rX c #CBCCCA",
"tX c #CCD7CA",
"yX c #C7C9D4",
"uX c #CDD2DE",
"iX c #E7C6C6",
"pX c #E5CCC5",
"aX c #E7CCC7",
"sX c #E6D1C7",
"dX c #D2E2C7",
"fX c #D4E3CC",
"gX c #D8E0DD",
"hX c #EDE6D4",
"jX c #E0DFE4",
"kX c #D2E4FA",
"lX c #E4E5E5",
"zX c #E9EEE4",
"xX c #E5E5E8",
"cX c #F3E7E5",
"vX c #E9F1E5",
"bX c #E9F1E6",
"nX c #EBF0F3",
"mX c #F7F7F6",
"MX c #FDFDFD",
/* pixels */
"9.9.9.9.9.9.9.9.9.9.9.9.9.9.9.9.9.9.9.9.9.9.9.9.9.9.9.9.9.9.9.9.9.9.9.9.9.9.9.9.9.9.9.9.9.9.9.9.9.9.9.9.9.9.9.9.9.9.9.9.9.9.9.9.",
"9.q.t.5.5.9.9.9.9.9.9.9.9.9.e.t.9.9.9.9.9.9.9.9.t.e.9.9.9.9.9.9.9.q.t.9.9.9.9.9.9.q.t.9.9.9.e.t.9.9.9.9.9.t.q.0.1X;Xt.9.9.9.9.9.",
"9.t.f.3.;.9.9.9.9.9.9.9.9.9.y.s.9.9.9.9.9.9.9.9.s.u.9.9.9.9.9.9.9.t.f.q.9.9.9.9.9.t.f.q.9.9.y.s.9.9.9.9.q.f.t.p.MXfXS.e.9.9.9.9.",
";.3.q.y.t.;.3.9.9.e.u.q.6.;.6.q.9.e.u.q.9.9.9.9.3.9.u.q.9.9.9.9.4.w.f.q.6.;.;.;.9.t.f.q.q.u.t.e.u.u.u.q.q.f.5XzXV.-XvXc.q.u.e.9.",
";.3.6.u.u.;.3.9.6.e.u.e.9.;.3.6.9.e.u.e.q.9.9.6.;.9.f.q.9.9.q.e.4.w.u.q.6.;.;.;.6.e.u.q.q.f.t.9.u.i.f.q.q.u.fXmX~ &XcX>Xc.u.e.9.",
"9.3.;.u.u.;.3.9.;.3.9.u.u.9.3.;.9.9.9.u.u.9.3.;.9.t.f.q.9.9.y.s.9.9.9.9.9.9.9.9.;.3.9.9.q.f.t.9.9.t.f.q.9.9.fXMX[ T A cXvX9.9.9.",
"9.3.;.u.u.3.3.3.,.2.9.u.u.9.3.;.9.9.9.u.u.3.9.e.9.q.t.9.q.y.t.t.9.9.9.t.c.fXfXtX;.3.9.9.9.6.9.9.9.t.f.q.9.9.fXmX~ F A cXvX9.9.9.",
"9.3.;.u.u.9.3.;.h.8.r.s.u.9.3.;.9.9.9.u.u.;.e.s.9.9.9.9.q.f.t.9.9.9.9.S.:XMXMXmX7.7.r.q.9.;.3.9.r.a.S.r.r.9.fXmXI A A cXvX9.9.9.",
"9.3.;.6.9.9.3.1.mXmXMX;Xu.9.3.;.9.9.9.u.u.;.3.9.s.y.9.9.e.f.w.<.<.w.s.vXnXkX8X).mXMXMX;Xu.9.3.1.mXMXMXMXzXs.fXmX[ / A cXvX9.9.9.",
"9.3.;.6.9.t.XX,XyXuXuX3X1X3.3.3.9.q.t.e.9.3.XX2X3X:X9.9.q.u.w.4.4.w.y.vXnX9X8X8XuXuXuX5X3X1X1X,XhXhXsXhXhX3XvXmX] H A cXzX9.9.9.",
"9.3.;.6.q.f.fXmXi g R.xXzX=.3.9.9.t.f.3.;.9.dXMXMXfX9.9.9.9.9.9.9.9.9.vXnXR.9XkXE.R.R.xXMXMXMXMXH.M.( B.4XMXMXmXI A A cXzX9.9.9.",
"9.9.6.9.c.vX=X&.e a I.'.oXzX>X9.u.y.q.4.x.zX$X(.(.$XzXzXzXzX>Xu.9.>XvX8X'.R.{. XwX0X[.'.'.'.*X4X} o.l ^ b.4XhXmX] H A &.&XvX>X9.",
"9.9.9.x.>XcX&XS e p P.T.'.MX1X9.s.u.9.4.c.MX#X0 0 oXxXxXxXxX3X;XXX5XMX'.W.R.[.|.wXwX X).W.R.z.B.} +.B ! ^ B.7XcXV.%.F A *.MX1X9.",
"9.9.9.zXcXZ A S e p P.T.'.MX1X9.s.w.<.9.c.MX#X0 0 0 9 9 9 9 yXMXMXMXMX0X}.R.[.|.|.0XkX X}.R.O.( F.G.G.B l ( M.H.mXpX( F *.MX1X9.",
"9.9.9.zXcXA G E | j p U./.9XrXdXh.4.>.9.XXMX#X0 U.g 0 0 0 0 .X$X$X$X$X'.W.R.8XwX|. X0XwX0XR.l.M.v.N.G.B N M.Z.H.mXsX( F *.MX2X9.",
"9.0.p.zXcXA T ( J | 0 f I.R.uXmXh.8.;.5.c.mX#Xi R.U.q 0 0 0 0 0 0 0 0 T.R.R.9XkX|.|.|.wXwXR.z.A.' v.G.B B G.G.H.MXsX( F *.MX2X9.",
"9.1XMX&.U ( H A ( X.0 f P.P.Y.).mXdXs.3.;.r.tXmXQ.Y.R.y 0 0 0 0 0 0 0 [.[.R.[.|.kXwX|.W.E.R.O.) A.F.G.B B G.G.H.MXsX( F *.MX1X9.",
"9.1XMX&.D T H H T  .0 f P.P.U.Y.yXeX3Xp.3.t.dXMXQ.I.Y.L.y 0 0 0 0 0 0 ).].R.[.|.wXwX0X/.U.U.#.v.m.B.G.l.l.G.G.H.hX-X( F *.MX1X9.",
"9.1XMX&.A A T ( A | 0 f P.P.p q R.9XMXXXq.f.fXMXQ.P.P.T.T.0 0 0 0 0 0 T.R.R.[.|.|.0XkX^.0 0 z.F.) v.G.G.G.G.G.G.G.M.( F *.MX1X9.",
"vX5X*.Y F R H F R L P h p P.K.f y /.'.gXvXvX9X`.u s P.I.Y.T.y 0 0 0 0 ].[.R.W.W.U.!./.I.f f O.} B.A.G.G.G.G.G.G.G.M.( F *.MX1X9.",
"MXiXA A F R H F R / F h r P.K.f r g T.uXnXMX$XP.r p f P.I.R.i 7 l k 0 ].[.R.T.T.w w r J.P.P.X.~ B.A.G.G.G.G.G.G.G.N.o.o.&XMX1X9.",
"MXiXA A A A T ( A H ( l r P.p q P.s 0 f _.MX$XP.P.d 0 f I.R.N ! R ! 0 T.R.R.g q P.P.P.P.P.P.p q W v.G.G.G.G.G.G.G.&X~.9XyXMX1X9.",
"MXiXA A D T H H T E H v s p s s p p s p !.$X_.P.p p s p s Y.Q.M Q ! ! M g g g s P.P.P.P.P.P.p w M.n.v.A.F.G.G.G.G.*XoXoX$XMX1X9.",
"MXiXA A F ( H A ( T A v f 0 s P.q p P.r r P.P.P.q p P.r r K.Y.T.: Q R l 0 0 s P.P.P.P.P.P.P.p w Z.M.( B.G.F.F.G.G.*X9X_.oXMX1X9.",
"MXiXA A A A T ( J H ( l r P.p q K.s q f P.P.p q P.s q f f q 0 w P.d e f f 0 s P.P.P.P.P.P.P.p q u k.F.G.G.G.G.G.G.&X~.~.oXMX1X9.",
"MXiXA A J H H T H H T l r P.p 0 s s p K.P.P.d p s p 0 p s p p p s s p s p 0 s P.P.P.P.P.P.P.p q 0 O.M.A.Z.z.C.F.G.*X9X`.`.sX5X1X",
"MXiXA A F ( H A ( T A h r P.p 0 0 p P.P.P.P.P.P.q 0 0 0 r P.P.P.q p P.r 0 0 s P.P.P.P.P.P.P.p q 0 z ( B.C.0 z.G.G.6XMX*.F ( sXMX",
"MXiXA A A F E R F H R l q r s f f J.P.P.P.P.P.P.f f f w q r r r f s r d d 0 w r P.P.P.P.P.P.p q 0 #.B.g.^ 0 z.G.G.6XMX*.F ( pXMX",
"MXiXA A A F E R F H ( l r r d P.P.P.P.P.P.P.P.P.f f f M B B c q f s r d d r q q P.P.P.P.P.P.p q 0 #.B.g.^ 0 z.G.G.6XMX*.F ( pXMX",
"MXiXA A F ( H A ( T A v P.P.P.P.P.P.P.P.P.P.P.P.q 0 0 C.G.G.#.0 0 p P.r r P.p q P.P.P.P.P.P.p q 0 z ( B.C.0 z.G.G.6XMX*.F ( pXMX",
"1X5XiX%.J H H T H H T l s P.P.P.p d P.s s P.d p X.+.z.b.n.G.#.0 s s p s s p s s p d P.P.P.P.p q 0 O.M.v.+.0 z.G.G.6XMX*.F ( sXMX",
"9.1XMX&.I A E ( J H ( l r P.P.P.q p P.r r P.p w W v.F.} } F.#.u K.s q f f q s K.0 p P.P.P.P.p q 0 #.F.} ~ 0 z.G.G.6XMX*.F ( pXMX",
"9.0.p.zXcXA A J ( / J h r P.P.P.P.s q f f q s K.e X.) B.B.) M.Z.u p P.r r P.p q 0 p P.P.P.P.p q q z ) B.C.0 z.G.G.6XMX*.A A iXMX",
"9.q.t.,XrX=X&.A / U H | j P.P.P.d s p s s p s s p @.v.n.n.v.B.Z.u r s p p s p p 0 p P.P.P.P.^.(.w @.v.n.j.0 z.G.G.6XMX*.J H pXMX",
"9.t.f.< C MX=XA A H ( F P P.P.P.q p P.r r P.p 0 P.k.G.} } G.G.Z.u 0 0 f f 0 s P.0 p P.P.P.P.oX9Xu #.G.} ~ 0 z.G.G.6XMX*.F ( sXMX",
"9.t.f.< C MX=XA A J F T ~ P.P.P.f s r d d r s f r c B C.N.} N.F.C.k.0 w t f K.P.f s r f P.P.~._.$XOX} z m C.Z.G.G.6XMX*.A F iXMX",
"9.t.f.< V lX=X&.K A A T ~ f K.P.f s r d d r s f 0 0 0 C.N.} n.B.F.z.0 w t P.P.P.P.s 0 f P.P.Q.~.9XOX} z m G.G.G.G.6XMX*.A F iXMX",
"9.t.f.< . @ rXmXY A A A P 0 s P.q p P.r r P.p 0 0 0 0 ~ } G.v.) F.z.0 f P.P.P.P.P.s 0 f P.P.Q.~.9X-XG.} } G.G.G.G.6XMX*.F ( sXMX",
"9.q.t.-.4 . .X+XiXiXiXiX=X0 r p s s p s s p w 0 0 0 0 j.n.v.n.M.v.O.0 f P.P.P.P.P.s 0 f K.p i i (.k.v.n.n.v.B.G.hX5X+XiX=XH iXMX",
"9.9.9.9.1.. $ = mXMXMXMXjXu u q K.s q f f 0 0 0 0 0 0 C.B.) M.A.' X.q f P.P.P.P.P.s 0 f f q 6 + 8 ! ) B.B.[ N.H.mXeX. xXcXI pXMX",
"9.t.s.q.1.X @ $ = = = * C MX#X0 q p P.r 0 0 0 0 0 0 0 r B F.v.W c P.P.P.P.P.P.P.P.s 0 0 y R.b   + O.F.} V.MXMXmX- * & * C MX2Xr.",
"9.e.y.t.0.4 > . & $ @ . n rX%X#Xw r s w 0 0 0 0 0 ^.#X#X+XM.+.X.@.@.$.Q.P.P.P.P.s s p g b V c 6 6 k.6X-X-XrXeXeX* @ $ $ B dX;X9.",
"9.9.9.u.u.9.4 . & $ . @ $ & rXmXu 0 0 0 0 0 0 0 0 #XMXMXcX( z e W v.G.V P.P.P.P.0 p P.T.^.( z 0 0 #XMXMXlX& $ X . . $ & < 9.9.9.",
"9.9.9.u.u.;.:.:.* $ . X @ $ rXmXu 0 0 0 ^.xXxXxXxXeXC C .XcX*X~ B.n.} N f r r r f v P ..I ( z u lXeXC C V $ . . $ $ . & > ;.5.9.",
"9.9.9.u.u.;.3.9.2 = . X X $ %XlX(.!.0 (.oXxXxXxXxX%X$ $ C MX-X} B.n.} N f r r r v  .L L L ~ x u mXrX. < < , < < & $ . $ > ;.3.9.",
"9.9.9.u.u.;.3.9.<.5 . X @ & $ - mXyX0 xXxXX @ $ $ $ & @ C MX6XF.) v.G.B r P.P.P.S H R R ~ 0 0 u mXrX@ r.u.<.w.i.O . $ . > 9.9.9.",
"9.9.9.u.u.3.6.9.<.,.1.> @ & $ - mXeX6 xXxX@ @ @ $ $ & @ n +X5XhXN.j.#. .|  . . .E _ H ( W 6 6 8 #X%XrXx.e.>.e.s.-.4 . $ > 3.5.9.",
"9.9.9.u.u.9.9.9.<.w.s.< * & * , mXqX# jXjX= * X $ $ & $ @ X rXMXH.z.q P A A A K ) _ J W W # # # 0 #XMXXX6.;.e.s.9.-.. $ > ;.3.9.",
"9.9.9.9.9.9.y.s.9.9.9.<.5 $ eXmX8 O.D.V (.mX+X$ $ $ & $ $ & rXmXi x S A A A / ( K _ ( ; 3 D.D.Z.u #XMXx.2.<.8.9.s.7.$ . < s.t.9.",
"9.9.9.e.e.9.y.s.t.q.3.4.>.@ rXmX# Q M.m (.MX+X. $ @ $ $ $ $ rXmX .| A A K H / / U / ( ; 3 M.Z.D.8 #XMXc.2.,.2.9.y.:.$ 1 4 f.t.9.",
"9.9.9.u.u.9.y.f.f.e.;.6.1.X rXmX# : ( ; V MX+X. $ @ X @ @ . rXmXY A A A L ( H A ( ( ( ; ; ( M.Z.* +XMXc.6.;.3.9.9.-.& 1.q.f.t.9.",
"9.t.i.e.9.;.6.e.s.y.5.:.;.1.d.d.gX@X; rXrXC n @ $ . . . . @ rXmXY A A / ` L _ ) ( &XcXV 3 B.v.{ o +XMXc.q.u.e.9.9.q.r.0.9.q.9.9.",
"9.t.f.9.3.;.3.9.s.u.9.;.;.9.4 - lX%X# tXtX. = > , = . . . @ %XlX*.%.L / ` L _ ) ( -XMX.X$.C.^ W V +XvXx.q.u.t.q.9.e.u.e.q.q.9.9.",
"9.t.f.3.;.;.3.9.s.u.9.;.;.9.4 $ @ @ $ $ $ . 4 =.<.5 & $ @ . . - mXsX( L L ( H A ( -XMXMXxX    # mXfX9.9.9.<.w.s.9.9.9.u.f.f.t.9.",
"9.q.t.5.3.3.3.3.t.w.4.e.e.4.>.-.$ @ $ $ > -.:.3.w.>.$ . . X . - mXiXH / _ H / ] sX5X+X+X.X. @ & +X.X4 0.t.4.u.s.4.4.4.i.i.t.q.9.",
"9.9.9.9.9.9.3.;.9.8.<.u.u.<.8.9.* % % % < 9.9.9.s.7.$ . . X . - mXiXJ ( ) J ] [ mXeXO o o . $ & * * * r.i.9.u.s.<.<.<.u.u.9.9.9.",
"9.9.9.u.u.;.3.9.;.6.s.3.;.9.y.i.=.5.u.9.9.9.9.9.s.7.$ & & $ $ - mXsX) ( ( ) pXmXS.a.9.;.4 X . O u.t.9.u.u.<.w.f.9.9.9.u.u.9.9.9.",
"9.9.9.t.t.6.5.3.3.9.f.5.3.3.t.s.>.2.e.t.e.4.9.9.s.0.4 = $ $ $ = eX5X-X-X-X-X5XtXu.q.3.2.>.4 4 2 e.q.9.u.i.4.e.y.9.9.9.i.u.9.9.9.",
"9.9.9.9.q.f.6.;.9.t.f.q.6.;.e.s.<.,.;.u.u.<.4.9.s.u.9., $ & $ . X +XMXMXMXMX,X;.9.3.=.,.8.f.w.<.;.3.9.i.u.9.9.9.9.9.9.i.u.9.9.9.",
"9.e.u.q.q.f.e.6.9.t.f.3.:.6.y.s.2.2.6.u.u.<.<.4.e.w.<.5 ,.r.9.1.5 h.XXXX;X:Xx.5.;.3.6.u.u.q.3.2.5.6.9.q.e.u.e.9.u.y.9.e.e.u.e.9.",
"9.t.f.q.q.u.e.9.9.t.f.3.:.6.t.u.:.3.6.u.u.<.<.4.e.w.<.4.8.u.e.9.8.8.e.e.e.u.e.5.;.3.6.u.u.9.3.;.q.q.q.9.q.u.e.9.s.y.9.9.q.f.t.9.",
"9.t.f.q.9.9.9.9.9.t.f.q.6.;.3.9.9.3.;.u.u.9.9.9.s.u.9.u.u.9.4.<.s.s.S.f.u.9.3.;.9.3.;.u.u.9.9.9.s.f.f.q.9.9.9.9.s.y.9.9.q.f.t.9.",
"9.q.t.9.9.9.9.9.9.q.t.9.9.3.6.9.9.5.3.e.e.9.9.9.t.e.9.e.e.9.8.8.t.t.t.t.e.9.5.3.9.6.3.e.e.9.9.9.t.t.t.9.9.9.9.9.t.e.9.9.9.t.q.9.",
"9.9.9.9.9.9.9.9.9.9.9.9.9.9.9.9.9.9.9.9.9.9.9.9.9.9.9.9.9.9.9.9.9.9.9.9.9.9.9.9.9.9.9.9.9.9.9.9.9.9.9.9.9.9.9.9.9.9.9.9.9.9.9.9."
};
