/* XPM */
static char *f9d1c253503340d5c444433fbab40303vf6maW8Kge02dp4e[] = {
/* columns rows colors chars-per-pixel */
"64 64 211 2 ",
"   c #0C1406",
".  c #0F1907",
"X  c #0F1A08",
"o  c #111C09",
"O  c #1C180C",
"+  c #1D1414",
"@  c #341B0D",
"#  c #391E0F",
"$  c #291611",
"%  c #261B10",
"&  c #2C1A12",
"*  c #341D12",
"=  c #3B1F11",
"-  c #15240B",
";  c #1C260D",
":  c #19290D",
">  c #1D310F",
",  c #1E3110",
"<  c #21240E",
"1  c #2A220D",
"2  c #202B0F",
"3  c #2B2417",
"4  c #2E2D1B",
"5  c #352211",
"6  c #3D2212",
"7  c #372C17",
"8  c #213612",
"9  c #243A14",
"0  c #2D351C",
"q  c #2F391E",
"w  c #363617",
"e  c #32391E",
"r  c #26342B",
"t  c #363624",
"y  c #353A25",
"u  c #3C3925",
"i  c #442515",
"p  c #472A16",
"a  c #4A2A16",
"s  c #4D2C18",
"d  c #522A16",
"f  c #532E1A",
"g  c #49331C",
"h  c #55311A",
"j  c #5C341D",
"k  c #52381A",
"l  c #62361E",
"z  c #64391F",
"x  c #6D3A1D",
"c  c #5B3820",
"v  c #653920",
"b  c #6C3D21",
"n  c #703F23",
"m  c #264213",
"M  c #284316",
"N  c #2B4B16",
"B  c #2B4519",
"V  c #2E4A1B",
"C  c #38461C",
"Z  c #304E1C",
"A  c #2F5118",
"S  c #33531D",
"D  c #355B1C",
"F  c #395E1F",
"G  c #37611B",
"H  c #3A631D",
"J  c #3D691F",
"K  c #334323",
"L  c #3B4425",
"P  c #394B26",
"I  c #354329",
"U  c #364C2B",
"Y  c #3C4C2E",
"T  c #365520",
"R  c #3A5E22",
"E  c #36552C",
"W  c #3B5528",
"Q  c #37582C",
"!  c #39592D",
"~  c #314B32",
"^  c #3C4C30",
"/  c #3E5234",
"(  c #3C5D34",
")  c #3E5C39",
"_  c #3B6221",
"`  c #3E6922",
"'  c #3F6037",
"]  c #7E411E",
"[  c #4E4D26",
"{  c #42452A",
"}  c #555527",
"|  c #494A31",
" . c #445434",
".. c #4E5436",
"X. c #495937",
"o. c #425C3A",
"O. c #4B5C3A",
"+. c #565736",
"@. c #754225",
"#. c #7B4526",
"$. c #7E4828",
"%. c #416D23",
"&. c #486429",
"*. c #44692A",
"=. c #437324",
"-. c #467925",
";. c #4A7D27",
":. c #49732C",
">. c #4D7C2D",
",. c #51762F",
"<. c #416537",
"1. c #43643D",
"2. c #4C633D",
"3. c #46683F",
"4. c #556B37",
"5. c #4E7931",
"6. c #4F7A34",
"7. c #4C753A",
"8. c #557B35",
"9. c #656D35",
"0. c #6A7634",
"q. c #466740",
"w. c #4A6642",
"e. c #476941",
"r. c #4B6C45",
"t. c #4D6F48",
"y. c #506D43",
"u. c #4C7144",
"i. c #4E724A",
"p. c #537B42",
"a. c #50744A",
"s. c #52784B",
"d. c #81411D",
"f. c #89451F",
"g. c #8A4924",
"h. c #834A29",
"j. c #954E25",
"k. c #9F5023",
"l. c #A15223",
"z. c #4B8027",
"x. c #4D8329",
"c. c #4F8828",
"v. c #50852C",
"b. c #528C2B",
"n. c #57952D",
"m. c #58972D",
"M. c #59992E",
"N. c #538232",
"B. c #588C34",
"V. c #588738",
"C. c #5B8D3C",
"Z. c #5B9332",
"A. c #5C9C31",
"S. c #5F923B",
"D. c #678E34",
"F. c #718B37",
"G. c #7B863C",
"H. c #728E3A",
"J. c #7E8A3B",
"K. c #639535",
"L. c #61953C",
"P. c #6D943A",
"I. c #639C3A",
"U. c #6C9C3C",
"Y. c #77953E",
"T. c #7B943E",
"R. c #749B3F",
"E. c #61A236",
"W. c #66A33C",
"Q. c #68A33F",
"!. c #67A83B",
"~. c #69AB3D",
"^. c #5B8A45",
"/. c #5E9141",
"(. c #658746",
"). c #629544",
"_. c #679747",
"`. c #659C42",
"'. c #7F9540",
"]. c #739E40",
"[. c #7E9E44",
"{. c #6BA642",
"}. c #6EAA44",
"|. c #6FA849",
" X c #7EA245",
".X c #78A745",
"XX c #71AE46",
"oX c #72AD49",
"OX c #7FAC49",
"+X c #6EB042",
"@X c #73B546",
"#X c #74B847",
"$X c #73B148",
"%X c #74B249",
"&X c #75B349",
"*X c #77B64B",
"=X c #7AB64C",
"-X c #76B949",
";X c #79B94C",
":X c #7BBB4E",
">X c #7EBF50",
",X c #7DC14F",
"<X c #7FC051",
"1X c #80C154",
"2X c #82C454",
"3X c #86CC57",
"4X c #87CC58",
"5X c #88CE59",
"6X c #8ED55E",
"7X c #90D85F",
"8X c #91D960",
/* pixels */
"{.{.{.{.{.{.{.{.{.{.{.{.{.{.{.{.{.{.{.{.{.{.{.{.{.{.{.{.{.{.{.{.{.{.{.{.{.{.{.{.{.{.{.{.{.{.{.{.{.{.{.{.{.{.{.{.{.{.{.{.{.{.{.{.",
"{.}.$XQ.Q.{.{.{.{.{.{.{.{.{.XX$X{.{.{.B.N.N.N.N.N.N.N.N.N.N.L.{.{.}.$X}.I.N.L.{.{.}.$X}.{.{.XX$X{.{.{.{.}.$X}.{.{.}.$X}.{.{.{.{.",
"{.$X<XI.Z.{.{.{.{.{.{.{.{.{.*X>X{.{.{.Z                     N.{.{.$X<X}.S.  N.{.{.%X<X}.{.{.*X>X{.{.{.{.}.<X%X{.{.$X<X}.{.{.{.{.",
"Z.I.}.*X$XZ.I.{.{.XX;X}.Q.Z.Q.}.{.V.V M *.1X1X1X1X1X1X1XoXM B V V Z T Z S c._ V V Z T L.}.;X%XXX;X;X;X}.}.<X%X{.;X*X}.{.}.;XXX{.",
"Z.I.Q.;X;XZ.I.{.Q.XX;XXX{.Z.I.Q.{.N.  *.C.5X6X8X5X5X5X4X;X_ M : N 9 : m H !.N.*.*.T   S.}.<X%X{.;X;X<X}.}.;XXX{.>X*X{.}.XX;XXX{.",
"{.I.Z.*X;XZ.I.{.Z.I.{.;X;X{.I.Z.{.N.  1X5XM.<X7XA.M.M.F F M.=.Z n.z.V b.W.8X8X8X8X|.  S.}.<X%X{.{.$X<X}.{.{.{.{.<X*X{.;X;X{.{.{.",
"{.I.Z.*X;XI.I.I.F.P.{.;X;X{.I.Z.*.T 9 2X6X<X-X@XM.b.=.{.{.=.L.oX=.-.;.=.x.@X3X8X8X;X-.%.>.Q.{.{.{.$X<X}.{.{.$X*X%X%X*X>X;X{.{.{.",
"{.I.Z.*X;X{.I.Z.J.Y.{.;X;X{.I.b.o , Z 1X6X6X@XM.m.;.Z >X1XZ %X6XT =.n._ _ m.,X6X6X,XM.N M b.I.{.{.oX>X}.{.{.*X>X{.$X>X<X;X{.{.{.",
"{.I.Z.Q.{.{.I.Z.J.Y.{.;X;X{.I.b.o D n._ ` A.M.M.S =.m._ _ n.,X6XA.-.> c.b.Z x.A.A.A.M.n.c.- =.Z.J.F.Z.Q.}.>X XJ.{.{.{.;X;X{.{.{.",
"{.I.Z.Q.}.%XI.Z.J.Y.{.%X%XI.I.Z.o A z.-.-.z.z.z.=.-.z.=.=.-.}.,X;.=.J -.-.=.-.x.M.M.M.M.n.H ` =.J.Y.Q.I.{.<XOXY.R.].{.XXXX{.{.{.",
"{.I.Z.Q.}.<XQ.Z.J.Y.{.{.Q.Z.I.{.o , V b.b.V V V M.z.V b.b.: -.n.> H M.N N M.=.Z m.M.M.M.M.M.H o J. X<XI.I.<X%X{.J.Y.{.Z.Z.{.{.{.",
"{.{.Q.{.{.'.OX*XJ.[.;X*.V m B V : D b.` ` b.b.b._ =.b.D N B N N B B N B B N V V F R R b.M.M.H   w ,.}.Z.I.<X}.Z.=XXXZ.Q.Q.{.{.{.",
"{.{.{.Q.U.J.OX>X0.H.XXR m m : o N J b.` ` b.b.c._ =.b.M , B 8 : M 9 : M M , 9 M V V V b.A.W.-.m : _ S.Z.I.=X{.I.;X}.Z.Q.{.{.{.{.",
"{.{.{.Z.Z.{.*X;X:     c.M.M.J > n.z.V b.b.V 8 : m.z.V , : : : : : : : : , V ,   V V V b.!.8X@Xm.Z 9   x.D.J.OX>X{.I.Z.Q.{.{.{.{.",
"{.{.{.Q.I.I.B.6.-.H 9 b.n.=.-.-.=.F 9 ` ` 9 : - H S , 9 9 : : : : : : 9 R %XoXoX8 9 V b.!.8X3X;XS 9   x.Z.R.=X>X{.I.Z.Q.}.*XXX{.",
"{.{.{.{.Q.b.F , M.x.Z b.b.Z z.n.V 9 : B M : - - - - - M B : : : : : : Z 5.8X7X6X: , V b.W.6X6X6XT 9   >.Z.{.*X>X{.I.Z.Q.XX>X$X{.",
"{.{.{.{.L.o {.6X6X,Xm._ _ m.=.V : 8 V :     =.n.n.n.n.m : V 8 : : 8 V 1X6X8X#XA.n.=.  B _ A.A.A.m.;.V : . o L.>X{.{.{.;X;X{.{.{.",
"{.Q.I.V.>.G %X7X<X;X@X`.C.;.F 9 - : 9 D %.V.Z.M.M.M.M.J D 9 , : 8 *.L.5X6X<X-X@XM.x.G M V ;.W.@XM.b.=.V.6., 5.L.I.I.I.;X;X{.{.{.",
"{.I.Z.m N M.,X6XA.@X8X8X2XV 9 :       b.!.8X@XM.M.M.M.M.b.: : : V ).8X8X5XM.<X7XA.M.M.m - V oX6XA.M.M.4X2XV , - b.Z.Z.;X;X{.{.{.",
"{.XX;XS *.5X-X!.M.A.!.!.E.b.D - c.b.b.<X2X!.A.M.M.M.M.%.` b._ B , T 5.I.+X5X-XW._ -.M.b.;.: R 5.M.+X5X6X6X2X{.c.M %.Z.;X;X{.{.{.",
"{.XX;XS *.8X@XM.W.E.M.M.n.c.H N n.A.!.2X2X!.A.M.M.n.b.` ` b.=.F , M R c.A.5X{.b._ =.b.m.b.m M B b.$X8X6X6X8X;XW.o F Z.;X;X{.{.{.",
"{.{.{.V *.8X@XA.6X<XM.M.c.  -.M.M.@X8X!.!.8X@XM.M.z.V b.b.V z.n.Z =.M._ F M.=.Z m.z.V b.M.M.H   V ).8X!.!.8X8X6X: F Z.;X;X{.{.{.",
"{.S.*.=.v.@XW.M.@X~.M.-.H   -.M.M.W.@X;X;X@XW.M.=.-.;.=.=.;.-.%.V D =.;.-.=.-.;.=.-.;.n.n.H N 9 V N.@XA.A.@X@X$X-.J F {.XX{.{.{.",
"{.N.  b.M.M.M.M.M.M.M._ B   -.m.m.M.M.4X3XM.M.n.Z =.M._ _ m.=.V V V V b.b.V ;.n.Z =.m.M.b.. 9 V V =.m.M.M.M.M.M.M.-.o S.{.{.{.{.",
"{.N.  >X4XM.M.M.M.x.Z b.b.V V Z Z =.M.A.A.M.=.Z n.z.Z b.b.Z 9 : : 9 V V _ M.=.S n.;.Z b.M.m.=.V n.z.Z b.M.M.M.M.M.@X6X*.T <X$X{.",
"{.N.  1X5XM.M.M.x.-.=.;.-.V V V %.-.z.n.n.z.-.=.z.-.=.;.-.V 9 : : 8 V V D z._ V ;.-.=.;.z.z._ V ;.-.=.;.c.M.~.@X@X-X<X>.` L.L.I.",
"{.N.  1X5XM.M.m.Z =.M.R V V V Z m.;.V b.b.V ;.M.Z =.M.F V V 9 : : 8 V V V V V V V =.M._ V V V V V =.M.F F M.<X8X8X<XM.M.c.  =.Z.",
"{.N.  1X5XM.-._ b.;.F Z B , M V F =.b.` ` b.=.F V S F 9 , , : : : : , B V V 9 , V S F Z B , M V b.;.F x.c.F *X6X~.#X4XW.c.  >.Q.",
"{.N.  ;X2Xb.=._ b.-.V B M : 9 B V ` b.D D b.` V B B V , : : : : : : : B V B 8 : B B V B M : 9 V b.;.F c.c.F *X6X~.;X8X!.c.  N.{.",
"{.N.  c.b.V ;.n.Z V V , : : : : V V V , , V V V : 9 V , : : : : : : : B B : : : : 8 V , : : 9 V V =.M.F F M.<X8X8X8X8X!.c.  N.{.",
"{.N.  H -.z.-.%.9 9 9 : : : : : 8 9 9 : : 9 9 8 : , 9 : : 9 9 9 : : : 8 8 : : : : , 9 : : : , 9 9 S =.;.-.H N.S.S.S.S.%.H =.S.{.",
"{.N.- M F n.%.V : : : : : : : : : : : : : : : 2 : : 2 : , V V B : : : : : : : : : : : : : : : : : 9 V b.b.: : : : : : X 9 Z.I.{.",
"{.{.{.V . - : : : : : : :   9 B : : : : : : z $.2 k $.a @ @ @ @ @ 1 : : : : : : : : : : : : : : : 9 V b.b.: : : : 8 V : 9 Z.I.{.",
"{.}.$X5._   : 8 8 8 8 : 9 6.R 0 7 7 : : : : k b 1 p b i # i 6 @ @ @ 1 : : : : : : : : ; < < ; : : , 9 =.%.- - - - : 9 _ 5.Q.{.{.",
"{.$X<X}.L.  9 V V V V - T <X8.$ h g : : : : 1 @ @ @ @ @ 6 j i @ @ @ @ < : : : : : : : % $ $ < : : : : : :             L.}.<X%X{.",
"{.$X<XI.I.oX:.: : : : L.XX}.I.L.5 i h 5 @ @ a h @.l @ f j #.h @ @.l @ s h h b @.j.] h 5 @ $ O . . - : o M S.S.L.XXoXoX{.}.<X%X{.",
"{.$X<XI.I.;XV.T V B B oX;X{.{.{.& i j i 6 @ s j #.b a l b h.j # h.n a f h h b #.j.] h = 5 C B m S B : 8 R {.{.{.;X;X;X}.}.<X%X{.",
"{.$X<XI.Z.{.*X>X{.{.{.;X=XJ.R.{.& i j j h @ s j j b h.h.h.h.j # h.h.h.a @ @ @ @ @ @ @ $ P {.I.Z.>XL.  x.Z.{.{.{.{.{.{.{.}.<X%X{.",
"{.}.$XQ.I.I.%X>X{.{.{. X[.J. X*X9.} i h j b l j j b h.@.b b j f h.#.b i # s l b b h & ,.V.Y.K.Z.>XXXN.B.Z.{.$X*XI.I.I.I.I.$X}.{.",
"{.{.{.{.Q.Z.XX>X}.{.{.J.J.J.OX>XJ.9.3 h z h.b j j b h.v j j j j h.@.j 6 6 j @.h.h.b 3 L.{.J.D.Z.>X*X{.Z.Z.{.*X;XZ.Z.Z.Z.Z.{.{.{.",
"{.%X>X}.{.J.R.}.>X*X{.Z.I.>X XJ.{.XX;X&.d l.j.h.j b h.v j j j j h.h.h.z z h.j.l.* &.{.;X*XZ.I.{.{.{.{.Z.I.>X{.Z.J. X>XI.I.>X$X{.",
"{.XX*X%XXXY.U.I.>X%XI.I.Q.<XOXY.{.}.XXW i g.g.h.j b h.@.b j j j @.@.@.l v h.j.l.& &.R.;X;XI.I.I.$XXX{.P.U.<X.XD.F.].*X}.}.*XXX{.",
"{.{.{.;X;X{.I.Z.>XXXZ.Q.}.<X%X{.{.I.Z.C * j @.h.j b h.h.#.j j j j j j j v h.j.l.& } J.=X;X{.I.Z.>X*X{.J.'.<X XJ.Z.I.{.;X;X{.{.{.",
"{.{.{.;X;XZ.I.Q.>XXXZ.H.T.}.I.Z.J.H.Z.C * j @.h.#.$.h.b z j n #.j j j j v h.j.l.& } J..X}.Z.}.*XXXQ.Z.U.{.}.U.K.*X}.Z.;X;XZ.Q.{.",
"{.{.{.;X;XZ.I.{.=XXXZ.J.T.}.I.Z.J.F.v.L 7 h @.g.h.h.h.v j j @.#.v l j j v h.j.l.& } G.`.L.D.XX>X{.I.Z.{.}.{.I.I.*X}.Z.%X$XZ.I.{.",
"{.{.{.;X;XZ.I.{.J.F.Z.J.'.<X{.Z.J.0.Q ..| $ d.l.h.h.h.v j j j j h.@.j j v h.j.l.& ^ i.q.4.J.OX>XZ.I.{.;X=XJ.OX>XZ.I.{.Z.Z.{.{.{.",
"{.{.{.;X;XI.Q.{.J.Y.XXT.'.<XL.:.4.4.) ..| $ d.l.h.#.b @.n j b @.b n @.l v h.j.l.& I 1.r.y.9.(._.F.].*X%XXXD.XX>XI.I.I.}.}.I.Q.{.",
"{.{.{.;X;X{.{.{.J. X>X'.'.>XC.! Q ) 1...| $ d.l.h.@.j #.#.j @.h.j b h.v v h.j.l.* e E r.t...w.a.G.[.>X}.Q.Z.XX>X}.I.Z.*X*XZ.I.{.",
"{.{.{.{.{.{.*X>X{.{.{.4.O.3.t.i.3.1.1.i.w.$ d.l.h.@.j #.#.j @.h.j b h.v v h.h.h.k.] & e.i.1.1.3.3.r.s.B.D.J.].}.>X*X{.Z.I.>X$X{.",
"{.{.{.XXXX{.*X>X)./.C.2.X.O.t.i.3.1.1.o./ $ d.l.h.@.j #.#.s n h.j b h.v v h.#.@.l.d.$ o.q.1.1.1.1.3.q.6.N.0.P.{.*X%X$XI.Q.<X%X{.",
"{.{.{.;X;X{.*X>Xs.q.Q <.1...w.i.3.1.1.0 $ $ d.l.h.@.j #.#.@ b h.j b h.v v h.b j l.d.$ E ( 1.1.1.1.) Q <.<.Q C.{.{.$X<X}.}.<X%X{.",
"{.XX;XXX}.Z.V.p.i.r.<.( ( 1.r.i.i.o.4 d.d.f l x v h 6 #.#.@ f z i l h.v h a f j x l f 7 4 4 o.i.i.e.<.1.3.r.u.7.{.$X<XXX{.}.}.{.",
"{.$X<X}.I.v.7.1.i.r.1.( ( 1.r.i.e./ $ f.g.f h j [ g @ b b @ a f @ j h.v h @ a h h h h 6 6 d ..e.i.r.1.1.3.t.e.q.`.}.;XoX}.}.}.{.",
"{.$X<XI.b.Q ) 1.i.r.1.( ( 1.1.1.& $ $ f f $ a j 1.Y @ @ @ @ @ @ @ j h.v h @ @ @ @ @ @ h x l.x & 1.1.1.1.1...w.i.3.V.{.;X<X<X%X{.",
"{.}.%XQ.S.) ) ) e.2.X.3.3.X.^ I Y { s a g o.{ p L L / o. .@ @ @ @ i j +...@ @ @ @ 7 K p f ] +.o.I ^ X.e.r.O.t.i.X.8.Y.;X;X$X}.{.",
"{.{.{.{.`.3.) ! 1.O...t.t...u 3 o...j 6 u i.{ 5 5 L <.r.w.5 @ @ @ @ 5 w.w.@ @ @ @ e E 7 6 c +.t.3 u ..t.i.1.r.i...9.J.=X;X{.{.{.",
"{.{.{.;X*XB.7.1.! 1.i.) ( 1.r.t.& I 1.t.q.+ U <.<.Y * & y i.Y & h +.i.y 4 E q & E K & U ( a.^ & t.r.1.i.t...w.a.{.{.{.;X;X{.{.{.",
"{.{.{.%X%XQ.C.7.) 3.i.<.) ' r.i.u Y ' t.r.t / 1.^ y @ y ^ i./ e s ..i.U q K 0 3 ~ I q K Y i. .u 3.3.1.i.t.X.p.^.{.{.{.;X;X{.{.{.",
"{.{.{.{.}.<XQ.B.3.e.i.q.<.Q q.i... .Q r.t...O.1.& $ $ ) q.i.1.E & ^ i.) U $ 4 r r ~ Q 4 y i.2...! ( 1.i.i.1./.{.{.{.{.;X;X{.{.{.",
"{.XX;X}.}.<XXXQ.`.^.i.' ( <.r.i.! ( <.i.t.......)  .| ..O.i.q.<.| X.q.<.1.r.1.) E ( <.q.e.q.o.! <.<.1.3.p.%X}.{.;X%X{.}.XX;XXX{.",
"{.$X<X}.}.;XXX{.{.`.^.<.( <.r.i.( ) <.i.t.......q.2...O.O.i.e.1.O.O.q.q.e.i.q.<.( ( <.i.i.1.) ( 3.q.q.7.^.;XXX{.>X*X{.{.}.<X%X{.",
"{.$X<X}.{.{.{.{.{.%X<Xp.<.Q ) 1.1.) Q r.i.1.1.1.i.r.1.i.i.1.X...i.i.i.i.i.1.) Q 1.) Q r.i.1.1.1.i.i.i.`.{.{.{.{.>X*X{.{.}.<X%X{.",
"{.}.%X}.{.{.{.{.{.}.%X).C.C.C./.3.<.) q.q.1.1.1.e.q.1.q.q.1.1.O.e.e.e.e.q.1.<.' 1.<.) q.q.1.1.3.).).).{.{.{.{.{.$XXX{.{.}.%X}.{.",
"{.{.{.{.{.{.{.{.{.{.{.{.{.{.{.{.3.1.1.1.1.1.1.1.1.1.1.1.1.1.1.1.1.1.1.1.1.1.1.1.1.1.1.1.1.1.1.3.{.{.{.{.{.{.{.{.{.{.{.{.{.{.{.{."
};
